(polar_engraving)
(Generated by cnc_radial_surface_app.py)
G90 G94
G17
G21
M6 T1
M851 S100
S12000 M3
G54
G0 X1.987 Y0.
Z5.
G1 Z5. F202.6
Z0.635 F80.
Z-0.274
X2.012 Y0.174 F202.6
X2. Y0.347
X1.943 Y0.513
X1.859 Y0.665
X1.769 Y0.812
X1.691 Y0.968
X1.623 Y1.132
X1.546 Y1.291
X1.441 Y1.43
X1.304 Y1.538
X1.148 Y1.616
X0.988 Y1.682
X0.832 Y1.758
X0.68 Y1.85
X0.526 Y1.937
X0.363 Y1.996
X0.189 Y2.013
X0.015 Y1.99
X-0.153 Y1.95
X-0.322 Y1.917
X-0.498 Y1.899
X-0.675 Y1.882
X-0.845 Y1.842
X-1. Y1.762
X-1.131 Y1.647
X-1.246 Y1.517
X-1.361 Y1.388
X-1.49 Y1.269
X-1.624 Y1.152
X-1.744 Y1.025
X-1.831 Y0.874
X-1.878 Y0.705
X-1.897 Y0.532
X-1.912 Y0.361
X-1.942 Y0.188
X-1.983 Y0.015
X-2.011 Y-0.158
X-2.003 Y-0.332
X-1.95 Y-0.499
X-1.867 Y-0.652
X-1.777 Y-0.799
X-1.697 Y-0.954
X-1.629 Y-1.118
X-1.554 Y-1.277
X-1.452 Y-1.419
X-1.317 Y-1.53
X-1.162 Y-1.61
X-1.002 Y-1.676
X-0.846 Y-1.751
X-0.693 Y-1.841
X-0.54 Y-1.93
X-0.378 Y-1.993
X-0.204 Y-2.013
X-0.03 Y-1.993
X0.138 Y-1.954
X0.307 Y-1.919
X0.483 Y-1.9
X0.659 Y-1.884
X0.83 Y-1.847
X0.987 Y-1.771
X1.121 Y-1.658
X1.236 Y-1.528
X1.35 Y-1.399
X1.478 Y-1.279
X1.613 Y-1.163
X1.735 Y-1.037
X1.825 Y-0.888
X1.875 Y-0.72
X1.895 Y-0.547
X1.91 Y-0.376
X1.939 Y-0.204
X1.98 Y-0.03
X1.987 Y0.
G0 Z5.
G0 X2.394 Y0.
Z5.
G1 Z5. F202.6
Z0.635 F80.
Z-0.274
X2.428 Y0.172 F202.6
X2.428 Y0.345
X2.384 Y0.514
X2.305 Y0.671
X2.21 Y0.816
X2.117 Y0.96
X2.04 Y1.117
X1.979 Y1.284
X1.919 Y1.451
X1.84 Y1.606
X1.728 Y1.74
X1.586 Y1.842
X1.427 Y1.915
X1.265 Y1.975
X1.106 Y2.041
X0.954 Y2.128
X0.807 Y2.23
X0.659 Y2.326
X0.5 Y2.396
X0.329 Y2.427
X0.153 Y2.416
X-0.016 Y2.376
X-0.182 Y2.329
X-0.351 Y2.294
X-0.527 Y2.281
X-0.706 Y2.278
X-0.88 Y2.263
X-1.048 Y2.216
X-1.199 Y2.13
X-1.328 Y2.01
X-1.438 Y1.876
X-1.546 Y1.742
X-1.667 Y1.618
X-1.805 Y1.506
X-1.947 Y1.398
X-2.074 Y1.279
X-2.174 Y1.137
X-2.235 Y0.972
X-2.26 Y0.799
X-2.268 Y0.626
X-2.279 Y0.455
X-2.31 Y0.283
X-2.36 Y0.112
X-2.409 Y-0.059
X-2.433 Y-0.231
X-2.418 Y-0.404
X-2.36 Y-0.57
X-2.273 Y-0.722
X-2.177 Y-0.865
X-2.089 Y-1.013
X-2.018 Y-1.174
X-1.96 Y-1.342
X-1.895 Y-1.506
X-1.805 Y-1.655
X-1.682 Y-1.779
X-1.532 Y-1.87
X-1.371 Y-1.936
X-1.21 Y-1.996
X-1.053 Y-2.069
X-0.903 Y-2.163
X-0.757 Y-2.265
X-0.606 Y-2.354
X-0.442 Y-2.412
X-0.268 Y-2.428
X-0.094 Y-2.404
X0.074 Y-2.359
X0.239 Y-2.315
X0.411 Y-2.287
X0.589 Y-2.28
X0.766 Y-2.275
X0.939 Y-2.251
X1.102 Y-2.191
X1.246 Y-2.091
X1.367 Y-1.964
X1.475 Y-1.829
X1.585 Y-1.698
X1.713 Y-1.578
X1.855 Y-1.469
X1.993 Y-1.359
X2.112 Y-1.233
X2.199 Y-1.082
X2.247 Y-0.913
X2.264 Y-0.739
X2.27 Y-0.567
X2.287 Y-0.395
X2.326 Y-0.224
X2.378 Y-0.053
X2.394 Y0.
G0 Z5.
G0 X2.806 Y0.
Z5.
G1 Z5. F202.6
Z0.635 F80.
Z-0.274
X2.849 Y0.169 F202.6
X2.859 Y0.342
X2.826 Y0.513
X2.754 Y0.674
X2.658 Y0.82
X2.556 Y0.959
X2.462 Y1.102
X2.387 Y1.259
X2.332 Y1.429
X2.285 Y1.601
X2.226 Y1.766
X2.142 Y1.918
X2.024 Y2.046
X1.877 Y2.142
X1.715 Y2.21
X1.55 Y2.263
X1.389 Y2.319
X1.234 Y2.395
X1.087 Y2.495
X0.947 Y2.607
X0.805 Y2.712
X0.652 Y2.793
X0.485 Y2.84
X0.309 Y2.843
X0.136 Y2.81
X-0.03 Y2.758
X-0.193 Y2.705
X-0.36 Y2.669
X-0.536 Y2.657
X-0.715 Y2.663
X-0.893 Y2.668
X-1.066 Y2.653
X-1.232 Y2.604
X-1.382 Y2.514
X-1.509 Y2.392
X-1.616 Y2.254
X-1.717 Y2.114
X-1.825 Y1.982
X-1.955 Y1.865
X-2.102 Y1.762
X-2.25 Y1.664
X-2.387 Y1.555
X-2.501 Y1.424
X-2.58 Y1.269
X-2.621 Y1.098
X-2.632 Y0.923
X-2.631 Y0.75
X-2.637 Y0.579
X-2.665 Y0.408
X-2.718 Y0.238
X-2.781 Y0.071
X-2.834 Y-0.097
X-2.86 Y-0.268
X-2.846 Y-0.441
X-2.789 Y-0.608
X-2.7 Y-0.76
X-2.599 Y-0.9
X-2.5 Y-1.04
X-2.416 Y-1.19
X-2.353 Y-1.356
X-2.305 Y-1.528
X-2.254 Y-1.697
X-2.182 Y-1.856
X-2.079 Y-1.995
X-1.942 Y-2.105
X-1.785 Y-2.184
X-1.62 Y-2.241
X-1.457 Y-2.294
X-1.299 Y-2.36
X-1.148 Y-2.45
X-1.006 Y-2.56
X-0.866 Y-2.669
X-0.719 Y-2.762
X-0.558 Y-2.825
X-0.384 Y-2.847
X-0.209 Y-2.827
X-0.04 Y-2.781
X0.123 Y-2.727
X0.288 Y-2.681
X0.461 Y-2.659
X0.639 Y-2.66
X0.818 Y-2.668
X0.993 Y-2.663
X1.163 Y-2.63
X1.321 Y-2.557
X1.458 Y-2.446
X1.573 Y-2.313
X1.674 Y-2.173
X1.777 Y-2.037
X1.897 Y-1.913
X2.038 Y-1.804
X2.188 Y-1.706
X2.331 Y-1.603
X2.456 Y-1.483
X2.551 Y-1.338
X2.608 Y-1.172
X2.63 Y-0.997
X2.632 Y-0.823
X2.633 Y-0.652
X2.649 Y-0.481
X2.693 Y-0.31
X2.754 Y-0.142
X2.806 Y0.
G0 Z5.
G0 X3.225 Y0.
Z5.
G1 Z5. F202.6
Z0.635 F80.
Z-0.274
X3.276 Y0.166 F202.6
X3.294 Y0.338
X3.27 Y0.511
X3.205 Y0.675
X3.111 Y0.824
X3.004 Y0.961
X2.897 Y1.095
X2.802 Y1.236
X2.73 Y1.394
X2.681 Y1.567
X2.645 Y1.743
X2.604 Y1.914
X2.544 Y2.077
X2.454 Y2.225
X2.33 Y2.347
X2.179 Y2.438
X2.014 Y2.501
X1.847 Y2.548
X1.683 Y2.594
X1.523 Y2.655
X1.373 Y2.744
X1.233 Y2.857
X1.101 Y2.978
X0.966 Y3.091
X0.821 Y3.185
X0.659 Y3.248
X0.486 Y3.269
X0.31 Y3.249
X0.141 Y3.201
X-0.021 Y3.14
X-0.181 Y3.082
X-0.347 Y3.04
X-0.522 Y3.026
X-0.701 Y3.038
X-0.879 Y3.058
X-1.054 Y3.069
X-1.227 Y3.056
X-1.393 Y3.008
X-1.544 Y2.919
X-1.672 Y2.797
X-1.778 Y2.657
X-1.873 Y2.512
X-1.969 Y2.371
X-2.081 Y2.242
X-2.217 Y2.13
X-2.37 Y2.036
X-2.526 Y1.948
X-2.673 Y1.852
X-2.802 Y1.737
X-2.904 Y1.598
X-2.97 Y1.435
X-2.998 Y1.26
X-3. Y1.085
X-2.991 Y0.913
X-2.988 Y0.742
X-3.005 Y0.572
X-3.053 Y0.401
X-3.123 Y0.236
X-3.196 Y0.073
X-3.256 Y-0.091
X-3.29 Y-0.261
X-3.286 Y-0.434
X-3.239 Y-0.603
X-3.156 Y-0.759
X-3.053 Y-0.901
X-2.944 Y-1.035
X-2.843 Y-1.171
X-2.759 Y-1.321
X-2.7 Y-1.489
X-2.661 Y-1.664
X-2.624 Y-1.838
X-2.574 Y-2.006
X-2.499 Y-2.161
X-2.39 Y-2.296
X-2.249 Y-2.401
X-2.089 Y-2.476
X-1.922 Y-2.528
X-1.756 Y-2.573
X-1.594 Y-2.625
X-1.439 Y-2.7
X-1.294 Y-2.804
X-1.16 Y-2.924
X-1.027 Y-3.042
X-0.888 Y-3.146
X-0.734 Y-3.224
X-0.565 Y-3.265
X-0.389 Y-3.263
X-0.216 Y-3.225
X-0.051 Y-3.168
X0.109 Y-3.107
X0.272 Y-3.056
X0.443 Y-3.029
X0.621 Y-3.031
X0.8 Y-3.049
X0.976 Y-3.066
X1.15 Y-3.066
X1.32 Y-3.034
X1.479 Y-2.963
X1.617 Y-2.854
X1.733 Y-2.721
X1.831 Y-2.577
X1.925 Y-2.434
X2.028 Y-2.298
X2.153 Y-2.178
X2.301 Y-2.076
X2.457 Y-1.987
X2.608 Y-1.896
X2.747 Y-1.791
X2.863 Y-1.663
X2.945 Y-1.51
X2.989 Y-1.339
X3.001 Y-1.163
X2.995 Y-0.989
X2.987 Y-0.818
X2.994 Y-0.648
X3.028 Y-0.477
X3.09 Y-0.309
X3.164 Y-0.146
X3.225 Y0.
G0 Z5.
G0 X3.653 Y0.
Z5.
G1 Z5. F202.6
Z0.635 F80.
Z-0.274
X3.709 Y0.164 F202.6
X3.734 Y0.334
X3.717 Y0.507
X3.658 Y0.674
X3.567 Y0.826
X3.458 Y0.963
X3.344 Y1.093
X3.234 Y1.223
X3.139 Y1.364
X3.069 Y1.523
X3.027 Y1.698
X3.001 Y1.876
X2.975 Y2.052
X2.936 Y2.222
X2.873 Y2.382
X2.777 Y2.526
X2.647 Y2.644
X2.492 Y2.73
X2.326 Y2.788
X2.156 Y2.829
X1.989 Y2.866
X1.826 Y2.913
X1.67 Y2.984
X1.525 Y3.086
X1.394 Y3.21
X1.27 Y3.339
X1.143 Y3.462
X1.006 Y3.568
X0.854 Y3.647
X0.685 Y3.69
X0.509 Y3.69
X0.336 Y3.653
X0.17 Y3.594
X0.011 Y3.526
X-0.146 Y3.46
X-0.308 Y3.411
X-0.481 Y3.39
X-0.66 Y3.401
X-0.838 Y3.43
X-1.013 Y3.46
X-1.187 Y3.478
X-1.359 Y3.471
X-1.527 Y3.429
X-1.68 Y3.346
X-1.813 Y3.229
X-1.922 Y3.089
X-2.015 Y2.942
X-2.102 Y2.794
X-2.195 Y2.652
X-2.307 Y2.523
X-2.446 Y2.415
X-2.604 Y2.326
X-2.766 Y2.248
X-2.922 Y2.167
X-3.067 Y2.072
X-3.193 Y1.954
X-3.289 Y1.81
X-3.348 Y1.644
X-3.37 Y1.468
X-3.367 Y1.292
X-3.351 Y1.119
X-3.337 Y0.949
X-3.338 Y0.78
X-3.367 Y0.609
X-3.43 Y0.442
X-3.512 Y0.281
X-3.595 Y0.123
X-3.668 Y-0.036
X-3.718 Y-0.201
X-3.734 Y-0.373
X-3.707 Y-0.545
X-3.64 Y-0.709
X-3.544 Y-0.858
X-3.433 Y-0.993
X-3.319 Y-1.121
X-3.211 Y-1.253
X-3.121 Y-1.398
X-3.058 Y-1.561
X-3.02 Y-1.738
X-2.995 Y-1.916
X-2.968 Y-2.091
X-2.924 Y-2.259
X-2.854 Y-2.416
X-2.751 Y-2.555
X-2.615 Y-2.666
X-2.456 Y-2.745
X-2.288 Y-2.798
X-2.119 Y-2.837
X-1.952 Y-2.876
X-1.79 Y-2.926
X-1.636 Y-3.004
X-1.495 Y-3.112
X-1.366 Y-3.239
X-1.242 Y-3.367
X-1.114 Y-3.487
X-0.974 Y-3.588
X-0.817 Y-3.661
X-0.646 Y-3.694
X-0.47 Y-3.684
X-0.298 Y-3.642
X-0.134 Y-3.579
X0.024 Y-3.51
X0.182 Y-3.447
X0.346 Y-3.403
X0.52 Y-3.39
X0.7 Y-3.406
X0.877 Y-3.437
X1.052 Y-3.466
X1.226 Y-3.479
X1.397 Y-3.465
X1.562 Y-3.414
X1.712 Y-3.323
X1.839 Y-3.199
X1.944 Y-3.057
X2.034 Y-2.908
X2.122 Y-2.761
X2.218 Y-2.622
X2.336 Y-2.497
X2.481 Y-2.393
X2.64 Y-2.308
X2.801 Y-2.231
X2.956 Y-2.147
X3.097 Y-2.047
X3.217 Y-1.924
X3.306 Y-1.774
X3.356 Y-1.605
X3.371 Y-1.428
X3.364 Y-1.253
X3.348 Y-1.081
X3.335 Y-0.911
X3.341 Y-0.742
X3.379 Y-0.571
X3.447 Y-0.405
X3.531 Y-0.245
X3.613 Y-0.088
X3.653 Y0.
G0 Z5.
G0 X4.091 Y0.
Z5.
G1 Z5. F202.6
Z0.635 F80.
Z-0.274
X4.151 Y0.162 F202.6
X4.18 Y0.331
X4.168 Y0.504
X4.114 Y0.672
X4.025 Y0.826
X3.916 Y0.965
X3.797 Y1.093
X3.678 Y1.216
X3.566 Y1.343
X3.472 Y1.484
X3.406 Y1.645
X3.37 Y1.822
X3.353 Y2.003
X3.34 Y2.181
X3.319 Y2.355
X3.279 Y2.523
X3.213 Y2.681
X3.112 Y2.822
X2.978 Y2.935
X2.82 Y3.016
X2.651 Y3.07
X2.48 Y3.107
X2.31 Y3.136
X2.144 Y3.17
X1.982 Y3.221
X1.83 Y3.303
X1.692 Y3.417
X1.57 Y3.551
X1.454 Y3.688
X1.337 Y3.819
X1.21 Y3.938
X1.068 Y4.035
X0.909 Y4.1
X0.736 Y4.125
X0.559 Y4.109
X0.388 Y4.06
X0.226 Y3.993
X0.07 Y3.917
X-0.084 Y3.844
X-0.242 Y3.784
X-0.41 Y3.751
X-0.587 Y3.752
X-0.766 Y3.783
X-0.941 Y3.826
X-1.113 Y3.866
X-1.285 Y3.893
X-1.457 Y3.897
X-1.627 Y3.867
X-1.786 Y3.798
X-1.926 Y3.69
X-2.043 Y3.555
X-2.139 Y3.407
X-2.222 Y3.255
X-2.303 Y3.104
X-2.391 Y2.96
X-2.499 Y2.828
X-2.636 Y2.718
X-2.794 Y2.632
X-2.961 Y2.562
X-3.126 Y2.494
X-3.284 Y2.419
X-3.43 Y2.327
X-3.557 Y2.211
X-3.655 Y2.069
X-3.717 Y1.904
X-3.741 Y1.728
X-3.738 Y1.551
X-3.718 Y1.377
X-3.694 Y1.207
X-3.676 Y1.038
X-3.678 Y0.869
X-3.713 Y0.699
X-3.783 Y0.534
X-3.873 Y0.377
X-3.968 Y0.225
X-4.055 Y0.072
X-4.126 Y-0.086
X-4.171 Y-0.252
X-4.179 Y-0.424
X-4.144 Y-0.596
X-4.07 Y-0.757
X-3.968 Y-0.903
X-3.853 Y-1.035
X-3.733 Y-1.159
X-3.616 Y-1.283
X-3.513 Y-1.417
X-3.432 Y-1.568
X-3.383 Y-1.739
X-3.359 Y-1.919
X-3.346 Y-2.099
X-3.33 Y-2.275
X-3.3 Y-2.446
X-3.247 Y-2.61
X-3.163 Y-2.76
X-3.043 Y-2.886
X-2.895 Y-2.982
X-2.729 Y-3.048
X-2.559 Y-3.092
X-2.388 Y-3.123
X-2.22 Y-3.153
X-2.056 Y-3.195
X-1.899 Y-3.261
X-1.754 Y-3.361
X-1.625 Y-3.488
X-1.507 Y-3.625
X-1.392 Y-3.76
X-1.27 Y-3.885
X-1.136 Y-3.993
X-0.984 Y-4.074
X-0.817 Y-4.119
X-0.64 Y-4.121
X-0.466 Y-4.086
X-0.3 Y-4.026
X-0.142 Y-3.952
X0.012 Y-3.877
X0.168 Y-3.81
X0.331 Y-3.762
X0.504 Y-3.747
X0.683 Y-3.766
X0.86 Y-3.805
X1.034 Y-3.848
X1.206 Y-3.883
X1.378 Y-3.898
X1.549 Y-3.885
X1.714 Y-3.835
X1.864 Y-3.744
X1.992 Y-3.62
X2.097 Y-3.477
X2.185 Y-3.326
X2.265 Y-3.173
X2.348 Y-3.025
X2.446 Y-2.887
X2.569 Y-2.766
X2.719 Y-2.669
X2.884 Y-2.593
X3.05 Y-2.526
X3.212 Y-2.455
X3.364 Y-2.372
X3.501 Y-2.268
X3.614 Y-2.138
X3.693 Y-1.982
X3.734 Y-1.81
X3.742 Y-1.632
X3.729 Y-1.457
X3.705 Y-1.285
X3.683 Y-1.116
X3.674 Y-0.947
X3.692 Y-0.778
X3.747 Y-0.609
X3.83 Y-0.448
X3.925 Y-0.295
X4.017 Y-0.143
X4.091 Y0.
G0 Z5.
G0 X4.539 Y0.
Z5.
G1 Z5. F202.6
Z0.635 F80.
Z-0.274
X4.602 Y0.16 F202.6
X4.633 Y0.329
X4.624 Y0.502
X4.572 Y0.671
X4.485 Y0.826
X4.375 Y0.966
X4.254 Y1.092
X4.128 Y1.212
X4.006 Y1.33
X3.893 Y1.455
X3.801 Y1.597
X3.739 Y1.761
X3.709 Y1.939
X3.702 Y2.121
X3.7 Y2.3
X3.695 Y2.477
X3.676 Y2.649
X3.635 Y2.816
X3.565 Y2.973
X3.46 Y3.11
X3.322 Y3.22
X3.161 Y3.298
X2.991 Y3.349
X2.818 Y3.381
X2.647 Y3.404
X2.478 Y3.428
X2.312 Y3.461
X2.153 Y3.518
X2.005 Y3.609
X1.874 Y3.734
X1.76 Y3.876
X1.653 Y4.02
X1.546 Y4.16
X1.43 Y4.29
X1.301 Y4.404
X1.154 Y4.492
X0.99 Y4.546
X0.815 Y4.559
X0.639 Y4.531
X0.47 Y4.475
X0.31 Y4.401
X0.157 Y4.319
X0.007 Y4.238
X-0.146 Y4.166
X-0.307 Y4.115
X-0.48 Y4.098
X-0.659 Y4.119
X-0.835 Y4.164
X-1.006 Y4.218
X-1.176 Y4.269
X-1.346 Y4.308
X-1.517 Y4.327
X-1.688 Y4.316
X-1.854 Y4.268
X-2.005 Y4.179
X-2.134 Y4.056
X-2.24 Y3.913
X-2.327 Y3.76
X-2.404 Y3.604
X-2.477 Y3.449
X-2.557 Y3.301
X-2.655 Y3.163
X-2.781 Y3.045
X-2.935 Y2.953
X-3.104 Y2.885
X-3.275 Y2.827
X-3.442 Y2.769
X-3.604 Y2.703
X-3.754 Y2.619
X-3.889 Y2.513
X-3.998 Y2.38
X-4.072 Y2.221
X-4.109 Y2.047
X-4.113 Y1.869
X-4.096 Y1.693
X-4.066 Y1.522
X-4.035 Y1.353
X-4.011 Y1.186
X-4.006 Y1.017
X-4.034 Y0.848
X-4.101 Y0.682
X-4.195 Y0.526
X-4.3 Y0.379
X-4.402 Y0.233
X-4.495 Y0.085
X-4.57 Y-0.07
X-4.62 Y-0.234
X-4.634 Y-0.405
X-4.606 Y-0.578
X-4.537 Y-0.742
X-4.438 Y-0.89
X-4.322 Y-1.023
X-4.198 Y-1.146
X-4.073 Y-1.264
X-3.954 Y-1.384
X-3.849 Y-1.516
X-3.769 Y-1.667
X-3.722 Y-1.839
X-3.704 Y-2.02
X-3.701 Y-2.201
X-3.699 Y-2.379
X-3.688 Y-2.554
X-3.661 Y-2.724
X-3.608 Y-2.887
X-3.523 Y-3.037
X-3.402 Y-3.163
X-3.253 Y-3.258
X-3.087 Y-3.323
X-2.914 Y-3.365
X-2.742 Y-3.392
X-2.571 Y-3.414
X-2.404 Y-3.44
X-2.241 Y-3.483
X-2.086 Y-3.554
X-1.945 Y-3.662
X-1.822 Y-3.796
X-1.712 Y-3.94
X-1.606 Y-4.083
X-1.496 Y-4.219
X-1.375 Y-4.343
X-1.238 Y-4.447
X-1.083 Y-4.521
X-0.913 Y-4.557
X-0.736 Y-4.551
X-0.562 Y-4.509
X-0.398 Y-4.444
X-0.241 Y-4.365
X-0.09 Y-4.283
X0.061 Y-4.204
X0.216 Y-4.14
X0.382 Y-4.103
X0.559 Y-4.103
X0.737 Y-4.137
X0.912 Y-4.188
X1.082 Y-4.242
X1.251 Y-4.288
X1.422 Y-4.319
X1.593 Y-4.326
X1.763 Y-4.3
X1.923 Y-4.233
X2.065 Y-4.128
X2.184 Y-3.995
X2.28 Y-3.846
X2.362 Y-3.691
X2.436 Y-3.535
X2.511 Y-3.382
X2.598 Y-3.238
X2.707 Y-3.108
X2.847 Y-3.001
X3.009 Y-2.921
X3.18 Y-2.859
X3.35 Y-2.802
X3.515 Y-2.741
X3.672 Y-2.668
X3.817 Y-2.575
X3.941 Y-2.457
X4.036 Y-2.312
X4.093 Y-2.145
X4.114 Y-1.968
X4.107 Y-1.791
X4.083 Y-1.617
X4.052 Y-1.447
X4.023 Y-1.279
X4.005 Y-1.111
X4.014 Y-0.942
X4.059 Y-0.773
X4.141 Y-0.611
X4.241 Y-0.46
X4.346 Y-0.314
X4.445 Y-0.168
X4.531 Y-0.017
X4.539 Y0.
G0 Z5.
G0 X4.999 Y0.
Z5.
G1 Z5. F202.6
Z0.635 F80.
Z-0.274
X5.062 Y0.159 F202.6
X5.094 Y0.327
X5.085 Y0.501
X5.033 Y0.67
X4.946 Y0.826
X4.836 Y0.966
X4.712 Y1.092
X4.583 Y1.208
X4.453 Y1.321
X4.328 Y1.436
X4.216 Y1.56
X4.125 Y1.703
X4.068 Y1.869
X4.046 Y2.049
X4.047 Y2.232
X4.057 Y2.412
X4.065 Y2.589
X4.063 Y2.763
X4.045 Y2.935
X4.003 Y3.101
X3.93 Y3.256
X3.822 Y3.391
X3.682 Y3.498
X3.52 Y3.574
X3.348 Y3.623
X3.174 Y3.652
X3.001 Y3.671
X2.83 Y3.686
X2.661 Y3.705
X2.497 Y3.739
X2.34 Y3.801
X2.196 Y3.901
X2.071 Y4.033
X1.965 Y4.181
X1.867 Y4.332
X1.769 Y4.48
X1.665 Y4.621
X1.55 Y4.749
X1.419 Y4.859
X1.27 Y4.943
X1.103 Y4.99
X0.926 Y4.995
X0.75 Y4.961
X0.583 Y4.9
X0.424 Y4.822
X0.273 Y4.735
X0.126 Y4.647
X-0.021 Y4.563
X-0.174 Y4.494
X-0.338 Y4.451
X-0.513 Y4.446
X-0.691 Y4.479
X-0.865 Y4.536
X-1.033 Y4.601
X-1.199 Y4.663
X-1.365 Y4.716
X-1.534 Y4.753
X-1.705 Y4.765
X-1.875 Y4.746
X-2.038 Y4.687
X-2.184 Y4.588
X-2.307 Y4.458
X-2.407 Y4.31
X-2.489 Y4.154
X-2.561 Y3.995
X-2.628 Y3.837
X-2.698 Y3.683
X-2.78 Y3.536
X-2.887 Y3.405
X-3.025 Y3.297
X-3.188 Y3.219
X-3.362 Y3.163
X-3.536 Y3.116
X-3.707 Y3.069
X-3.873 Y3.014
X-4.031 Y2.945
X-4.177 Y2.856
X-4.304 Y2.74
X-4.401 Y2.597
X-4.462 Y2.432
X-4.486 Y2.255
X-4.481 Y2.076
X-4.456 Y1.901
X-4.421 Y1.73
X-4.382 Y1.563
X-4.348 Y1.397
X-4.328 Y1.23
X-4.336 Y1.062
X-4.384 Y0.893
X-4.469 Y0.733
X-4.576 Y0.585
X-4.69 Y0.445
X-4.801 Y0.307
X-4.903 Y0.165
X-4.991 Y0.016
X-5.057 Y-0.142
X-5.092 Y-0.309
X-5.088 Y-0.482
X-5.041 Y-0.652
X-4.957 Y-0.81
X-4.848 Y-0.951
X-4.726 Y-1.079
X-4.597 Y-1.196
X-4.467 Y-1.309
X-4.341 Y-1.423
X-4.227 Y-1.546
X-4.134 Y-1.687
X-4.072 Y-1.85
X-4.047 Y-2.03
X-4.046 Y-2.212
X-4.056 Y-2.393
X-4.064 Y-2.57
X-4.064 Y-2.745
X-4.048 Y-2.917
X-4.009 Y-3.083
X-3.94 Y-3.24
X-3.835 Y-3.378
X-3.698 Y-3.489
X-3.538 Y-3.567
X-3.367 Y-3.619
X-3.193 Y-3.65
X-3.019 Y-3.669
X-2.848 Y-3.684
X-2.679 Y-3.702
X-2.514 Y-3.734
X-2.356 Y-3.793
X-2.21 Y-3.888
X-2.084 Y-4.018
X-1.975 Y-4.165
X-1.877 Y-4.316
X-1.78 Y-4.465
X-1.677 Y-4.606
X-1.563 Y-4.736
X-1.434 Y-4.849
X-1.286 Y-4.935
X-1.121 Y-4.987
X-0.945 Y-4.996
X-0.769 Y-4.967
X-0.6 Y-4.908
X-0.441 Y-4.831
X-0.289 Y-4.745
X-0.142 Y-4.656
X0.005 Y-4.572
X0.157 Y-4.5
X0.319 Y-4.454
X0.493 Y-4.444
X0.672 Y-4.474
X0.846 Y-4.529
X1.015 Y-4.594
X1.181 Y-4.657
X1.347 Y-4.711
X1.516 Y-4.75
X1.686 Y-4.766
X1.857 Y-4.75
X2.021 Y-4.695
X2.169 Y-4.6
X2.295 Y-4.473
X2.397 Y-4.327
X2.481 Y-4.171
X2.554 Y-4.012
X2.621 Y-3.854
X2.69 Y-3.699
X2.771 Y-3.551
X2.874 Y-3.418
X3.008 Y-3.307
X3.17 Y-3.226
X3.343 Y-3.168
X3.518 Y-3.121
X3.689 Y-3.074
X3.856 Y-3.021
X4.015 Y-2.953
X4.162 Y-2.866
X4.291 Y-2.754
X4.393 Y-2.614
X4.458 Y-2.45
X4.485 Y-2.274
X4.483 Y-2.095
X4.46 Y-1.92
X4.425 Y-1.749
X4.386 Y-1.581
X4.351 Y-1.415
X4.329 Y-1.248
X4.333 Y-1.08
X4.376 Y-0.911
X4.459 Y-0.75
X4.564 Y-0.601
X4.678 Y-0.46
X4.789 Y-0.322
X4.893 Y-0.181
X4.982 Y-0.033
X4.999 Y0.
G0 Z5.
G0 X5.47 Y0.
Z5.
G1 Z5. F202.6
Z0.635 F80.
Z-0.274
X5.533 Y0.159 F202.6
X5.562 Y0.328
X5.551 Y0.501
X5.497 Y0.67
X5.409 Y0.825
X5.296 Y0.965
X5.171 Y1.09
X5.038 Y1.204
X4.904 Y1.313
X4.771 Y1.42
X4.645 Y1.532
X4.533 Y1.657
X4.446 Y1.801
X4.394 Y1.97
X4.38 Y2.152
X4.39 Y2.335
X4.409 Y2.514
X4.429 Y2.691
X4.443 Y2.866
X4.444 Y3.039
X4.427 Y3.21
X4.385 Y3.375
X4.31 Y3.53
X4.201 Y3.664
X4.059 Y3.77
X3.896 Y3.845
X3.724 Y3.892
X3.548 Y3.92
X3.374 Y3.935
X3.201 Y3.944
X3.03 Y3.953
X2.863 Y3.969
X2.699 Y4.003
X2.543 Y4.068
X2.401 Y4.172
X2.282 Y4.31
X2.182 Y4.464
X2.092 Y4.621
X2.004 Y4.775
X1.913 Y4.925
X1.812 Y5.066
X1.698 Y5.195
X1.568 Y5.305
X1.418 Y5.387
X1.25 Y5.433
X1.073 Y5.436
X0.897 Y5.402
X0.73 Y5.34
X0.571 Y5.26
X0.421 Y5.17
X0.276 Y5.075
X0.133 Y4.982
X-0.012 Y4.897
X-0.164 Y4.827
X-0.328 Y4.786
X-0.504 Y4.786
X-0.682 Y4.827
X-0.853 Y4.892
X-1.018 Y4.966
X-1.18 Y5.039
X-1.342 Y5.107
X-1.507 Y5.162
X-1.674 Y5.2
X-1.844 Y5.213
X-2.014 Y5.193
X-2.177 Y5.133
X-2.323 Y5.033
X-2.446 Y4.903
X-2.546 Y4.754
X-2.627 Y4.597
X-2.696 Y4.435
X-2.758 Y4.274
X-2.819 Y4.114
X-2.886 Y3.959
X-2.967 Y3.813
X-3.075 Y3.683
X-3.216 Y3.579
X-3.383 Y3.506
X-3.559 Y3.457
X-3.737 Y3.42
X-3.911 Y3.384
X-4.082 Y3.344
X-4.248 Y3.293
X-4.406 Y3.226
X-4.552 Y3.137
X-4.678 Y3.022
X-4.775 Y2.878
X-4.836 Y2.712
X-4.86 Y2.535
X-4.854 Y2.356
X-4.828 Y2.18
X-4.79 Y2.009
X-4.745 Y1.842
X-4.7 Y1.677
X-4.663 Y1.512
X-4.642 Y1.346
X-4.651 Y1.178
X-4.703 Y1.01
X-4.794 Y0.853
X-4.908 Y0.709
X-5.029 Y0.575
X-5.15 Y0.443
X-5.264 Y0.31
X-5.369 Y0.172
X-5.458 Y0.025
X-5.525 Y-0.132
X-5.56 Y-0.3
X-5.556 Y-0.473
X-5.509 Y-0.643
X-5.425 Y-0.801
X-5.316 Y-0.943
X-5.192 Y-1.07
X-5.06 Y-1.186
X-4.925 Y-1.295
X-4.792 Y-1.403
X-4.665 Y-1.514
X-4.55 Y-1.635
X-4.458 Y-1.776
X-4.4 Y-1.941
X-4.38 Y-2.122
X-4.387 Y-2.305
X-4.406 Y-2.485
X-4.426 Y-2.662
X-4.441 Y-2.838
X-4.445 Y-3.011
X-4.431 Y-3.183
X-4.393 Y-3.349
X-4.325 Y-3.506
X-4.221 Y-3.644
X-4.083 Y-3.755
X-3.923 Y-3.835
X-3.752 Y-3.886
X-3.577 Y-3.917
X-3.402 Y-3.934
X-3.229 Y-3.943
X-3.058 Y-3.951
X-2.89 Y-3.966
X-2.725 Y-3.996
X-2.567 Y-4.055
X-2.423 Y-4.152
X-2.3 Y-4.286
X-2.197 Y-4.438
X-2.106 Y-4.595
X-2.019 Y-4.751
X-1.928 Y-4.901
X-1.829 Y-5.044
X-1.718 Y-5.175
X-1.59 Y-5.289
X-1.443 Y-5.376
X-1.278 Y-5.428
X-1.102 Y-5.439
X-0.926 Y-5.41
X-0.756 Y-5.352
X-0.597 Y-5.274
X-0.445 Y-5.185
X-0.299 Y-5.091
X-0.156 Y-4.997
X-0.012 Y-4.91
X0.139 Y-4.837
X0.301 Y-4.79
X0.475 Y-4.783
X0.653 Y-4.818
X0.826 Y-4.88
X0.992 Y-4.953
X1.154 Y-5.028
X1.316 Y-5.096
X1.48 Y-5.154
X1.647 Y-5.196
X1.816 Y-5.213
X1.987 Y-5.199
X2.151 Y-5.145
X2.301 Y-5.051
X2.427 Y-4.925
X2.531 Y-4.779
X2.615 Y-4.623
X2.685 Y-4.462
X2.748 Y-4.3
X2.809 Y-4.14
X2.874 Y-3.984
X2.953 Y-3.836
X3.055 Y-3.703
X3.191 Y-3.594
X3.355 Y-3.516
X3.531 Y-3.464
X3.708 Y-3.426
X3.883 Y-3.39
X4.055 Y-3.351
X4.221 Y-3.302
X4.381 Y-3.238
X4.529 Y-3.153
X4.659 Y-3.042
X4.762 Y-2.903
X4.829 Y-2.74
X4.858 Y-2.564
X4.857 Y-2.385
X4.834 Y-2.208
X4.796 Y-2.037
X4.752 Y-1.869
X4.707 Y-1.703
X4.668 Y-1.539
X4.644 Y-1.373
X4.647 Y-1.205
X4.691 Y-1.037
X4.777 Y-0.878
X4.889 Y-0.732
X5.009 Y-0.596
X5.13 Y-0.465
X5.246 Y-0.332
X5.353 Y-0.195
X5.445 Y-0.049
X5.47 Y0.
G0 Z5.
G0 X5.954 Y0.
Z5.
G1 Z5. F202.6
Z0.635 F80.
Z-0.274
X6.013 Y0.16 F202.6
X6.038 Y0.329
X6.022 Y0.503
X5.964 Y0.671
X5.872 Y0.825
X5.757 Y0.963
X5.629 Y1.086
X5.494 Y1.199
X5.356 Y1.304
X5.218 Y1.407
X5.083 Y1.51
X4.957 Y1.62
X4.846 Y1.745
X4.762 Y1.892
X4.717 Y2.063
X4.71 Y2.246
X4.729 Y2.429
X4.758 Y2.608
X4.789 Y2.784
X4.815 Y2.958
X4.833 Y3.131
X4.837 Y3.303
X4.821 Y3.474
X4.78 Y3.639
X4.706 Y3.793
X4.596 Y3.928
X4.454 Y4.034
X4.291 Y4.11
X4.119 Y4.157
X3.943 Y4.185
X3.767 Y4.198
X3.593 Y4.203
X3.421 Y4.205
X3.251 Y4.208
X3.083 Y4.221
X2.92 Y4.253
X2.763 Y4.316
X2.623 Y4.421
X2.506 Y4.562
X2.411 Y4.72
X2.329 Y4.881
X2.25 Y5.042
X2.17 Y5.2
X2.083 Y5.351
X1.987 Y5.494
X1.877 Y5.625
X1.749 Y5.738
X1.602 Y5.825
X1.436 Y5.875
X1.26 Y5.884
X1.083 Y5.855
X0.913 Y5.795
X0.754 Y5.716
X0.602 Y5.625
X0.458 Y5.527
X0.317 Y5.428
X0.178 Y5.33
X0.036 Y5.24
X-0.114 Y5.166
X-0.275 Y5.12
X-0.449 Y5.115
X-0.627 Y5.155
X-0.798 Y5.224
X-0.961 Y5.305
X-1.119 Y5.389
X-1.277 Y5.47
X-1.435 Y5.544
X-1.597 Y5.605
X-1.762 Y5.649
X-1.932 Y5.67
X-2.102 Y5.659
X-2.267 Y5.609
X-2.418 Y5.518
X-2.548 Y5.394
X-2.653 Y5.249
X-2.739 Y5.092
X-2.809 Y4.93
X-2.87 Y4.766
X-2.925 Y4.602
X-2.98 Y4.441
X-3.041 Y4.284
X-3.115 Y4.134
X-3.214 Y3.999
X-3.347 Y3.888
X-3.511 Y3.811
X-3.688 Y3.763
X-3.868 Y3.731
X-4.046 Y3.706
X-4.221 Y3.679
X-4.393 Y3.647
X-4.561 Y3.604
X-4.722 Y3.545
X-4.873 Y3.466
X-5.008 Y3.361
X-5.117 Y3.228
X-5.192 Y3.069
X-5.229 Y2.894
X-5.233 Y2.714
X-5.213 Y2.537
X-5.177 Y2.364
X-5.131 Y2.195
X-5.08 Y2.029
X-5.029 Y1.866
X-4.984 Y1.703
X-4.953 Y1.539
X-4.948 Y1.372
X-4.983 Y1.204
X-5.064 Y1.043
X-5.177 Y0.897
X-5.303 Y0.764
X-5.432 Y0.639
X-5.559 Y0.515
X-5.68 Y0.388
X-5.792 Y0.256
X-5.891 Y0.115
X-5.97 Y-0.036
X-6.022 Y-0.198
X-6.038 Y-0.37
X-6.012 Y-0.543
X-5.945 Y-0.708
X-5.847 Y-0.858
X-5.728 Y-0.993
X-5.598 Y-1.113
X-5.462 Y-1.224
X-5.324 Y-1.328
X-5.186 Y-1.431
X-5.053 Y-1.535
X-4.929 Y-1.648
X-4.824 Y-1.777
X-4.747 Y-1.93
X-4.712 Y-2.105
X-4.713 Y-2.289
X-4.735 Y-2.471
X-4.765 Y-2.649
X-4.795 Y-2.824
X-4.82 Y-2.998
X-4.835 Y-3.171
X-4.835 Y-3.343
X-4.814 Y-3.513
X-4.766 Y-3.676
X-4.684 Y-3.827
X-4.566 Y-3.956
X-4.418 Y-4.055
X-4.252 Y-4.123
X-4.078 Y-4.165
X-3.902 Y-4.189
X-3.726 Y-4.2
X-3.552 Y-4.204
X-3.381 Y-4.205
X-3.211 Y-4.21
X-3.045 Y-4.226
X-2.882 Y-4.264
X-2.729 Y-4.337
X-2.593 Y-4.452
X-2.482 Y-4.598
X-2.391 Y-4.757
X-2.31 Y-4.919
X-2.232 Y-5.079
X-2.15 Y-5.236
X-2.062 Y-5.385
X-1.963 Y-5.526
X-1.849 Y-5.654
X-1.717 Y-5.761
X-1.565 Y-5.84
X-1.396 Y-5.881
X-1.218 Y-5.881
X-1.043 Y-5.843
X-0.875 Y-5.778
X-0.718 Y-5.696
X-0.568 Y-5.603
X-0.425 Y-5.504
X-0.285 Y-5.404
X-0.145 Y-5.308
X-0.001 Y-5.221
X0.15 Y-5.152
X0.315 Y-5.114
X0.491 Y-5.121
X0.668 Y-5.169
X0.837 Y-5.242
X0.998 Y-5.325
X1.156 Y-5.408
X1.313 Y-5.488
X1.473 Y-5.559
X1.635 Y-5.617
X1.802 Y-5.657
X1.971 Y-5.67
X2.141 Y-5.651
X2.304 Y-5.591
X2.451 Y-5.492
X2.574 Y-5.362
X2.675 Y-5.213
X2.756 Y-5.055
X2.824 Y-4.892
X2.883 Y-4.728
X2.938 Y-4.564
X2.994 Y-4.404
X3.057 Y-4.248
X3.136 Y-4.101
X3.242 Y-3.97
X3.383 Y-3.867
X3.552 Y-3.797
X3.73 Y-3.754
X3.91 Y-3.725
X4.087 Y-3.7
X4.262 Y-3.673
X4.433 Y-3.638
X4.6 Y-3.592
X4.759 Y-3.529
X4.907 Y-3.444
X5.036 Y-3.333
X5.138 Y-3.193
X5.204 Y-3.029
X5.233 Y-2.852
X5.231 Y-2.673
X5.206 Y-2.496
X5.167 Y-2.324
X5.119 Y-2.156
X5.068 Y-1.991
X5.018 Y-1.828
X4.975 Y-1.665
X4.949 Y-1.5
X4.952 Y-1.333
X4.998 Y-1.165
X5.089 Y-1.007
X5.206 Y-0.865
X5.333 Y-0.735
X5.462 Y-0.61
X5.588 Y-0.485
X5.707 Y-0.358
X5.817 Y-0.224
X5.911 Y-0.081
X5.954 Y0.
G0 Z5.
G0 X6.448 Y0.
Z5.
G1 Z5. F202.6
Z0.635 F80.
Z-0.274
X6.502 Y0.161 F202.6
X6.521 Y0.332
X6.497 Y0.506
X6.432 Y0.672
X6.335 Y0.824
X6.218 Y0.959
X6.087 Y1.081
X5.95 Y1.191
X5.809 Y1.294
X5.666 Y1.393
X5.526 Y1.49
X5.39 Y1.59
X5.264 Y1.699
X5.154 Y1.824
X5.074 Y1.973
X5.035 Y2.147
X5.037 Y2.332
X5.064 Y2.514
X5.102 Y2.691
X5.143 Y2.866
X5.181 Y3.039
X5.213 Y3.211
X5.235 Y3.383
X5.241 Y3.554
X5.228 Y3.724
X5.189 Y3.89
X5.118 Y4.045
X5.01 Y4.181
X4.87 Y4.29
X4.708 Y4.368
X4.535 Y4.417
X4.359 Y4.446
X4.182 Y4.459
X4.007 Y4.462
X3.833 Y4.459
X3.662 Y4.455
X3.492 Y4.453
X3.325 Y4.461
X3.16 Y4.488
X3.003 Y4.545
X2.861 Y4.646
X2.744 Y4.786
X2.651 Y4.946
X2.574 Y5.111
X2.503 Y5.277
X2.434 Y5.441
X2.361 Y5.6
X2.281 Y5.755
X2.19 Y5.901
X2.086 Y6.037
X1.965 Y6.156
X1.824 Y6.252
X1.663 Y6.314
X1.488 Y6.336
X1.31 Y6.318
X1.138 Y6.266
X0.975 Y6.192
X0.821 Y6.103
X0.675 Y6.005
X0.534 Y5.902
X0.397 Y5.797
X0.261 Y5.694
X0.123 Y5.598
X-0.021 Y5.515
X-0.177 Y5.456
X-0.347 Y5.435
X-0.524 Y5.462
X-0.697 Y5.528
X-0.86 Y5.612
X-1.016 Y5.704
X-1.169 Y5.797
X-1.322 Y5.885
X-1.476 Y5.967
X-1.634 Y6.038
X-1.796 Y6.094
X-1.963 Y6.129
X-2.133 Y6.136
X-2.302 Y6.108
X-2.462 Y6.039
X-2.604 Y5.932
X-2.723 Y5.796
X-2.819 Y5.645
X-2.897 Y5.484
X-2.961 Y5.32
X-3.017 Y5.154
X-3.067 Y4.988
X-3.116 Y4.824
X-3.168 Y4.663
X-3.23 Y4.508
X-3.311 Y4.362
X-3.421 Y4.235
X-3.569 Y4.139
X-3.742 Y4.078
X-3.924 Y4.044
X-4.105 Y4.024
X-4.283 Y4.008
X-4.46 Y3.992
X-4.634 Y3.97
X-4.805 Y3.94
X-4.971 Y3.896
X-5.131 Y3.835
X-5.279 Y3.751
X-5.408 Y3.64
X-5.511 Y3.5
X-5.577 Y3.337
X-5.607 Y3.16
X-5.606 Y2.98
X-5.581 Y2.803
X-5.541 Y2.63
X-5.491 Y2.461
X-5.435 Y2.297
X-5.378 Y2.134
X-5.323 Y1.973
X-5.277 Y1.812
X-5.247 Y1.648
X-5.246 Y1.481
X-5.29 Y1.314
X-5.38 Y1.157
X-5.5 Y1.016
X-5.633 Y0.89
X-5.768 Y0.771
X-5.903 Y0.654
X-6.033 Y0.536
X-6.157 Y0.413
X-6.271 Y0.283
X-6.37 Y0.144
X-6.451 Y-0.006
X-6.504 Y-0.168
X-6.52 Y-0.339
X-6.495 Y-0.512
X-6.429 Y-0.678
X-6.331 Y-0.829
X-6.213 Y-0.964
X-6.082 Y-1.085
X-5.944 Y-1.195
X-5.803 Y-1.298
X-5.661 Y-1.396
X-5.521 Y-1.494
X-5.385 Y-1.594
X-5.259 Y-1.704
X-5.151 Y-1.83
X-5.072 Y-1.98
X-5.035 Y-2.154
X-5.038 Y-2.339
X-5.066 Y-2.521
X-5.104 Y-2.698
X-5.145 Y-2.873
X-5.183 Y-3.045
X-5.214 Y-3.217
X-5.235 Y-3.389
X-5.241 Y-3.561
X-5.227 Y-3.731
X-5.187 Y-3.896
X-5.114 Y-4.051
X-5.005 Y-4.186
X-4.864 Y-4.294
X-4.702 Y-4.37
X-4.529 Y-4.419
X-4.352 Y-4.447
X-4.175 Y-4.459
X-4. Y-4.462
X-3.827 Y-4.459
X-3.655 Y-4.454
X-3.485 Y-4.453
X-3.318 Y-4.462
X-3.154 Y-4.489
X-2.997 Y-4.548
X-2.856 Y-4.65
X-2.74 Y-4.792
X-2.648 Y-4.952
X-2.571 Y-5.118
X-2.501 Y-5.283
X-2.431 Y-5.447
X-2.358 Y-5.606
X-2.277 Y-5.761
X-2.186 Y-5.907
X-2.082 Y-6.042
X-1.96 Y-6.161
X-1.818 Y-6.255
X-1.656 Y-6.316
X-1.481 Y-6.336
X-1.304 Y-6.316
X-1.131 Y-6.264
X-0.969 Y-6.189
X-0.815 Y-6.1
X-0.669 Y-6.001
X-0.529 Y-5.898
X-0.392 Y-5.793
X-0.256 Y-5.69
X-0.118 Y-5.594
X0.027 Y-5.512
X0.183 Y-5.454
X0.353 Y-5.435
X0.531 Y-5.464
X0.704 Y-5.531
X0.866 Y-5.616
X1.022 Y-5.708
X1.175 Y-5.8
X1.328 Y-5.889
X1.482 Y-5.97
X1.64 Y-6.04
X1.802 Y-6.095
X1.969 Y-6.13
X2.139 Y-6.136
X2.308 Y-6.106
X2.468 Y-6.035
X2.609 Y-5.927
X2.727 Y-5.791
X2.822 Y-5.639
X2.899 Y-5.478
X2.964 Y-5.313
X3.019 Y-5.147
X3.069 Y-4.982
X3.118 Y-4.818
X3.17 Y-4.657
X3.233 Y-4.502
X3.314 Y-4.357
X3.426 Y-4.231
X3.575 Y-4.136
X3.749 Y-4.076
X3.931 Y-4.043
X4.112 Y-4.023
X4.29 Y-4.008
X4.467 Y-3.991
X4.641 Y-3.969
X4.811 Y-3.938
X4.978 Y-3.894
X5.137 Y-3.832
X5.284 Y-3.747
X5.413 Y-3.635
X5.514 Y-3.494
X5.579 Y-3.33
X5.607 Y-3.153
X5.605 Y-2.973
X5.58 Y-2.796
X5.54 Y-2.623
X5.489 Y-2.455
X5.433 Y-2.29
X5.376 Y-2.128
X5.321 Y-1.967
X5.275 Y-1.806
X5.247 Y-1.642
X5.247 Y-1.475
X5.292 Y-1.308
X5.384 Y-1.151
X5.505 Y-1.011
X5.638 Y-0.885
X5.774 Y-0.766
X5.908 Y-0.65
X6.038 Y-0.531
X6.162 Y-0.408
X6.275 Y-0.278
X6.374 Y-0.139
X6.448 Y0.
G0 Z5.
G0 X6.953 Y0.
Z5.
G1 Z5. F202.6
Z0.635 F80.
Z-0.274
X6.999 Y0.164 F202.6
X7.008 Y0.336
X6.974 Y0.509
X6.901 Y0.673
X6.799 Y0.821
X6.678 Y0.954
X6.545 Y1.073
X6.405 Y1.181
X6.261 Y1.281
X6.116 Y1.376
X5.971 Y1.469
X5.829 Y1.562
X5.692 Y1.66
X5.566 Y1.769
X5.458 Y1.895
X5.382 Y2.046
X5.351 Y2.222
X5.361 Y2.407
X5.396 Y2.589
X5.442 Y2.765
X5.492 Y2.937
X5.541 Y3.108
X5.585 Y3.278
X5.621 Y3.448
X5.647 Y3.619
X5.657 Y3.79
X5.648 Y3.96
X5.614 Y4.126
X5.547 Y4.283
X5.444 Y4.423
X5.307 Y4.536
X5.147 Y4.618
X4.975 Y4.671
X4.799 Y4.702
X4.621 Y4.717
X4.445 Y4.72
X4.27 Y4.715
X4.097 Y4.706
X3.926 Y4.696
X3.756 Y4.689
X3.589 Y4.691
X3.424 Y4.709
X3.264 Y4.756
X3.118 Y4.845
X2.995 Y4.979
X2.901 Y5.139
X2.827 Y5.307
X2.763 Y5.477
X2.702 Y5.645
X2.64 Y5.811
X2.575 Y5.974
X2.502 Y6.132
X2.42 Y6.283
X2.325 Y6.425
X2.213 Y6.553
X2.082 Y6.662
X1.931 Y6.742
X1.762 Y6.784
X1.584 Y6.785
X1.408 Y6.75
X1.239 Y6.686
X1.08 Y6.603
X0.93 Y6.508
X0.788 Y6.405
X0.65 Y6.298
X0.516 Y6.189
X0.384 Y6.08
X0.25 Y5.977
X0.112 Y5.883
X-0.035 Y5.806
X-0.195 Y5.758
X-0.369 Y5.757
X-0.545 Y5.804
X-0.713 Y5.884
X-0.87 Y5.979
X-1.02 Y6.079
X-1.168 Y6.179
X-1.315 Y6.277
X-1.465 Y6.368
X-1.617 Y6.451
X-1.774 Y6.521
X-1.936 Y6.576
X-2.102 Y6.608
X-2.272 Y6.611
X-2.441 Y6.577
X-2.599 Y6.502
X-2.739 Y6.391
X-2.854 Y6.253
X-2.948 Y6.099
X-3.024 Y5.938
X-3.087 Y5.772
X-3.14 Y5.604
X-3.187 Y5.437
X-3.23 Y5.27
X-3.274 Y5.105
X-3.323 Y4.944
X-3.383 Y4.788
X-3.462 Y4.642
X-3.573 Y4.516
X-3.721 Y4.421
X-3.897 Y4.364
X-4.08 Y4.336
X-4.262 Y4.324
X-4.442 Y4.317
X-4.62 Y4.311
X-4.796 Y4.302
X-4.97 Y4.286
X-5.141 Y4.261
X-5.308 Y4.222
X-5.47 Y4.167
X-5.621 Y4.089
X-5.755 Y3.985
X-5.864 Y3.851
X-5.94 Y3.692
X-5.978 Y3.517
X-5.983 Y3.337
X-5.964 Y3.158
X-5.926 Y2.984
X-5.877 Y2.814
X-5.82 Y2.648
X-5.759 Y2.486
X-5.696 Y2.326
X-5.636 Y2.167
X-5.582 Y2.007
X-5.543 Y1.845
X-5.529 Y1.68
X-5.555 Y1.513
X-5.632 Y1.351
X-5.748 Y1.207
X-5.883 Y1.081
X-6.024 Y0.965
X-6.166 Y0.855
X-6.305 Y0.745
X-6.441 Y0.634
X-6.571 Y0.518
X-6.692 Y0.395
X-6.802 Y0.263
X-6.895 Y0.12
X-6.965 Y-0.034
X-7.004 Y-0.2
X-7.004 Y-0.373
X-6.961 Y-0.545
X-6.881 Y-0.706
X-6.774 Y-0.851
X-6.65 Y-0.98
X-6.515 Y-1.097
X-6.374 Y-1.203
X-6.23 Y-1.302
X-6.085 Y-1.396
X-5.94 Y-1.489
X-5.799 Y-1.583
X-5.664 Y-1.683
X-5.541 Y-1.794
X-5.439 Y-1.925
X-5.371 Y-2.082
X-5.35 Y-2.262
X-5.367 Y-2.447
X-5.405 Y-2.627
X-5.453 Y-2.802
X-5.503 Y-2.974
X-5.551 Y-3.144
X-5.593 Y-3.315
X-5.628 Y-3.485
X-5.65 Y-3.656
X-5.657 Y-3.827
X-5.643 Y-3.996
X-5.602 Y-4.161
X-5.528 Y-4.315
X-5.417 Y-4.45
X-5.274 Y-4.556
X-5.111 Y-4.631
X-4.938 Y-4.68
X-4.761 Y-4.707
X-4.583 Y-4.718
X-4.407 Y-4.719
X-4.233 Y-4.713
X-4.06 Y-4.704
X-3.889 Y-4.694
X-3.72 Y-4.688
X-3.553 Y-4.693
X-3.389 Y-4.716
X-3.231 Y-4.771
X-3.089 Y-4.87
X-2.973 Y-5.012
X-2.884 Y-5.174
X-2.813 Y-5.343
X-2.75 Y-5.513
X-2.689 Y-5.681
X-2.627 Y-5.846
X-2.56 Y-6.008
X-2.486 Y-6.165
X-2.401 Y-6.314
X-2.302 Y-6.454
X-2.187 Y-6.579
X-2.052 Y-6.682
X-1.896 Y-6.754
X-1.724 Y-6.788
X-1.546 Y-6.781
X-1.371 Y-6.738
X-1.204 Y-6.67
X-1.048 Y-6.584
X-0.899 Y-6.487
X-0.758 Y-6.383
X-0.621 Y-6.275
X-0.488 Y-6.165
X-0.355 Y-6.058
X-0.221 Y-5.956
X-0.081 Y-5.864
X0.068 Y-5.792
X0.231 Y-5.754
X0.407 Y-5.763
X0.582 Y-5.819
X0.747 Y-5.904
X0.902 Y-6.
X1.052 Y-6.101
X1.2 Y-6.201
X1.347 Y-6.297
X1.497 Y-6.386
X1.65 Y-6.467
X1.808 Y-6.535
X1.971 Y-6.585
X2.139 Y-6.612
X2.309 Y-6.607
X2.476 Y-6.565
X2.631 Y-6.481
X2.765 Y-6.363
X2.876 Y-6.221
X2.966 Y-6.065
X3.039 Y-5.902
X3.099 Y-5.736
X3.15 Y-5.568
X3.196 Y-5.401
X3.24 Y-5.234
X3.284 Y-5.07
X3.335 Y-4.91
X3.398 Y-4.756
X3.483 Y-4.613
X3.601 Y-4.492
X3.757 Y-4.406
X3.936 Y-4.357
X4.119 Y-4.333
X4.301 Y-4.322
X4.48 Y-4.316
X4.658 Y-4.31
X4.833 Y-4.299
X5.007 Y-4.282
X5.177 Y-4.254
X5.344 Y-4.212
X5.503 Y-4.152
X5.651 Y-4.069
X5.781 Y-3.959
X5.884 Y-3.819
X5.951 Y-3.656
X5.981 Y-3.479
X5.981 Y-3.298
X5.957 Y-3.121
X5.917 Y-2.947
X5.866 Y-2.778
X5.807 Y-2.613
X5.745 Y-2.452
X5.683 Y-2.292
X5.623 Y-2.133
X5.573 Y-1.973
X5.538 Y-1.81
X5.531 Y-1.644
X5.568 Y-1.477
X5.655 Y-1.319
X5.776 Y-1.179
X5.913 Y-1.055
X6.054 Y-0.941
X6.196 Y-0.832
X6.335 Y-0.722
X6.47 Y-0.609
X6.598 Y-0.492
X6.717 Y-0.367
X6.823 Y-0.233
X6.912 Y-0.088
X6.953 Y0.
G0 Z5.
G0 X7.466 Y0.
Z5.
G1 Z5. F202.6
Z0.635 F80.
Z-0.274
X7.502 Y0.167 F202.6
X7.499 Y0.34
X7.453 Y0.512
X7.37 Y0.672
X7.262 Y0.816
X7.137 Y0.945
X7.001 Y1.061
X6.859 Y1.167
X6.713 Y1.264
X6.565 Y1.357
X6.417 Y1.446
X6.271 Y1.534
X6.127 Y1.624
X5.99 Y1.72
X5.864 Y1.828
X5.758 Y1.955
X5.686 Y2.109
X5.662 Y2.287
X5.68 Y2.472
X5.723 Y2.652
X5.777 Y2.827
X5.835 Y2.997
X5.893 Y3.165
X5.948 Y3.333
X5.997 Y3.501
X6.038 Y3.669
X6.068 Y3.839
X6.084 Y4.009
X6.08 Y4.179
X6.052 Y4.347
X5.992 Y4.506
X5.897 Y4.65
X5.766 Y4.769
X5.61 Y4.858
X5.44 Y4.918
X5.264 Y4.953
X5.086 Y4.971
X4.908 Y4.976
X4.733 Y4.971
X4.558 Y4.96
X4.386 Y4.946
X4.215 Y4.93
X4.045 Y4.918
X3.877 Y4.912
X3.712 Y4.92
X3.55 Y4.953
X3.397 Y5.023
X3.265 Y5.141
X3.163 Y5.296
X3.087 Y5.466
X3.026 Y5.638
X2.972 Y5.811
X2.92 Y5.981
X2.867 Y6.15
X2.81 Y6.316
X2.746 Y6.477
X2.673 Y6.634
X2.589 Y6.783
X2.49 Y6.922
X2.374 Y7.045
X2.237 Y7.147
X2.08 Y7.216
X1.907 Y7.247
X1.729 Y7.236
X1.554 Y7.192
X1.388 Y7.122
X1.231 Y7.035
X1.083 Y6.937
X0.942 Y6.831
X0.806 Y6.721
X0.674 Y6.608
X0.545 Y6.495
X0.415 Y6.384
X0.284 Y6.279
X0.147 Y6.184
X0. Y6.108
X-0.161 Y6.064
X-0.335 Y6.069
X-0.511 Y6.124
X-0.675 Y6.211
X-0.828 Y6.313
X-0.974 Y6.42
X-1.117 Y6.528
X-1.259 Y6.634
X-1.402 Y6.736
X-1.548 Y6.831
X-1.698 Y6.918
X-1.852 Y6.993
X-2.012 Y7.052
X-2.178 Y7.09
X-2.347 Y7.1
X-2.516 Y7.074
X-2.678 Y7.007
X-2.822 Y6.902
X-2.943 Y6.769
X-3.042 Y6.618
X-3.122 Y6.457
X-3.187 Y6.292
X-3.241 Y6.123
X-3.287 Y5.954
X-3.328 Y5.785
X-3.367 Y5.617
X-3.406 Y5.451
X-3.449 Y5.287
X-3.501 Y5.129
X-3.569 Y4.978
X-3.664 Y4.842
X-3.798 Y4.734
X-3.967 Y4.665
X-4.15 Y4.633
X-4.334 Y4.622
X-4.516 Y4.621
X-4.695 Y4.624
X-4.873 Y4.627
X-5.049 Y4.626
X-5.224 Y4.62
X-5.396 Y4.604
X-5.566 Y4.578
X-5.732 Y4.536
X-5.89 Y4.475
X-6.037 Y4.39
X-6.165 Y4.277
X-6.265 Y4.135
X-6.329 Y3.97
X-6.357 Y3.792
X-6.355 Y3.612
X-6.33 Y3.434
X-6.289 Y3.26
X-6.236 Y3.091
X-6.176 Y2.926
X-6.11 Y2.765
X-6.043 Y2.606
X-5.976 Y2.448
X-5.913 Y2.291
X-5.858 Y2.132
X-5.819 Y1.971
X-5.808 Y1.806
X-5.839 Y1.64
X-5.923 Y1.481
X-6.046 Y1.341
X-6.186 Y1.22
X-6.332 Y1.111
X-6.479 Y1.007
X-6.625 Y0.905
X-6.768 Y0.802
X-6.907 Y0.695
X-7.039 Y0.583
X-7.164 Y0.464
X-7.277 Y0.335
X-7.374 Y0.196
X-7.45 Y0.044
X-7.496 Y-0.12
X-7.504 Y-0.292
X-7.469 Y-0.465
X-7.396 Y-0.629
X-7.294 Y-0.778
X-7.173 Y-0.911
X-7.039 Y-1.03
X-6.899 Y-1.138
X-6.754 Y-1.238
X-6.606 Y-1.332
X-6.458 Y-1.421
X-6.311 Y-1.509
X-6.166 Y-1.599
X-6.027 Y-1.693
X-5.897 Y-1.797
X-5.785 Y-1.918
X-5.702 Y-2.064
X-5.664 Y-2.237
X-5.672 Y-2.422
X-5.709 Y-2.603
X-5.761 Y-2.779
X-5.819 Y-2.95
X-5.877 Y-3.119
X-5.933 Y-3.287
X-5.984 Y-3.455
X-6.028 Y-3.623
X-6.061 Y-3.792
X-6.081 Y-3.962
X-6.084 Y-4.133
X-6.063 Y-4.301
X-6.012 Y-4.463
X-5.927 Y-4.612
X-5.805 Y-4.739
X-5.655 Y-4.837
X-5.488 Y-4.904
X-5.313 Y-4.946
X-5.135 Y-4.968
X-4.957 Y-4.976
X-4.781 Y-4.973
X-4.606 Y-4.964
X-4.433 Y-4.95
X-4.262 Y-4.934
X-4.092 Y-4.921
X-3.924 Y-4.913
X-3.757 Y-4.916
X-3.594 Y-4.941
X-3.438 Y-4.999
X-3.298 Y-5.104
X-3.188 Y-5.251
X-3.106 Y-5.418
X-3.042 Y-5.591
X-2.987 Y-5.763
X-2.935 Y-5.934
X-2.882 Y-6.104
X-2.826 Y-6.27
X-2.764 Y-6.433
X-2.694 Y-6.591
X-2.614 Y-6.743
X-2.519 Y-6.885
X-2.408 Y-7.013
X-2.277 Y-7.121
X-2.125 Y-7.201
X-1.956 Y-7.242
X-1.778 Y-7.243
X-1.601 Y-7.207
X-1.433 Y-7.143
X-1.273 Y-7.061
X-1.123 Y-6.965
X-0.98 Y-6.861
X-0.843 Y-6.752
X-0.71 Y-6.639
X-0.58 Y-6.526
X-0.451 Y-6.414
X-0.321 Y-6.307
X-0.185 Y-6.209
X-0.042 Y-6.126
X0.115 Y-6.072
X0.286 Y-6.062
X0.463 Y-6.105
X0.631 Y-6.185
X0.787 Y-6.284
X0.934 Y-6.39
X1.078 Y-6.499
X1.22 Y-6.605
X1.363 Y-6.708
X1.508 Y-6.806
X1.656 Y-6.895
X1.809 Y-6.974
X1.967 Y-7.037
X2.131 Y-7.082
X2.3 Y-7.1
X2.47 Y-7.085
X2.635 Y-7.03
X2.784 Y-6.934
X2.912 Y-6.808
X3.016 Y-6.661
X3.101 Y-6.502
X3.17 Y-6.338
X3.227 Y-6.17
X3.275 Y-6.001
X3.317 Y-5.832
X3.356 Y-5.663
X3.395 Y-5.496
X3.436 Y-5.332
X3.485 Y-5.172
X3.548 Y-5.018
X3.635 Y-4.878
X3.757 Y-4.76
X3.918 Y-4.68
X4.099 Y-4.639
X4.283 Y-4.623
X4.466 Y-4.62
X4.646 Y-4.623
X4.824 Y-4.626
X5.001 Y-4.627
X5.176 Y-4.622
X5.349 Y-4.61
X5.519 Y-4.586
X5.686 Y-4.549
X5.847 Y-4.494
X5.998 Y-4.416
X6.132 Y-4.311
X6.241 Y-4.177
X6.315 Y-4.017
X6.353 Y-3.842
X6.358 Y-3.662
X6.339 Y-3.483
X6.301 Y-3.308
X6.251 Y-3.137
X6.193 Y-2.971
X6.129 Y-2.809
X6.062 Y-2.649
X5.994 Y-2.491
X5.93 Y-2.334
X5.872 Y-2.176
X5.828 Y-2.016
X5.807 Y-1.852
X5.825 Y-1.685
X5.895 Y-1.523
X6.009 Y-1.377
X6.146 Y-1.252
X6.291 Y-1.14
X6.439 Y-1.035
X6.585 Y-0.933
X6.729 Y-0.83
X6.869 Y-0.725
X7.004 Y-0.614
X7.13 Y-0.497
X7.247 Y-0.372
X7.349 Y-0.235
X7.431 Y-0.087
X7.466 Y0.
G0 Z5.
G0 X7.986 Y0.
Z5.
G1 Z5. F202.6
Z0.635 F80.
Z-0.274
X8.009 Y0.17 F202.6
X7.991 Y0.344
X7.932 Y0.513
X7.839 Y0.668
X7.725 Y0.808
X7.596 Y0.932
X7.457 Y1.045
X7.313 Y1.148
X7.165 Y1.243
X7.015 Y1.333
X6.864 Y1.419
X6.714 Y1.503
X6.566 Y1.587
X6.422 Y1.675
X6.284 Y1.77
X6.159 Y1.877
X6.054 Y2.005
X5.986 Y2.161
X5.968 Y2.341
X5.994 Y2.526
X6.044 Y2.704
X6.105 Y2.876
X6.171 Y3.044
X6.237 Y3.21
X6.302 Y3.375
X6.362 Y3.54
X6.417 Y3.706
X6.463 Y3.872
X6.499 Y4.041
X6.52 Y4.21
X6.524 Y4.38
X6.504 Y4.548
X6.454 Y4.711
X6.369 Y4.86
X6.248 Y4.988
X6.098 Y5.086
X5.931 Y5.154
X5.756 Y5.197
X5.578 Y5.221
X5.4 Y5.229
X5.223 Y5.226
X5.047 Y5.216
X4.873 Y5.2
X4.701 Y5.181
X4.53 Y5.16
X4.361 Y5.142
X4.193 Y5.129
X4.026 Y5.126
X3.862 Y5.142
X3.703 Y5.187
X3.559 Y5.279
X3.442 Y5.418
X3.357 Y5.585
X3.294 Y5.759
X3.243 Y5.934
X3.198 Y6.109
X3.155 Y6.282
X3.11 Y6.453
X3.061 Y6.621
X3.007 Y6.787
X2.946 Y6.949
X2.874 Y7.105
X2.791 Y7.254
X2.692 Y7.392
X2.574 Y7.515
X2.436 Y7.614
X2.278 Y7.681
X2.104 Y7.709
X1.925 Y7.696
X1.75 Y7.65
X1.584 Y7.579
X1.428 Y7.492
X1.279 Y7.393
X1.138 Y7.286
X1.003 Y7.174
X0.872 Y7.059
X0.745 Y6.942
X0.618 Y6.825
X0.492 Y6.711
X0.363 Y6.603
X0.229 Y6.504
X0.086 Y6.422
X-0.071 Y6.37
X-0.243 Y6.365
X-0.419 Y6.414
X-0.584 Y6.502
X-0.736 Y6.607
X-0.879 Y6.72
X-1.018 Y6.834
X-1.155 Y6.948
X-1.292 Y7.06
X-1.43 Y7.167
X-1.572 Y7.269
X-1.717 Y7.363
X-1.867 Y7.446
X-2.023 Y7.516
X-2.185 Y7.567
X-2.352 Y7.594
X-2.522 Y7.59
X-2.69 Y7.546
X-2.845 Y7.462
X-2.98 Y7.344
X-3.091 Y7.202
X-3.182 Y7.046
X-3.256 Y6.883
X-3.316 Y6.715
X-3.367 Y6.546
X-3.41 Y6.375
X-3.447 Y6.205
X-3.481 Y6.036
X-3.515 Y5.867
X-3.551 Y5.701
X-3.592 Y5.538
X-3.643 Y5.38
X-3.714 Y5.231
X-3.814 Y5.099
X-3.954 Y4.997
X-4.129 Y4.939
X-4.314 Y4.916
X-4.498 Y4.913
X-4.68 Y4.92
X-4.86 Y4.932
X-5.037 Y4.944
X-5.214 Y4.953
X-5.389 Y4.958
X-5.563 Y4.956
X-5.735 Y4.946
X-5.906 Y4.923
X-6.072 Y4.886
X-6.232 Y4.83
X-6.382 Y4.751
X-6.515 Y4.645
X-6.621 Y4.508
X-6.693 Y4.347
X-6.729 Y4.171
X-6.733 Y3.99
X-6.713 Y3.811
X-6.675 Y3.636
X-6.624 Y3.465
X-6.564 Y3.299
X-6.498 Y3.137
X-6.428 Y2.977
X-6.357 Y2.82
X-6.285 Y2.664
X-6.216 Y2.509
X-6.155 Y2.352
X-6.105 Y2.194
X-6.077 Y2.031
X-6.086 Y1.865
X-6.146 Y1.702
X-6.257 Y1.554
X-6.395 Y1.429
X-6.543 Y1.319
X-6.695 Y1.219
X-6.847 Y1.123
X-6.997 Y1.028
X-7.145 Y0.932
X-7.289 Y0.833
X-7.428 Y0.728
X-7.561 Y0.618
X-7.684 Y0.499
X-7.796 Y0.37
X-7.891 Y0.229
X-7.962 Y0.076
X-8.003 Y-0.09
X-8.005 Y-0.263
X-7.964 Y-0.436
X-7.886 Y-0.598
X-7.78 Y-0.745
X-7.657 Y-0.876
X-7.522 Y-0.994
X-7.38 Y-1.101
X-7.234 Y-1.2
X-7.085 Y-1.292
X-6.934 Y-1.379
X-6.784 Y-1.464
X-6.635 Y-1.548
X-6.488 Y-1.634
X-6.347 Y-1.725
X-6.215 Y-1.825
X-6.1 Y-1.942
X-6.012 Y-2.085
X-5.97 Y-2.255
X-5.978 Y-2.44
X-6.019 Y-2.622
X-6.076 Y-2.797
X-6.14 Y-2.967
X-6.207 Y-3.133
X-6.272 Y-3.298
X-6.335 Y-3.463
X-6.392 Y-3.628
X-6.443 Y-3.795
X-6.484 Y-3.962
X-6.512 Y-4.131
X-6.525 Y-4.301
X-6.516 Y-4.471
X-6.481 Y-4.637
X-6.413 Y-4.793
X-6.308 Y-4.932
X-6.171 Y-5.044
X-6.01 Y-5.126
X-5.838 Y-5.18
X-5.661 Y-5.212
X-5.482 Y-5.227
X-5.305 Y-5.229
X-5.128 Y-5.222
X-4.954 Y-5.208
X-4.781 Y-5.19
X-4.61 Y-5.17
X-4.44 Y-5.15
X-4.271 Y-5.134
X-4.103 Y-5.126
X-3.938 Y-5.131
X-3.776 Y-5.161
X-3.623 Y-5.23
X-3.492 Y-5.349
X-3.393 Y-5.506
X-3.321 Y-5.678
X-3.266 Y-5.853
X-3.219 Y-6.028
X-3.175 Y-6.202
X-3.131 Y-6.374
X-3.084 Y-6.543
X-3.033 Y-6.711
X-2.975 Y-6.874
X-2.909 Y-7.033
X-2.831 Y-7.186
X-2.74 Y-7.33
X-2.631 Y-7.46
X-2.503 Y-7.571
X-2.354 Y-7.654
X-2.186 Y-7.701
X-2.008 Y-7.707
X-1.831 Y-7.675
X-1.66 Y-7.615
X-1.499 Y-7.534
X-1.347 Y-7.44
X-1.203 Y-7.337
X-1.065 Y-7.227
X-0.933 Y-7.113
X-0.804 Y-6.996
X-0.677 Y-6.879
X-0.551 Y-6.764
X-0.424 Y-6.652
X-0.293 Y-6.548
X-0.154 Y-6.457
X-0.004 Y-6.389
X0.161 Y-6.36
X0.338 Y-6.385
X0.509 Y-6.458
X0.667 Y-6.557
X0.813 Y-6.667
X0.954 Y-6.781
X1.091 Y-6.896
X1.228 Y-7.009
X1.366 Y-7.118
X1.506 Y-7.223
X1.649 Y-7.32
X1.797 Y-7.409
X1.95 Y-7.485
X2.109 Y-7.546
X2.274 Y-7.585
X2.443 Y-7.596
X2.613 Y-7.571
X2.775 Y-7.506
X2.92 Y-7.402
X3.042 Y-7.27
X3.142 Y-7.12
X3.224 Y-6.959
X3.29 Y-6.793
X3.344 Y-6.625
X3.39 Y-6.455
X3.43 Y-6.284
X3.466 Y-6.114
X3.499 Y-5.945
X3.534 Y-5.778
X3.572 Y-5.613
X3.618 Y-5.453
X3.678 Y-5.299
X3.763 Y-5.157
X3.884 Y-5.04
X4.045 Y-4.961
X4.228 Y-4.923
X4.413 Y-4.912
X4.596 Y-4.916
X4.777 Y-4.926
X4.955 Y-4.938
X5.132 Y-4.949
X5.308 Y-4.956
X5.482 Y-4.958
X5.655 Y-4.952
X5.827 Y-4.935
X5.995 Y-4.906
X6.159 Y-4.859
X6.314 Y-4.791
X6.456 Y-4.698
X6.576 Y-4.575
X6.665 Y-4.424
X6.717 Y-4.254
X6.735 Y-4.074
X6.725 Y-3.894
X6.694 Y-3.717
X6.649 Y-3.544
X6.593 Y-3.376
X6.53 Y-3.212
X6.461 Y-3.051
X6.39 Y-2.893
X6.318 Y-2.736
X6.248 Y-2.581
X6.182 Y-2.425
X6.126 Y-2.268
X6.087 Y-2.107
X6.076 Y-1.943
X6.111 Y-1.777
X6.2 Y-1.62
X6.329 Y-1.484
X6.474 Y-1.369
X6.624 Y-1.265
X6.776 Y-1.168
X6.928 Y-1.073
X7.077 Y-0.977
X7.223 Y-0.879
X7.364 Y-0.778
X7.5 Y-0.67
X7.628 Y-0.555
X7.746 Y-0.431
X7.849 Y-0.296
X7.932 Y-0.148
X7.986 Y0.
G0 Z5.
G0 X8.51 Y0.
Z5.
G1 Z5. F202.6
Z0.635 F80.
Z-0.274
X8.517 Y0.173 F202.6
X8.482 Y0.346
X8.409 Y0.511
X8.307 Y0.66
X8.187 Y0.794
X8.054 Y0.915
X7.913 Y1.024
X7.766 Y1.124
X7.617 Y1.217
X7.465 Y1.304
X7.312 Y1.387
X7.159 Y1.468
X7.008 Y1.548
X6.859 Y1.63
X6.714 Y1.715
X6.576 Y1.809
X6.45 Y1.915
X6.347 Y2.043
X6.282 Y2.201
X6.269 Y2.382
X6.302 Y2.566
X6.358 Y2.743
X6.426 Y2.913
X6.499 Y3.079
X6.573 Y3.242
X6.646 Y3.404
X6.717 Y3.565
X6.782 Y3.728
X6.842 Y3.891
X6.894 Y4.056
X6.936 Y4.223
X6.964 Y4.391
X6.976 Y4.561
X6.966 Y4.73
X6.929 Y4.895
X6.858 Y5.051
X6.75 Y5.188
X6.611 Y5.298
X6.449 Y5.379
X6.276 Y5.432
X6.099 Y5.463
X5.92 Y5.477
X5.742 Y5.479
X5.565 Y5.471
X5.39 Y5.456
X5.217 Y5.436
X5.045 Y5.413
X4.874 Y5.388
X4.705 Y5.364
X4.536 Y5.344
X4.369 Y5.331
X4.203 Y5.33
X4.04 Y5.351
X3.885 Y5.407
X3.747 Y5.513
X3.642 Y5.665
X3.569 Y5.837
X3.516 Y6.014
X3.474 Y6.192
X3.436 Y6.368
X3.401 Y6.543
X3.364 Y6.716
X3.325 Y6.888
X3.281 Y7.057
X3.231 Y7.223
X3.173 Y7.386
X3.106 Y7.543
X3.025 Y7.694
X2.93 Y7.834
X2.817 Y7.96
X2.682 Y8.064
X2.527 Y8.137
X2.355 Y8.172
X2.176 Y8.166
X2. Y8.126
X1.832 Y8.06
X1.673 Y7.975
X1.522 Y7.878
X1.38 Y7.772
X1.243 Y7.661
X1.112 Y7.544
X0.984 Y7.425
X0.86 Y7.305
X0.736 Y7.185
X0.613 Y7.067
X0.488 Y6.954
X0.359 Y6.847
X0.223 Y6.754
X0.074 Y6.684
X-0.09 Y6.653
X-0.266 Y6.677
X-0.437 Y6.752
X-0.592 Y6.855
X-0.736 Y6.97
X-0.873 Y7.09
X-1.006 Y7.211
X-1.137 Y7.331
X-1.268 Y7.449
X-1.402 Y7.563
X-1.538 Y7.672
X-1.677 Y7.775
X-1.821 Y7.87
X-1.97 Y7.954
X-2.126 Y8.024
X-2.287 Y8.075
X-2.455 Y8.101
X-2.625 Y8.094
X-2.792 Y8.049
X-2.946 Y7.963
X-3.08 Y7.844
X-3.192 Y7.701
X-3.283 Y7.545
X-3.357 Y7.382
X-3.417 Y7.214
X-3.468 Y7.044
X-3.51 Y6.873
X-3.546 Y6.702
X-3.578 Y6.531
X-3.608 Y6.36
X-3.637 Y6.191
X-3.669 Y6.024
X-3.705 Y5.86
X-3.75 Y5.7
X-3.812 Y5.547
X-3.901 Y5.409
X-4.029 Y5.297
X-4.197 Y5.228
X-4.382 Y5.201
X-4.568 Y5.199
X-4.751 Y5.211
X-4.931 Y5.229
X-5.109 Y5.249
X-5.286 Y5.269
X-5.461 Y5.286
X-5.636 Y5.298
X-5.81 Y5.305
X-5.983 Y5.303
X-6.154 Y5.292
X-6.324 Y5.267
X-6.489 Y5.227
X-6.647 Y5.166
X-6.793 Y5.08
X-6.919 Y4.965
X-7.018 Y4.822
X-7.081 Y4.655
X-7.108 Y4.477
X-7.106 Y4.296
X-7.081 Y4.117
X-7.04 Y3.943
X-6.987 Y3.773
X-6.925 Y3.607
X-6.857 Y3.445
X-6.784 Y3.286
X-6.709 Y3.13
X-6.633 Y2.975
X-6.558 Y2.821
X-6.486 Y2.668
X-6.422 Y2.513
X-6.369 Y2.355
X-6.338 Y2.194
X-6.342 Y2.029
X-6.398 Y1.865
X-6.509 Y1.717
X-6.65 Y1.594
X-6.802 Y1.488
X-6.957 Y1.393
X-7.113 Y1.303
X-7.269 Y1.215
X-7.422 Y1.127
X-7.573 Y1.037
X-7.721 Y0.943
X-7.864 Y0.844
X-8.001 Y0.739
X-8.13 Y0.626
X-8.249 Y0.504
X-8.354 Y0.37
X-8.439 Y0.224
X-8.497 Y0.064
X-8.52 Y-0.106
X-8.501 Y-0.28
X-8.441 Y-0.449
X-8.349 Y-0.605
X-8.235 Y-0.745
X-8.106 Y-0.87
X-7.967 Y-0.983
X-7.823 Y-1.087
X-7.674 Y-1.182
X-7.523 Y-1.271
X-7.371 Y-1.356
X-7.218 Y-1.437
X-7.066 Y-1.518
X-6.915 Y-1.598
X-6.769 Y-1.682
X-6.627 Y-1.772
X-6.496 Y-1.872
X-6.383 Y-1.991
X-6.301 Y-2.137
X-6.268 Y-2.311
X-6.285 Y-2.496
X-6.335 Y-2.676
X-6.399 Y-2.849
X-6.471 Y-3.016
X-6.545 Y-3.18
X-6.619 Y-3.342
X-6.69 Y-3.503
X-6.758 Y-3.665
X-6.82 Y-3.828
X-6.875 Y-3.993
X-6.921 Y-4.159
X-6.955 Y-4.327
X-6.974 Y-4.496
X-6.973 Y-4.665
X-6.947 Y-4.833
X-6.889 Y-4.993
X-6.796 Y-5.138
X-6.668 Y-5.26
X-6.513 Y-5.351
X-6.343 Y-5.414
X-6.167 Y-5.453
X-5.989 Y-5.473
X-5.81 Y-5.479
X-5.633 Y-5.475
X-5.457 Y-5.462
X-5.283 Y-5.444
X-5.111 Y-5.422
X-4.939 Y-5.398
X-4.77 Y-5.373
X-4.601 Y-5.351
X-4.433 Y-5.335
X-4.267 Y-5.328
X-4.102 Y-5.339
X-3.943 Y-5.38
X-3.797 Y-5.466
X-3.678 Y-5.603
X-3.594 Y-5.77
X-3.534 Y-5.946
X-3.489 Y-6.124
X-3.45 Y-6.3
X-3.414 Y-6.476
X-3.379 Y-6.65
X-3.341 Y-6.822
X-3.299 Y-6.992
X-3.251 Y-7.16
X-3.197 Y-7.324
X-3.133 Y-7.484
X-3.058 Y-7.637
X-2.969 Y-7.782
X-2.863 Y-7.914
X-2.736 Y-8.027
X-2.589 Y-8.113
X-2.422 Y-8.163
X-2.245 Y-8.173
X-2.067 Y-8.145
X-1.895 Y-8.087
X-1.732 Y-8.009
X-1.579 Y-7.917
X-1.434 Y-7.814
X-1.295 Y-7.704
X-1.162 Y-7.589
X-1.033 Y-7.471
X-0.907 Y-7.351
X-0.784 Y-7.231
X-0.661 Y-7.112
X-0.537 Y-6.997
X-0.409 Y-6.887
X-0.276 Y-6.788
X-0.133 Y-6.708
X0.025 Y-6.659
X0.198 Y-6.66
X0.373 Y-6.719
X0.534 Y-6.813
X0.682 Y-6.925
X0.821 Y-7.044
X0.955 Y-7.164
X1.087 Y-7.285
X1.218 Y-7.404
X1.35 Y-7.52
X1.485 Y-7.631
X1.623 Y-7.737
X1.765 Y-7.835
X1.912 Y-7.923
X2.065 Y-7.999
X2.225 Y-8.058
X2.39 Y-8.094
X2.559 Y-8.101
X2.729 Y-8.071
X2.889 Y-8.001
X3.032 Y-7.893
X3.152 Y-7.758
X3.25 Y-7.606
X3.33 Y-7.445
X3.396 Y-7.279
X3.449 Y-7.109
X3.494 Y-6.939
X3.533 Y-6.767
X3.566 Y-6.596
X3.597 Y-6.426
X3.626 Y-6.256
X3.656 Y-6.088
X3.69 Y-5.922
X3.731 Y-5.76
X3.786 Y-5.604
X3.863 Y-5.459
X3.975 Y-5.336
X4.129 Y-5.249
X4.311 Y-5.207
X4.497 Y-5.198
X4.681 Y-5.205
X4.862 Y-5.222
X5.041 Y-5.241
X5.218 Y-5.261
X5.394 Y-5.28
X5.569 Y-5.294
X5.743 Y-5.303
X5.917 Y-5.305
X6.089 Y-5.297
X6.259 Y-5.278
X6.426 Y-5.244
X6.587 Y-5.192
X6.739 Y-5.116
X6.874 Y-5.013
X6.984 Y-4.88
X7.061 Y-4.721
X7.101 Y-4.546
X7.109 Y-4.365
X7.093 Y-4.185
X7.057 Y-4.009
X7.008 Y-3.838
X6.949 Y-3.67
X6.883 Y-3.507
X6.812 Y-3.347
X6.738 Y-3.19
X6.662 Y-3.034
X6.586 Y-2.88
X6.513 Y-2.727
X6.445 Y-2.572
X6.387 Y-2.416
X6.347 Y-2.257
X6.335 Y-2.093
X6.37 Y-1.927
X6.461 Y-1.771
X6.594 Y-1.639
X6.743 Y-1.527
X6.897 Y-1.429
X7.054 Y-1.337
X7.209 Y-1.249
X7.364 Y-1.161
X7.516 Y-1.072
X7.665 Y-0.979
X7.81 Y-0.883
X7.949 Y-0.78
X8.082 Y-0.67
X8.205 Y-0.552
X8.315 Y-0.423
X8.409 Y-0.281
X8.478 Y-0.127
X8.51 Y0.
G0 Z5.
G0 X9.036 Y0.
Z5.
G1 Z5. F202.6
Z0.635 F80.
Z-0.274
X9.024 Y0.175 F202.6
X8.971 Y0.345
X8.885 Y0.504
X8.774 Y0.647
X8.648 Y0.776
X8.511 Y0.892
X8.367 Y0.997
X8.219 Y1.094
X8.068 Y1.185
X7.915 Y1.27
X7.76 Y1.351
X7.606 Y1.429
X7.451 Y1.506
X7.298 Y1.582
X7.148 Y1.661
X7.003 Y1.745
X6.864 Y1.836
X6.738 Y1.942
X6.636 Y2.07
X6.573 Y2.228
X6.565 Y2.41
X6.603 Y2.594
X6.665 Y2.77
X6.739 Y2.937
X6.819 Y3.1
X6.9 Y3.26
X6.98 Y3.419
X7.059 Y3.577
X7.135 Y3.736
X7.206 Y3.896
X7.271 Y4.057
X7.329 Y4.22
X7.377 Y4.385
X7.414 Y4.552
X7.436 Y4.721
X7.438 Y4.89
X7.415 Y5.058
X7.361 Y5.219
X7.271 Y5.366
X7.146 Y5.491
X6.994 Y5.586
X6.825 Y5.652
X6.649 Y5.695
X6.471 Y5.717
X6.292 Y5.726
X6.114 Y5.723
X5.938 Y5.711
X5.763 Y5.693
X5.59 Y5.67
X5.418 Y5.644
X5.247 Y5.615
X5.078 Y5.587
X4.909 Y5.56
X4.742 Y5.538
X4.575 Y5.523
X4.41 Y5.522
X4.248 Y5.544
X4.093 Y5.604
X3.959 Y5.716
X3.86 Y5.873
X3.794 Y6.049
X3.748 Y6.228
X3.713 Y6.407
X3.683 Y6.585
X3.655 Y6.762
X3.626 Y6.937
X3.596 Y7.111
X3.563 Y7.283
X3.524 Y7.453
X3.48 Y7.621
X3.428 Y7.785
X3.366 Y7.945
X3.293 Y8.099
X3.205 Y8.245
X3.1 Y8.377
X2.975 Y8.491
X2.828 Y8.579
X2.662 Y8.631
X2.484 Y8.642
X2.306 Y8.616
X2.133 Y8.56
X1.97 Y8.484
X1.816 Y8.392
X1.669 Y8.29
X1.529 Y8.181
X1.396 Y8.066
X1.267 Y7.947
X1.141 Y7.825
X1.019 Y7.702
X0.898 Y7.579
X0.777 Y7.457
X0.656 Y7.338
X0.533 Y7.224
X0.404 Y7.118
X0.268 Y7.026
X0.118 Y6.96
X-0.049 Y6.937
X-0.225 Y6.972
X-0.392 Y7.058
X-0.542 Y7.168
X-0.681 Y7.289
X-0.813 Y7.415
X-0.94 Y7.541
X-1.066 Y7.667
X-1.192 Y7.792
X-1.32 Y7.913
X-1.449 Y8.031
X-1.581 Y8.144
X-1.717 Y8.251
X-1.858 Y8.35
X-2.004 Y8.439
X-2.157 Y8.515
X-2.316 Y8.574
X-2.481 Y8.61
X-2.65 Y8.617
X-2.82 Y8.586
X-2.98 Y8.514
X-3.122 Y8.406
X-3.243 Y8.271
X-3.341 Y8.119
X-3.422 Y7.958
X-3.488 Y7.791
X-3.542 Y7.622
X-3.588 Y7.451
X-3.626 Y7.279
X-3.658 Y7.107
X-3.687 Y6.935
X-3.713 Y6.764
X-3.739 Y6.594
X-3.765 Y6.425
X-3.794 Y6.258
X-3.83 Y6.094
X-3.876 Y5.935
X-3.942 Y5.785
X-4.037 Y5.651
X-4.175 Y5.549
X-4.351 Y5.493
X-4.538 Y5.477
X-4.724 Y5.485
X-4.906 Y5.505
X-5.085 Y5.531
X-5.262 Y5.559
X-5.437 Y5.587
X-5.612 Y5.612
X-5.786 Y5.634
X-5.96 Y5.652
X-6.133 Y5.663
X-6.306 Y5.666
X-6.478 Y5.66
X-6.648 Y5.64
X-6.814 Y5.606
X-6.975 Y5.552
X-7.125 Y5.474
X-7.258 Y5.369
X-7.366 Y5.233
X-7.44 Y5.072
X-7.478 Y4.896
X-7.484 Y4.715
X-7.466 Y4.535
X-7.43 Y4.359
X-7.381 Y4.187
X-7.322 Y4.02
X-7.255 Y3.856
X-7.183 Y3.696
X-7.107 Y3.538
X-7.029 Y3.383
X-6.949 Y3.23
X-6.87 Y3.078
X-6.793 Y2.926
X-6.721 Y2.773
X-6.657 Y2.619
X-6.608 Y2.462
X-6.584 Y2.3
X-6.601 Y2.134
X-6.676 Y1.974
X-6.801 Y1.836
X-6.95 Y1.722
X-7.107 Y1.625
X-7.267 Y1.537
X-7.427 Y1.454
X-7.586 Y1.373
X-7.744 Y1.292
X-7.899 Y1.209
X-8.052 Y1.124
X-8.201 Y1.034
X-8.346 Y0.939
X-8.486 Y0.837
X-8.617 Y0.728
X-8.739 Y0.608
X-8.848 Y0.478
X-8.939 Y0.335
X-9.004 Y0.179
X-9.035 Y0.011
X-9.026 Y-0.164
X-8.976 Y-0.335
X-8.891 Y-0.494
X-8.781 Y-0.639
X-8.656 Y-0.768
X-8.52 Y-0.885
X-8.376 Y-0.991
X-8.228 Y-1.089
X-8.077 Y-1.179
X-7.924 Y-1.265
X-7.77 Y-1.346
X-7.615 Y-1.424
X-7.461 Y-1.501
X-7.308 Y-1.578
X-7.157 Y-1.656
X-7.011 Y-1.739
X-6.872 Y-1.83
X-6.746 Y-1.935
X-6.641 Y-2.061
X-6.575 Y-2.217
X-6.564 Y-2.399
X-6.599 Y-2.583
X-6.661 Y-2.759
X-6.735 Y-2.927
X-6.814 Y-3.091
X-6.895 Y-3.251
X-6.975 Y-3.409
X-7.054 Y-3.568
X-7.13 Y-3.726
X-7.202 Y-3.886
X-7.267 Y-4.047
X-7.326 Y-4.21
X-7.375 Y-4.375
X-7.412 Y-4.542
X-7.435 Y-4.71
X-7.438 Y-4.88
X-7.417 Y-5.047
X-7.365 Y-5.209
X-7.278 Y-5.358
X-7.154 Y-5.484
X-7.003 Y-5.581
X-6.836 Y-5.649
X-6.66 Y-5.693
X-6.482 Y-5.717
X-6.303 Y-5.726
X-6.125 Y-5.723
X-5.949 Y-5.712
X-5.774 Y-5.694
X-5.6 Y-5.671
X-5.428 Y-5.645
X-5.257 Y-5.617
X-5.088 Y-5.589
X-4.92 Y-5.562
X-4.752 Y-5.539
X-4.585 Y-5.524
X-4.42 Y-5.522
X-4.257 Y-5.542
X-4.102 Y-5.599
X-3.967 Y-5.707
X-3.865 Y-5.863
X-3.798 Y-6.038
X-3.751 Y-6.217
X-3.715 Y-6.396
X-3.684 Y-6.574
X-3.656 Y-6.751
X-3.628 Y-6.926
X-3.598 Y-7.1
X-3.565 Y-7.272
X-3.527 Y-7.443
X-3.483 Y-7.61
X-3.431 Y-7.775
X-3.37 Y-7.936
X-3.297 Y-8.09
X-3.211 Y-8.236
X-3.107 Y-8.37
X-2.983 Y-8.485
X-2.838 Y-8.574
X-2.672 Y-8.628
X-2.495 Y-8.642
X-2.317 Y-8.618
X-2.144 Y-8.564
X-1.98 Y-8.489
X-1.825 Y-8.398
X-1.678 Y-8.297
X-1.538 Y-8.187
X-1.404 Y-8.073
X-1.274 Y-7.954
X-1.149 Y-7.833
X-1.026 Y-7.71
X-0.905 Y-7.587
X-0.785 Y-7.465
X-0.664 Y-7.345
X-0.541 Y-7.23
X-0.412 Y-7.124
X-0.276 Y-7.031
X-0.127 Y-6.963
X0.038 Y-6.936
X0.214 Y-6.968
X0.382 Y-7.052
X0.534 Y-7.161
X0.673 Y-7.282
X0.805 Y-7.407
X0.933 Y-7.533
X1.059 Y-7.66
X1.185 Y-7.784
X1.312 Y-7.906
X1.441 Y-8.024
X1.573 Y-8.138
X1.709 Y-8.245
X1.849 Y-8.345
X1.995 Y-8.434
X2.147 Y-8.511
X2.306 Y-8.571
X2.471 Y-8.609
X2.64 Y-8.617
X2.809 Y-8.589
X2.971 Y-8.52
X3.114 Y-8.413
X3.236 Y-8.28
X3.336 Y-8.129
X3.418 Y-7.968
X3.484 Y-7.802
X3.539 Y-7.632
X3.585 Y-7.461
X3.624 Y-7.289
X3.657 Y-7.117
X3.685 Y-6.945
X3.712 Y-6.774
X3.737 Y-6.604
X3.763 Y-6.435
X3.792 Y-6.268
X3.827 Y-6.104
X3.873 Y-5.945
X3.937 Y-5.794
X4.03 Y-5.658
X4.166 Y-5.554
X4.34 Y-5.495
X4.527 Y-5.477
X4.713 Y-5.485
X4.895 Y-5.504
X5.074 Y-5.53
X5.251 Y-5.557
X5.427 Y-5.585
X5.602 Y-5.611
X5.776 Y-5.633
X5.95 Y-5.651
X6.123 Y-5.663
X6.296 Y-5.666
X6.467 Y-5.66
X6.637 Y-5.642
X6.804 Y-5.609
X6.965 Y-5.556
X7.116 Y-5.48
X7.251 Y-5.376
X7.36 Y-5.242
X7.436 Y-5.082
X7.476 Y-4.907
X7.484 Y-4.726
X7.468 Y-4.546
X7.433 Y-4.369
X7.384 Y-4.197
X7.326 Y-4.03
X7.26 Y-3.866
X7.188 Y-3.705
X7.112 Y-3.548
X7.033 Y-3.393
X6.954 Y-3.239
X6.874 Y-3.087
X6.797 Y-2.935
X6.725 Y-2.783
X6.66 Y-2.629
X6.61 Y-2.471
X6.584 Y-2.31
X6.598 Y-2.144
X6.669 Y-1.984
X6.793 Y-1.844
X6.941 Y-1.729
X7.098 Y-1.631
X7.257 Y-1.542
X7.417 Y-1.459
X7.576 Y-1.378
X7.734 Y-1.297
X7.89 Y-1.214
X8.043 Y-1.129
X8.192 Y-1.039
X8.338 Y-0.945
X8.477 Y-0.844
X8.61 Y-0.734
X8.732 Y-0.616
X8.842 Y-0.486
X8.934 Y-0.344
X9.001 Y-0.189
X9.035 Y-0.021
X9.036 Y0.
G0 Z5.
G0 X9.56 Y0.
Z5.
G1 Z5. F202.6
Z0.635 F80.
Z-0.274
X9.527 Y0.174 F202.6
X9.457 Y0.34
X9.358 Y0.491
X9.239 Y0.628
X9.107 Y0.751
X8.967 Y0.863
X8.821 Y0.965
X8.671 Y1.059
X8.519 Y1.147
X8.364 Y1.23
X8.208 Y1.308
X8.052 Y1.384
X7.896 Y1.458
X7.74 Y1.531
X7.586 Y1.605
X7.435 Y1.682
X7.289 Y1.763
X7.15 Y1.854
X7.023 Y1.958
X6.92 Y2.085
X6.858 Y2.243
X6.853 Y2.425
X6.896 Y2.609
X6.964 Y2.783
X7.043 Y2.949
X7.129 Y3.109
X7.216 Y3.266
X7.304 Y3.422
X7.39 Y3.576
X7.474 Y3.731
X7.555 Y3.887
X7.632 Y4.044
X7.703 Y4.203
X7.767 Y4.363
X7.822 Y4.526
X7.867 Y4.691
X7.899 Y4.858
X7.914 Y5.027
X7.907 Y5.196
X7.873 Y5.362
X7.804 Y5.519
X7.699 Y5.658
X7.562 Y5.771
X7.402 Y5.855
X7.23 Y5.912
X7.053 Y5.947
X6.874 Y5.964
X6.695 Y5.969
X6.517 Y5.963
X6.341 Y5.949
X6.166 Y5.928
X5.993 Y5.903
X5.821 Y5.874
X5.65 Y5.843
X5.481 Y5.811
X5.312 Y5.779
X5.144 Y5.75
X4.977 Y5.724
X4.811 Y5.707
X4.646 Y5.703
X4.484 Y5.721
X4.329 Y5.775
X4.193 Y5.883
X4.093 Y6.04
X4.029 Y6.217
X3.987 Y6.398
X3.957 Y6.579
X3.933 Y6.758
X3.912 Y6.936
X3.891 Y7.113
X3.87 Y7.289
X3.846 Y7.463
X3.819 Y7.636
X3.787 Y7.808
X3.749 Y7.977
X3.705 Y8.144
X3.651 Y8.307
X3.587 Y8.466
X3.511 Y8.618
X3.419 Y8.76
X3.308 Y8.887
X3.176 Y8.994
X3.022 Y9.071
X2.851 Y9.11
X2.672 Y9.11
X2.495 Y9.074
X2.325 Y9.012
X2.164 Y8.931
X2.011 Y8.837
X1.866 Y8.733
X1.727 Y8.621
X1.595 Y8.505
X1.466 Y8.385
X1.342 Y8.262
X1.221 Y8.137
X1.101 Y8.011
X0.983 Y7.886
X0.866 Y7.761
X0.747 Y7.64
X0.626 Y7.523
X0.5 Y7.414
X0.366 Y7.318
X0.22 Y7.245
X0.057 Y7.212
X-0.118 Y7.239
X-0.286 Y7.321
X-0.437 Y7.433
X-0.574 Y7.557
X-0.703 Y7.687
X-0.827 Y7.818
X-0.948 Y7.95
X-1.068 Y8.08
X-1.189 Y8.209
X-1.311 Y8.336
X-1.436 Y8.459
X-1.563 Y8.577
X-1.695 Y8.69
X-1.83 Y8.797
X-1.971 Y8.895
X-2.118 Y8.982
X-2.271 Y9.055
X-2.431 Y9.11
X-2.597 Y9.14
X-2.767 Y9.139
X-2.936 Y9.099
X-3.093 Y9.019
X-3.231 Y8.904
X-3.347 Y8.765
X-3.442 Y8.611
X-3.521 Y8.448
X-3.585 Y8.281
X-3.638 Y8.111
X-3.682 Y7.939
X-3.719 Y7.767
X-3.751 Y7.594
X-3.778 Y7.422
X-3.802 Y7.25
X-3.824 Y7.078
X-3.846 Y6.907
X-3.868 Y6.738
X-3.894 Y6.571
X-3.925 Y6.406
X-3.967 Y6.245
X-4.024 Y6.091
X-4.109 Y5.952
X-4.235 Y5.839
X-4.403 Y5.773
X-4.591 Y5.752
X-4.777 Y5.761
X-4.96 Y5.784
X-5.139 Y5.815
X-5.316 Y5.849
X-5.491 Y5.885
X-5.665 Y5.919
X-5.839 Y5.952
X-6.012 Y5.981
X-6.185 Y6.006
X-6.357 Y6.025
X-6.53 Y6.037
X-6.702 Y6.041
X-6.873 Y6.034
X-7.043 Y6.015
X-7.208 Y5.979
X-7.368 Y5.922
X-7.516 Y5.841
X-7.647 Y5.731
X-7.751 Y5.592
X-7.82 Y5.428
X-7.854 Y5.251
X-7.858 Y5.07
X-7.839 Y4.89
X-7.802 Y4.714
X-7.752 Y4.542
X-7.692 Y4.375
X-7.625 Y4.211
X-7.552 Y4.05
X-7.475 Y3.893
X-7.395 Y3.738
X-7.313 Y3.585
X-7.23 Y3.434
X-7.147 Y3.283
X-7.067 Y3.133
X-6.99 Y2.982
X-6.921 Y2.83
X-6.865 Y2.674
X-6.828 Y2.515
X-6.827 Y2.351
X-6.881 Y2.188
X-6.994 Y2.042
X-7.14 Y1.923
X-7.299 Y1.825
X-7.461 Y1.74
X-7.624 Y1.661
X-7.787 Y1.586
X-7.949 Y1.511
X-8.11 Y1.437
X-8.269 Y1.36
X-8.425 Y1.281
X-8.579 Y1.199
X-8.729 Y1.111
X-8.874 Y1.018
X-9.014 Y0.918
X-9.146 Y0.809
X-9.268 Y0.69
X-9.376 Y0.56
X-9.466 Y0.417
X-9.53 Y0.26
X-9.56 Y0.091
X-9.55 Y-0.083
X-9.498 Y-0.255
X-9.412 Y-0.414
X-9.303 Y-0.558
X-9.178 Y-0.688
X-9.042 Y-0.806
X-8.898 Y-0.912
X-8.75 Y-1.011
X-8.599 Y-1.102
X-8.445 Y-1.187
X-8.29 Y-1.268
X-8.134 Y-1.345
X-7.977 Y-1.42
X-7.821 Y-1.493
X-7.667 Y-1.567
X-7.514 Y-1.641
X-7.365 Y-1.72
X-7.221 Y-1.805
X-7.087 Y-1.901
X-6.97 Y-2.015
X-6.884 Y-2.156
X-6.848 Y-2.328
X-6.869 Y-2.514
X-6.926 Y-2.693
X-7.001 Y-2.863
X-7.084 Y-3.026
X-7.17 Y-3.184
X-7.258 Y-3.34
X-7.345 Y-3.495
X-7.431 Y-3.65
X-7.513 Y-3.805
X-7.592 Y-3.962
X-7.666 Y-4.119
X-7.734 Y-4.279
X-7.794 Y-4.44
X-7.845 Y-4.604
X-7.885 Y-4.771
X-7.909 Y-4.939
X-7.914 Y-5.108
X-7.894 Y-5.276
X-7.844 Y-5.438
X-7.759 Y-5.588
X-7.637 Y-5.716
X-7.488 Y-5.815
X-7.321 Y-5.885
X-7.146 Y-5.931
X-6.967 Y-5.957
X-6.788 Y-5.968
X-6.61 Y-5.967
X-6.433 Y-5.957
X-6.257 Y-5.94
X-6.083 Y-5.917
X-5.911 Y-5.89
X-5.739 Y-5.86
X-5.569 Y-5.828
X-5.4 Y-5.796
X-5.232 Y-5.765
X-5.065 Y-5.737
X-4.898 Y-5.715
X-4.732 Y-5.703
X-4.568 Y-5.708
X-4.408 Y-5.741
X-4.26 Y-5.819
X-4.141 Y-5.953
X-4.059 Y-6.123
X-4.007 Y-6.303
X-3.972 Y-6.484
X-3.945 Y-6.664
X-3.923 Y-6.843
X-3.902 Y-7.021
X-3.881 Y-7.197
X-3.859 Y-7.372
X-3.834 Y-7.546
X-3.804 Y-7.718
X-3.77 Y-7.889
X-3.729 Y-8.057
X-3.68 Y-8.222
X-3.622 Y-8.384
X-3.553 Y-8.539
X-3.469 Y-8.687
X-3.368 Y-8.823
X-3.248 Y-8.941
X-3.105 Y-9.035
X-2.943 Y-9.095
X-2.766 Y-9.115
X-2.587 Y-9.097
X-2.413 Y-9.047
X-2.247 Y-8.975
X-2.09 Y-8.887
X-1.941 Y-8.788
X-1.799 Y-8.68
X-1.664 Y-8.566
X-1.533 Y-8.448
X-1.407 Y-8.326
X-1.284 Y-8.202
X-1.164 Y-8.077
X-1.045 Y-7.951
X-0.927 Y-7.826
X-0.809 Y-7.703
X-0.69 Y-7.583
X-0.567 Y-7.47
X-0.438 Y-7.366
X-0.298 Y-7.28
X-0.145 Y-7.223
X0.026 Y-7.217
X0.2 Y-7.272
X0.36 Y-7.372
X0.504 Y-7.491
X0.636 Y-7.619
X0.762 Y-7.749
X0.885 Y-7.881
X1.005 Y-8.012
X1.126 Y-8.142
X1.247 Y-8.27
X1.371 Y-8.395
X1.496 Y-8.516
X1.625 Y-8.632
X1.759 Y-8.742
X1.897 Y-8.845
X2.04 Y-8.938
X2.19 Y-9.019
X2.346 Y-9.084
X2.51 Y-9.128
X2.678 Y-9.144
X2.848 Y-9.125
X3.012 Y-9.066
X3.161 Y-8.968
X3.289 Y-8.84
X3.395 Y-8.693
X3.482 Y-8.534
X3.553 Y-8.369
X3.611 Y-8.2
X3.66 Y-8.029
X3.701 Y-7.857
X3.735 Y-7.685
X3.764 Y-7.512
X3.79 Y-7.34
X3.813 Y-7.168
X3.835 Y-6.997
X3.856 Y-6.827
X3.88 Y-6.658
X3.908 Y-6.492
X3.943 Y-6.328
X3.992 Y-6.171
X4.061 Y-6.022
X4.163 Y-5.894
X4.311 Y-5.801
X4.492 Y-5.758
X4.68 Y-5.754
X4.865 Y-5.771
X5.046 Y-5.798
X5.224 Y-5.831
X5.4 Y-5.866
X5.574 Y-5.901
X5.748 Y-5.935
X5.921 Y-5.966
X6.094 Y-5.993
X6.267 Y-6.016
X6.44 Y-6.032
X6.612 Y-6.04
X6.784 Y-6.039
X6.954 Y-6.027
X7.122 Y-6.
X7.285 Y-5.955
X7.44 Y-5.887
X7.581 Y-5.793
X7.7 Y-5.668
X7.788 Y-5.516
X7.84 Y-5.345
X7.859 Y-5.165
X7.851 Y-4.984
X7.823 Y-4.806
X7.779 Y-4.632
X7.725 Y-4.462
X7.661 Y-4.296
X7.591 Y-4.134
X7.516 Y-3.975
X7.437 Y-3.819
X7.356 Y-3.665
X7.273 Y-3.513
X7.19 Y-3.362
X7.108 Y-3.212
X7.03 Y-3.061
X6.956 Y-2.91
X6.892 Y-2.756
X6.844 Y-2.599
X6.822 Y-2.437
X6.845 Y-2.272
X6.928 Y-2.115
X7.061 Y-1.982
X7.215 Y-1.874
X7.376 Y-1.783
X7.539 Y-1.702
X7.702 Y-1.625
X7.865 Y-1.55
X8.026 Y-1.476
X8.186 Y-1.401
X8.344 Y-1.323
X8.499 Y-1.243
X8.651 Y-1.158
X8.798 Y-1.068
X8.941 Y-0.971
X9.078 Y-0.867
X9.205 Y-0.754
X9.321 Y-0.63
X9.422 Y-0.493
X9.5 Y-0.344
X9.549 Y-0.181
X9.56 Y-0.008
X9.56 Y0.
G0 Z5.
G0 X10.078 Y0.
Z5.
G1 Z5. F202.6
Z0.635 F80.
Z-0.274
X10.024 Y0.171 F202.6
X9.937 Y0.329
X9.826 Y0.473
X9.701 Y0.603
X9.565 Y0.721
X9.422 Y0.828
X9.273 Y0.926
X9.122 Y1.018
X8.968 Y1.103
X8.812 Y1.184
X8.655 Y1.261
X8.497 Y1.335
X8.339 Y1.406
X8.182 Y1.477
X8.025 Y1.547
X7.871 Y1.618
X7.719 Y1.693
X7.571 Y1.772
X7.432 Y1.861
X7.304 Y1.963
X7.2 Y2.089
X7.137 Y2.246
X7.134 Y2.428
X7.181 Y2.612
X7.254 Y2.784
X7.338 Y2.948
X7.429 Y3.106
X7.522 Y3.26
X7.616 Y3.412
X7.709 Y3.564
X7.801 Y3.715
X7.89 Y3.867
X7.976 Y4.019
X8.058 Y4.173
X8.135 Y4.329
X8.205 Y4.487
X8.269 Y4.647
X8.322 Y4.81
X8.365 Y4.975
X8.393 Y5.143
X8.402 Y5.312
X8.387 Y5.48
X8.343 Y5.644
X8.264 Y5.796
X8.148 Y5.929
X8.003 Y6.034
X7.838 Y6.11
X7.664 Y6.16
X7.486 Y6.191
X7.307 Y6.205
X7.128 Y6.207
X6.951 Y6.2
X6.774 Y6.184
X6.599 Y6.163
X6.426 Y6.136
X6.254 Y6.106
X6.083 Y6.073
X5.913 Y6.038
X5.744 Y6.002
X5.576 Y5.967
X5.409 Y5.934
X5.243 Y5.905
X5.077 Y5.884
X4.912 Y5.873
X4.749 Y5.883
X4.591 Y5.925
X4.449 Y6.017
X4.341 Y6.165
X4.272 Y6.341
X4.23 Y6.524
X4.203 Y6.706
X4.184 Y6.887
X4.169 Y7.066
X4.155 Y7.244
X4.142 Y7.422
X4.127 Y7.598
X4.11 Y7.773
X4.089 Y7.947
X4.065 Y8.12
X4.035 Y8.291
X3.999 Y8.46
X3.956 Y8.627
X3.903 Y8.79
X3.84 Y8.948
X3.763 Y9.1
X3.671 Y9.241
X3.559 Y9.368
X3.426 Y9.474
X3.272 Y9.549
X3.1 Y9.586
X2.92 Y9.584
X2.743 Y9.548
X2.573 Y9.486
X2.411 Y9.405
X2.258 Y9.311
X2.113 Y9.207
X1.974 Y9.096
X1.84 Y8.98
X1.712 Y8.86
X1.587 Y8.736
X1.466 Y8.61
X1.347 Y8.483
X1.23 Y8.355
X1.115 Y8.227
X0.999 Y8.1
X0.883 Y7.975
X0.766 Y7.854
X0.644 Y7.739
X0.516 Y7.635
X0.378 Y7.547
X0.225 Y7.49
X0.055 Y7.484
X-0.119 Y7.542
X-0.277 Y7.646
X-0.417 Y7.769
X-0.546 Y7.901
X-0.668 Y8.036
X-0.786 Y8.173
X-0.901 Y8.309
X-1.016 Y8.444
X-1.132 Y8.578
X-1.249 Y8.709
X-1.368 Y8.838
X-1.489 Y8.963
X-1.614 Y9.084
X-1.743 Y9.2
X-1.876 Y9.309
X-2.014 Y9.409
X-2.159 Y9.5
X-2.31 Y9.577
X-2.469 Y9.636
X-2.634 Y9.672
X-2.804 Y9.678
X-2.973 Y9.646
X-3.133 Y9.574
X-3.276 Y9.465
X-3.398 Y9.331
X-3.498 Y9.18
X-3.581 Y9.019
X-3.649 Y8.853
X-3.705 Y8.684
X-3.752 Y8.512
X-3.791 Y8.34
X-3.824 Y8.167
X-3.852 Y7.993
X-3.876 Y7.82
X-3.897 Y7.648
X-3.917 Y7.475
X-3.935 Y7.304
X-3.954 Y7.134
X-3.974 Y6.965
X-3.998 Y6.798
X-4.03 Y6.633
X-4.072 Y6.474
X-4.133 Y6.322
X-4.225 Y6.187
X-4.361 Y6.084
X-4.537 Y6.031
X-4.726 Y6.023
X-4.912 Y6.041
X-5.093 Y6.073
X-5.271 Y6.11
X-5.446 Y6.152
X-5.62 Y6.194
X-5.793 Y6.236
X-5.965 Y6.276
X-6.137 Y6.313
X-6.308 Y6.348
X-6.48 Y6.377
X-6.652 Y6.401
X-6.824 Y6.419
X-6.996 Y6.428
X-7.167 Y6.428
X-7.338 Y6.416
X-7.505 Y6.388
X-7.668 Y6.342
X-7.822 Y6.274
X-7.962 Y6.177
X-8.079 Y6.051
X-8.165 Y5.897
X-8.216 Y5.725
X-8.233 Y5.544
X-8.225 Y5.363
X-8.197 Y5.185
X-8.154 Y5.011
X-8.099 Y4.841
X-8.036 Y4.674
X-7.966 Y4.512
X-7.891 Y4.353
X-7.812 Y4.196
X-7.729 Y4.042
X-7.645 Y3.89
X-7.559 Y3.739
X-7.473 Y3.59
X-7.388 Y3.441
X-7.305 Y3.293
X-7.227 Y3.143
X-7.156 Y2.992
X-7.097 Y2.837
X-7.059 Y2.679
X-7.055 Y2.515
X-7.107 Y2.352
X-7.221 Y2.207
X-7.37 Y2.091
X-7.532 Y1.997
X-7.697 Y1.916
X-7.863 Y1.842
X-8.029 Y1.773
X-8.194 Y1.705
X-8.358 Y1.637
X-8.521 Y1.568
X-8.682 Y1.498
X-8.841 Y1.424
X-8.997 Y1.347
X-9.151 Y1.265
X-9.3 Y1.178
X-9.444 Y1.085
X-9.582 Y0.983
X-9.712 Y0.873
X-9.831 Y0.752
X-9.935 Y0.618
X-10.019 Y0.471
X-10.074 Y0.311
X-10.093 Y0.139
X-10.07 Y-0.036
X-10.008 Y-0.204
X-9.916 Y-0.36
X-9.802 Y-0.501
X-9.674 Y-0.628
X-9.536 Y-0.743
X-9.392 Y-0.849
X-9.243 Y-0.946
X-9.09 Y-1.036
X-8.936 Y-1.12
X-8.78 Y-1.2
X-8.622 Y-1.276
X-8.465 Y-1.349
X-8.307 Y-1.421
X-8.15 Y-1.491
X-7.993 Y-1.561
X-7.839 Y-1.633
X-7.688 Y-1.708
X-7.542 Y-1.79
X-7.404 Y-1.88
X-7.281 Y-1.987
X-7.183 Y-2.118
X-7.132 Y-2.282
X-7.141 Y-2.467
X-7.194 Y-2.648
X-7.27 Y-2.818
X-7.357 Y-2.981
X-7.448 Y-3.138
X-7.541 Y-3.291
X-7.635 Y-3.443
X-7.728 Y-3.595
X-7.819 Y-3.746
X-7.908 Y-3.898
X-7.993 Y-4.051
X-8.074 Y-4.205
X-8.15 Y-4.361
X-8.219 Y-4.52
X-8.28 Y-4.68
X-8.332 Y-4.844
X-8.372 Y-5.01
X-8.396 Y-5.178
X-8.401 Y-5.347
X-8.381 Y-5.514
X-8.33 Y-5.676
X-8.243 Y-5.825
X-8.12 Y-5.953
X-7.97 Y-6.051
X-7.803 Y-6.122
X-7.628 Y-6.168
X-7.45 Y-6.195
X-7.27 Y-6.207
X-7.092 Y-6.206
X-6.914 Y-6.197
X-6.738 Y-6.18
X-6.564 Y-6.158
X-6.39 Y-6.13
X-6.219 Y-6.099
X-6.048 Y-6.066
X-5.878 Y-6.031
X-5.71 Y-5.995
X-5.542 Y-5.96
X-5.375 Y-5.928
X-5.209 Y-5.9
X-5.043 Y-5.88
X-4.878 Y-5.873
X-4.716 Y-5.888
X-4.56 Y-5.939
X-4.424 Y-6.043
X-4.324 Y-6.2
X-4.262 Y-6.378
X-4.224 Y-6.561
X-4.199 Y-6.743
X-4.181 Y-6.924
X-4.166 Y-7.103
X-4.152 Y-7.281
X-4.139 Y-7.458
X-4.123 Y-7.634
X-4.106 Y-7.809
X-4.085 Y-7.982
X-4.059 Y-8.155
X-4.028 Y-8.326
X-3.991 Y-8.494
X-3.946 Y-8.66
X-3.891 Y-8.823
X-3.825 Y-8.98
X-3.746 Y-9.13
X-3.65 Y-9.269
X-3.534 Y-9.392
X-3.396 Y-9.492
X-3.238 Y-9.56
X-3.063 Y-9.589
X-2.884 Y-9.579
X-2.707 Y-9.537
X-2.539 Y-9.471
X-2.379 Y-9.387
X-2.228 Y-9.291
X-2.084 Y-9.185
X-1.946 Y-9.073
X-1.813 Y-8.956
X-1.686 Y-8.835
X-1.562 Y-8.71
X-1.441 Y-8.584
X-1.323 Y-8.457
X-1.206 Y-8.329
X-1.091 Y-8.201
X-0.976 Y-8.074
X-0.86 Y-7.95
X-0.741 Y-7.83
X-0.618 Y-7.717
X-0.489 Y-7.615
X-0.348 Y-7.533
X-0.192 Y-7.484
X-0.019 Y-7.491
X0.153 Y-7.561
X0.307 Y-7.67
X0.445 Y-7.796
X0.572 Y-7.929
X0.692 Y-8.064
X0.809 Y-8.2
X0.925 Y-8.337
X1.04 Y-8.472
X1.156 Y-8.605
X1.273 Y-8.736
X1.392 Y-8.864
X1.514 Y-8.988
X1.64 Y-9.108
X1.769 Y-9.223
X1.904 Y-9.33
X2.044 Y-9.429
X2.19 Y-9.517
X2.342 Y-9.591
X2.502 Y-9.646
X2.668 Y-9.676
X2.839 Y-9.675
X3.007 Y-9.635
X3.164 Y-9.554
X3.303 Y-9.44
X3.42 Y-9.301
X3.516 Y-9.148
X3.596 Y-8.986
X3.661 Y-8.819
X3.715 Y-8.649
X3.761 Y-8.477
X3.798 Y-8.304
X3.83 Y-8.131
X3.857 Y-7.958
X3.881 Y-7.785
X3.901 Y-7.612
X3.92 Y-7.44
X3.939 Y-7.269
X3.957 Y-7.099
X3.979 Y-6.93
X4.004 Y-6.764
X4.037 Y-6.6
X4.083 Y-6.442
X4.149 Y-6.293
X4.249 Y-6.163
X4.394 Y-6.069
X4.576 Y-6.026
X4.765 Y-6.025
X4.95 Y-6.047
X5.13 Y-6.08
X5.307 Y-6.119
X5.482 Y-6.16
X5.656 Y-6.203
X5.828 Y-6.244
X6. Y-6.284
X6.172 Y-6.321
X6.344 Y-6.354
X6.515 Y-6.383
X6.687 Y-6.406
X6.859 Y-6.422
X7.031 Y-6.429
X7.202 Y-6.427
X7.372 Y-6.411
X7.539 Y-6.381
X7.7 Y-6.33
X7.852 Y-6.256
X7.988 Y-6.154
X8.1 Y-6.021
X8.178 Y-5.863
X8.222 Y-5.688
X8.234 Y-5.507
X8.221 Y-5.327
X8.189 Y-5.149
X8.143 Y-4.976
X8.087 Y-4.806
X8.022 Y-4.641
X7.951 Y-4.479
X7.875 Y-4.32
X7.795 Y-4.164
X7.712 Y-4.011
X7.627 Y-3.859
X7.541 Y-3.709
X7.456 Y-3.56
X7.371 Y-3.411
X7.289 Y-3.262
X7.212 Y-3.112
X7.143 Y-2.96
X7.088 Y-2.805
X7.055 Y-2.645
X7.061 Y-2.481
X7.126 Y-2.321
X7.25 Y-2.181
X7.403 Y-2.07
X7.565 Y-1.979
X7.731 Y-1.9
X7.897 Y-1.828
X8.063 Y-1.759
X8.228 Y-1.691
X8.392 Y-1.623
X8.554 Y-1.554
X8.715 Y-1.483
X8.873 Y-1.409
X9.029 Y-1.331
X9.182 Y-1.248
X9.33 Y-1.16
X9.473 Y-1.064
X9.61 Y-0.961
X9.738 Y-0.849
X9.854 Y-0.725
X9.954 Y-0.589
X10.033 Y-0.439
X10.081 Y-0.276
X10.092 Y-0.103
X10.078 Y0.
G0 Z5.
G0 X10.587 Y0.
Z5.
G1 Z5. F202.6
Z0.635 F80.
Z-0.274
X10.511 Y0.164 F202.6
X10.409 Y0.314
X10.289 Y0.45
X10.158 Y0.573
X10.017 Y0.685
X9.872 Y0.788
X9.721 Y0.883
X9.568 Y0.971
X9.413 Y1.055
X9.256 Y1.133
X9.098 Y1.208
X8.939 Y1.28
X8.78 Y1.35
X8.621 Y1.418
X8.462 Y1.485
X8.305 Y1.553
X8.15 Y1.622
X7.997 Y1.695
X7.849 Y1.772
X7.708 Y1.859
X7.58 Y1.96
X7.474 Y2.083
X7.41 Y2.239
X7.408 Y2.421
X7.458 Y2.604
X7.535 Y2.776
X7.625 Y2.937
X7.72 Y3.093
X7.819 Y3.244
X7.918 Y3.393
X8.017 Y3.541
X8.116 Y3.689
X8.212 Y3.836
X8.306 Y3.985
X8.397 Y4.134
X8.484 Y4.285
X8.567 Y4.438
X8.644 Y4.593
X8.715 Y4.751
X8.777 Y4.911
X8.83 Y5.073
X8.87 Y5.239
X8.895 Y5.406
X8.9 Y5.575
X8.88 Y5.743
X8.829 Y5.905
X8.742 Y6.054
X8.619 Y6.182
X8.469 Y6.281
X8.302 Y6.352
X8.127 Y6.399
X7.949 Y6.427
X7.77 Y6.441
X7.591 Y6.442
X7.413 Y6.433
X7.237 Y6.418
X7.061 Y6.396
X6.888 Y6.369
X6.715 Y6.338
X6.544 Y6.303
X6.374 Y6.267
X6.205 Y6.229
X6.037 Y6.19
X5.87 Y6.152
X5.703 Y6.116
X5.537 Y6.083
X5.371 Y6.056
X5.206 Y6.038
X5.042 Y6.036
X4.881 Y6.06
X4.731 Y6.126
X4.606 Y6.252
X4.524 Y6.422
X4.477 Y6.605
X4.449 Y6.789
X4.433 Y6.971
X4.422 Y7.152
X4.414 Y7.331
X4.407 Y7.51
X4.4 Y7.687
X4.392 Y7.864
X4.382 Y8.039
X4.369 Y8.214
X4.353 Y8.388
X4.331 Y8.561
X4.305 Y8.732
X4.272 Y8.902
X4.232 Y9.069
X4.183 Y9.233
X4.123 Y9.393
X4.05 Y9.546
X3.962 Y9.691
X3.855 Y9.821
X3.726 Y9.932
X3.576 Y10.014
X3.407 Y10.06
X3.228 Y10.067
X3.049 Y10.038
X2.877 Y9.981
X2.713 Y9.905
X2.557 Y9.815
X2.409 Y9.714
X2.268 Y9.605
X2.132 Y9.49
X2.002 Y9.371
X1.876 Y9.248
X1.753 Y9.123
X1.634 Y8.995
X1.517 Y8.866
X1.402 Y8.736
X1.288 Y8.606
X1.175 Y8.476
X1.062 Y8.348
X0.948 Y8.222
X0.831 Y8.101
X0.71 Y7.986
X0.582 Y7.882
X0.444 Y7.797
X0.29 Y7.744
X0.119 Y7.746
X-0.054 Y7.815
X-0.207 Y7.927
X-0.343 Y8.056
X-0.466 Y8.192
X-0.583 Y8.332
X-0.696 Y8.472
X-0.807 Y8.613
X-0.917 Y8.753
X-1.027 Y8.891
X-1.138 Y9.028
X-1.25 Y9.163
X-1.365 Y9.295
X-1.482 Y9.424
X-1.603 Y9.549
X-1.728 Y9.669
X-1.857 Y9.783
X-1.991 Y9.89
X-2.131 Y9.988
X-2.277 Y10.075
X-2.431 Y10.146
X-2.591 Y10.198
X-2.758 Y10.224
X-2.929 Y10.217
X-3.096 Y10.17
X-3.251 Y10.083
X-3.387 Y9.965
X-3.501 Y9.824
X-3.596 Y9.669
X-3.674 Y9.507
X-3.739 Y9.339
X-3.793 Y9.169
X-3.838 Y8.997
X-3.876 Y8.824
X-3.908 Y8.651
X-3.935 Y8.477
X-3.957 Y8.303
X-3.977 Y8.13
X-3.994 Y7.957
X-4.01 Y7.785
X-4.026 Y7.613
X-4.041 Y7.443
X-4.059 Y7.273
X-4.08 Y7.105
X-4.107 Y6.94
X-4.144 Y6.779
X-4.197 Y6.624
X-4.277 Y6.483
X-4.398 Y6.369
X-4.566 Y6.302
X-4.755 Y6.287
X-4.943 Y6.305
X-5.125 Y6.338
X-5.302 Y6.38
X-5.477 Y6.427
X-5.65 Y6.475
X-5.821 Y6.524
X-5.992 Y6.572
X-6.163 Y6.618
X-6.333 Y6.662
X-6.503 Y6.703
X-6.674 Y6.74
X-6.845 Y6.772
X-7.016 Y6.799
X-7.187 Y6.818
X-7.359 Y6.829
X-7.53 Y6.831
X-7.7 Y6.82
X-7.868 Y6.794
X-8.031 Y6.75
X-8.186 Y6.683
X-8.326 Y6.588
X-8.445 Y6.463
X-8.533 Y6.31
X-8.586 Y6.139
X-8.606 Y5.958
X-8.6 Y5.777
X-8.574 Y5.598
X-8.533 Y5.423
X-8.48 Y5.252
X-8.419 Y5.085
X-8.35 Y4.922
X-8.275 Y4.762
X-8.197 Y4.604
X-8.114 Y4.45
X-8.029 Y4.297
X-7.942 Y4.146
X-7.854 Y3.997
X-7.765 Y3.849
X-7.677 Y3.702
X-7.591 Y3.554
X-7.507 Y3.407
X-7.429 Y3.258
X-7.36 Y3.107
X-7.305 Y2.952
X-7.273 Y2.793
X-7.283 Y2.629
X-7.354 Y2.47
X-7.485 Y2.335
X-7.642 Y2.229
X-7.808 Y2.144
X-7.976 Y2.071
X-8.145 Y2.004
X-8.313 Y1.941
X-8.481 Y1.879
X-8.648 Y1.818
X-8.813 Y1.756
X-8.977 Y1.692
X-9.14 Y1.626
X-9.3 Y1.557
X-9.459 Y1.485
X-9.614 Y1.407
X-9.766 Y1.324
X-9.913 Y1.235
X-10.055 Y1.139
X-10.189 Y1.034
X-10.314 Y0.919
X-10.426 Y0.792
X-10.52 Y0.652
X-10.59 Y0.498
X-10.627 Y0.33
X-10.624 Y0.156
X-10.581 Y-0.017
X-10.502 Y-0.18
X-10.398 Y-0.329
X-10.277 Y-0.463
X-10.144 Y-0.585
X-10.003 Y-0.696
X-9.857 Y-0.798
X-9.706 Y-0.892
X-9.553 Y-0.98
X-9.397 Y-1.063
X-9.24 Y-1.141
X-9.082 Y-1.215
X-8.923 Y-1.287
X-8.764 Y-1.357
X-8.605 Y-1.425
X-8.447 Y-1.492
X-8.289 Y-1.56
X-8.134 Y-1.629
X-7.982 Y-1.702
X-7.835 Y-1.781
X-7.695 Y-1.868
X-7.568 Y-1.971
X-7.466 Y-2.098
X-7.407 Y-2.256
X-7.411 Y-2.44
X-7.465 Y-2.622
X-7.544 Y-2.792
X-7.634 Y-2.953
X-7.73 Y-3.108
X-7.829 Y-3.259
X-7.928 Y-3.408
X-8.027 Y-3.556
X-8.125 Y-3.704
X-8.222 Y-3.851
X-8.315 Y-4.
X-8.406 Y-4.149
X-8.493 Y-4.301
X-8.575 Y-4.454
X-8.652 Y-4.609
X-8.721 Y-4.767
X-8.783 Y-4.927
X-8.835 Y-5.09
X-8.874 Y-5.256
X-8.897 Y-5.423
X-8.9 Y-5.592
X-8.877 Y-5.76
X-8.822 Y-5.921
X-8.731 Y-6.068
X-8.605 Y-6.193
X-8.453 Y-6.289
X-8.285 Y-6.358
X-8.109 Y-6.403
X-7.931 Y-6.429
X-7.752 Y-6.441
X-7.573 Y-6.441
X-7.395 Y-6.432
X-7.219 Y-6.416
X-7.044 Y-6.393
X-6.87 Y-6.366
X-6.698 Y-6.334
X-6.527 Y-6.3
X-6.357 Y-6.263
X-6.188 Y-6.225
X-6.02 Y-6.186
X-5.853 Y-6.148
X-5.686 Y-6.112
X-5.52 Y-6.08
X-5.354 Y-6.053
X-5.189 Y-6.037
X-5.026 Y-6.037
X-4.866 Y-6.064
X-4.717 Y-6.136
X-4.596 Y-6.268
X-4.518 Y-6.44
X-4.473 Y-6.623
X-4.447 Y-6.807
X-4.431 Y-6.989
X-4.421 Y-7.17
X-4.413 Y-7.349
X-4.407 Y-7.528
X-4.4 Y-7.705
X-4.391 Y-7.882
X-4.381 Y-8.057
X-4.368 Y-8.232
X-4.351 Y-8.406
X-4.329 Y-8.578
X-4.302 Y-8.75
X-4.269 Y-8.919
X-4.228 Y-9.086
X-4.177 Y-9.25
X-4.116 Y-9.409
X-4.042 Y-9.561
X-3.952 Y-9.704
X-3.843 Y-9.833
X-3.712 Y-9.942
X-3.56 Y-10.021
X-3.389 Y-10.063
X-3.21 Y-10.065
X-3.032 Y-10.033
X-2.86 Y-9.974
X-2.697 Y-9.897
X-2.542 Y-9.805
X-2.395 Y-9.703
X-2.254 Y-9.594
X-2.119 Y-9.479
X-1.989 Y-9.359
X-1.863 Y-9.236
X-1.741 Y-9.11
X-1.622 Y-8.982
X-1.505 Y-8.853
X-1.39 Y-8.723
X-1.277 Y-8.593
X-1.164 Y-8.463
X-1.051 Y-8.335
X-0.936 Y-8.21
X-0.819 Y-8.089
X-0.698 Y-7.975
X-0.569 Y-7.872
X-0.429 Y-7.789
X-0.273 Y-7.741
X-0.101 Y-7.75
X0.07 Y-7.825
X0.222 Y-7.939
X0.356 Y-8.07
X0.478 Y-8.206
X0.595 Y-8.346
X0.707 Y-8.486
X0.818 Y-8.627
X0.928 Y-8.767
X1.038 Y-8.905
X1.149 Y-9.042
X1.262 Y-9.177
X1.377 Y-9.308
X1.494 Y-9.437
X1.615 Y-9.561
X1.74 Y-9.681
X1.87 Y-9.794
X2.005 Y-9.901
X2.145 Y-9.997
X2.292 Y-10.083
X2.447 Y-10.152
X2.608 Y-10.202
X2.776 Y-10.225
X2.946 Y-10.214
X3.112 Y-10.163
X3.266 Y-10.073
X3.4 Y-9.951
X3.512 Y-9.809
X3.604 Y-9.653
X3.681 Y-9.49
X3.745 Y-9.322
X3.798 Y-9.152
X3.842 Y-8.98
X3.879 Y-8.806
X3.911 Y-8.633
X3.937 Y-8.459
X3.96 Y-8.286
X3.979 Y-8.113
X3.996 Y-7.94
X4.012 Y-7.767
X4.027 Y-7.596
X4.043 Y-7.425
X4.061 Y-7.256
X4.082 Y-7.089
X4.11 Y-6.924
X4.148 Y-6.763
X4.204 Y-6.609
X4.287 Y-6.47
X4.413 Y-6.359
X4.585 Y-6.298
X4.774 Y-6.288
X4.961 Y-6.308
X5.143 Y-6.342
X5.32 Y-6.385
X5.495 Y-6.432
X5.667 Y-6.48
X5.839 Y-6.529
X6.009 Y-6.577
X6.18 Y-6.623
X6.35 Y-6.667
X6.52 Y-6.707
X6.691 Y-6.744
X6.862 Y-6.775
X7.033 Y-6.801
X7.205 Y-6.82
X7.376 Y-6.83
X7.547 Y-6.83
X7.717 Y-6.818
X7.884 Y-6.791
X8.047 Y-6.744
X8.201 Y-6.674
X8.34 Y-6.576
X8.455 Y-6.449
X8.54 Y-6.294
X8.589 Y-6.121
X8.607 Y-5.94
X8.598 Y-5.759
X8.571 Y-5.581
X8.528 Y-5.406
X8.474 Y-5.235
X8.412 Y-5.069
X8.343 Y-4.906
X8.268 Y-4.746
X8.188 Y-4.589
X8.106 Y-4.434
X8.02 Y-4.282
X7.933 Y-4.131
X7.845 Y-3.982
X7.756 Y-3.834
X7.668 Y-3.687
X7.582 Y-3.54
X7.499 Y-3.392
X7.422 Y-3.243
X7.354 Y-3.091
X7.3 Y-2.936
X7.272 Y-2.776
X7.287 Y-2.612
X7.365 Y-2.455
X7.5 Y-2.323
X7.659 Y-2.22
X7.825 Y-2.137
X7.993 Y-2.064
X8.162 Y-1.998
X8.33 Y-1.935
X8.498 Y-1.873
X8.664 Y-1.812
X8.83 Y-1.75
X8.994 Y-1.686
X9.156 Y-1.62
X9.317 Y-1.55
X9.474 Y-1.477
X9.629 Y-1.399
X9.781 Y-1.316
X9.928 Y-1.226
X10.069 Y-1.129
X10.202 Y-1.023
X10.326 Y-0.907
X10.437 Y-0.779
X10.529 Y-0.637
X10.595 Y-0.481
X10.629 Y-0.313
X10.622 Y-0.138
X10.587 Y0.
G0 Z5.
G0 X11.081 Y0.
Z5.
G1 Z5. F202.6
Z0.635 F80.
Z-0.274
X10.987 Y0.155 F202.6
X10.872 Y0.295
X10.744 Y0.423
X10.607 Y0.539
X10.463 Y0.645
X10.314 Y0.744
X10.162 Y0.835
X10.008 Y0.921
X9.851 Y1.002
X9.693 Y1.078
X9.534 Y1.151
X9.374 Y1.222
X9.214 Y1.29
X9.054 Y1.356
X8.894 Y1.421
X8.735 Y1.486
X8.577 Y1.551
X8.421 Y1.619
X8.268 Y1.689
X8.119 Y1.765
X7.977 Y1.85
X7.848 Y1.95
X7.741 Y2.071
X7.676 Y2.225
X7.675 Y2.408
X7.728 Y2.59
X7.81 Y2.76
X7.904 Y2.92
X8.004 Y3.073
X8.107 Y3.221
X8.212 Y3.367
X8.316 Y3.512
X8.42 Y3.656
X8.523 Y3.799
X8.624 Y3.944
X8.723 Y4.089
X8.819 Y4.235
X8.911 Y4.383
X9. Y4.533
X9.083 Y4.685
X9.161 Y4.839
X9.232 Y4.996
X9.294 Y5.156
X9.346 Y5.318
X9.385 Y5.484
X9.408 Y5.651
X9.411 Y5.82
X9.387 Y5.987
X9.331 Y6.148
X9.239 Y6.295
X9.113 Y6.419
X8.96 Y6.516
X8.792 Y6.585
X8.617 Y6.631
X8.438 Y6.658
X8.259 Y6.671
X8.08 Y6.672
X7.902 Y6.664
X7.725 Y6.649
X7.55 Y6.627
X7.376 Y6.6
X7.203 Y6.569
X7.031 Y6.534
X6.861 Y6.497
X6.692 Y6.458
X6.523 Y6.417
X6.355 Y6.376
X6.189 Y6.335
X6.022 Y6.295
X5.856 Y6.258
X5.691 Y6.225
X5.526 Y6.2
X5.361 Y6.186
X5.199 Y6.191
X5.041 Y6.228
X4.898 Y6.316
X4.791 Y6.464
X4.728 Y6.644
X4.695 Y6.829
X4.677 Y7.013
X4.669 Y7.196
X4.665 Y7.376
X4.664 Y7.556
X4.664 Y7.734
X4.664 Y7.912
X4.662 Y8.089
X4.659 Y8.265
X4.654 Y8.44
X4.645 Y8.615
X4.633 Y8.789
X4.616 Y8.962
X4.594 Y9.134
X4.566 Y9.304
X4.531 Y9.473
X4.487 Y9.639
X4.433 Y9.801
X4.368 Y9.957
X4.287 Y10.106
X4.19 Y10.244
X4.072 Y10.365
X3.931 Y10.461
X3.77 Y10.525
X3.594 Y10.55
X3.414 Y10.537
X3.238 Y10.494
X3.069 Y10.427
X2.909 Y10.344
X2.757 Y10.248
X2.611 Y10.144
X2.472 Y10.033
X2.338 Y9.916
X2.209 Y9.796
X2.084 Y9.671
X1.963 Y9.545
X1.844 Y9.416
X1.728 Y9.285
X1.614 Y9.154
X1.502 Y9.022
X1.391 Y8.89
X1.28 Y8.759
X1.169 Y8.629
X1.056 Y8.502
X0.942 Y8.378
X0.823 Y8.261
X0.698 Y8.153
X0.563 Y8.062
X0.413 Y8.
X0.246 Y7.989
X0.072 Y8.048
X-0.084 Y8.157
X-0.219 Y8.288
X-0.341 Y8.427
X-0.455 Y8.57
X-0.565 Y8.714
X-0.671 Y8.858
X-0.776 Y9.003
X-0.881 Y9.146
X-0.986 Y9.288
X-1.092 Y9.429
X-1.199 Y9.568
X-1.309 Y9.704
X-1.421 Y9.837
X-1.537 Y9.967
X-1.656 Y10.093
X-1.779 Y10.215
X-1.906 Y10.33
X-2.039 Y10.438
X-2.178 Y10.537
X-2.324 Y10.625
X-2.476 Y10.698
X-2.636 Y10.751
X-2.803 Y10.779
X-2.974 Y10.773
X-3.141 Y10.729
X-3.298 Y10.645
X-3.435 Y10.528
X-3.552 Y10.388
X-3.648 Y10.235
X-3.729 Y10.073
X-3.796 Y9.907
X-3.851 Y9.737
X-3.898 Y9.565
X-3.938 Y9.392
X-3.971 Y9.218
X-3.999 Y9.044
X-4.023 Y8.87
X-4.043 Y8.697
X-4.06 Y8.523
X-4.075 Y8.35
X-4.088 Y8.177
X-4.101 Y8.005
X-4.113 Y7.834
X-4.127 Y7.663
X-4.143 Y7.494
X-4.163 Y7.327
X-4.191 Y7.162
X-4.229 Y7.002
X-4.285 Y6.849
X-4.371 Y6.711
X-4.502 Y6.606
X-4.678 Y6.553
X-4.868 Y6.551
X-5.054 Y6.577
X-5.235 Y6.618
X-5.411 Y6.667
X-5.584 Y6.719
X-5.755 Y6.774
X-5.924 Y6.829
X-6.093 Y6.883
X-6.262 Y6.937
X-6.43 Y6.988
X-6.599 Y7.037
X-6.768 Y7.082
X-6.937 Y7.124
X-7.107 Y7.161
X-7.277 Y7.193
X-7.448 Y7.219
X-7.619 Y7.237
X-7.79 Y7.246
X-7.961 Y7.245
X-8.13 Y7.23
X-8.296 Y7.198
X-8.457 Y7.147
X-8.608 Y7.07
X-8.742 Y6.965
X-8.85 Y6.829
X-8.926 Y6.668
X-8.968 Y6.493
X-8.979 Y6.312
X-8.967 Y6.131
X-8.936 Y5.953
X-8.892 Y5.779
X-8.837 Y5.608
X-8.774 Y5.442
X-8.704 Y5.279
X-8.629 Y5.119
X-8.549 Y4.962
X-8.466 Y4.807
X-8.38 Y4.655
X-8.292 Y4.505
X-8.202 Y4.356
X-8.111 Y4.208
X-8.02 Y4.061
X-7.93 Y3.915
X-7.841 Y3.77
X-7.754 Y3.623
X-7.673 Y3.476
X-7.598 Y3.327
X-7.535 Y3.174
X-7.492 Y3.017
X-7.482 Y2.856
X-7.527 Y2.693
X-7.64 Y2.548
X-7.793 Y2.435
X-7.96 Y2.348
X-8.13 Y2.276
X-8.301 Y2.212
X-8.472 Y2.152
X-8.642 Y2.096
X-8.812 Y2.041
X-8.98 Y1.986
X-9.148 Y1.93
X-9.314 Y1.872
X-9.479 Y1.812
X-9.643 Y1.75
X-9.804 Y1.684
X-9.963 Y1.614
X-10.12 Y1.54
X-10.273 Y1.46
X-10.422 Y1.374
X-10.566 Y1.281
X-10.702 Y1.179
X-10.83 Y1.067
X-10.946 Y0.943
X-11.045 Y0.807
X-11.121 Y0.656
X-11.167 Y0.491
X-11.174 Y0.318
X-11.14 Y0.143
X-11.069 Y-0.023
X-10.971 Y-0.176
X-10.854 Y-0.314
X-10.725 Y-0.44
X-10.586 Y-0.555
X-10.442 Y-0.66
X-10.293 Y-0.757
X-10.14 Y-0.848
X-9.985 Y-0.933
X-9.829 Y-1.013
X-9.67 Y-1.089
X-9.511 Y-1.162
X-9.351 Y-1.232
X-9.191 Y-1.299
X-9.031 Y-1.365
X-8.871 Y-1.43
X-8.712 Y-1.495
X-8.554 Y-1.561
X-8.399 Y-1.629
X-8.246 Y-1.7
X-8.098 Y-1.777
X-7.958 Y-1.864
X-7.831 Y-1.966
X-7.729 Y-2.091
X-7.672 Y-2.25
X-7.68 Y-2.435
X-7.739 Y-2.616
X-7.822 Y-2.784
X-7.918 Y-2.942
X-8.018 Y-3.094
X-8.122 Y-3.242
X-8.227 Y-3.388
X-8.331 Y-3.532
X-8.435 Y-3.676
X-8.538 Y-3.82
X-8.639 Y-3.964
X-8.737 Y-4.11
X-8.832 Y-4.256
X-8.924 Y-4.405
X-9.012 Y-4.555
X-9.095 Y-4.707
X-9.171 Y-4.861
X-9.241 Y-5.019
X-9.302 Y-5.179
X-9.353 Y-5.342
X-9.39 Y-5.508
X-9.41 Y-5.675
X-9.409 Y-5.844
X-9.381 Y-6.011
X-9.321 Y-6.171
X-9.223 Y-6.315
X-9.092 Y-6.435
X-8.937 Y-6.527
X-8.768 Y-6.593
X-8.591 Y-6.635
X-8.413 Y-6.661
X-8.233 Y-6.672
X-8.055 Y-6.671
X-7.877 Y-6.662
X-7.7 Y-6.646
X-7.525 Y-6.623
X-7.351 Y-6.596
X-7.178 Y-6.564
X-7.007 Y-6.529
X-6.837 Y-6.492
X-6.667 Y-6.452
X-6.499 Y-6.411
X-6.331 Y-6.37
X-6.165 Y-6.329
X-5.998 Y-6.29
X-5.833 Y-6.253
X-5.667 Y-6.221
X-5.502 Y-6.197
X-5.338 Y-6.185
X-5.176 Y-6.194
X-5.019 Y-6.237
X-4.88 Y-6.334
X-4.78 Y-6.489
X-4.722 Y-6.67
X-4.692 Y-6.855
X-4.676 Y-7.039
X-4.668 Y-7.222
X-4.665 Y-7.402
X-4.664 Y-7.582
X-4.664 Y-7.76
X-4.663 Y-7.937
X-4.662 Y-8.114
X-4.658 Y-8.29
X-4.653 Y-8.465
X-4.643 Y-8.64
X-4.631 Y-8.814
X-4.613 Y-8.987
X-4.59 Y-9.159
X-4.561 Y-9.329
X-4.525 Y-9.497
X-4.48 Y-9.662
X-4.425 Y-9.823
X-4.357 Y-9.979
X-4.274 Y-10.127
X-4.174 Y-10.262
X-4.053 Y-10.38
X-3.909 Y-10.473
X-3.745 Y-10.531
X-3.568 Y-10.55
X-3.388 Y-10.533
X-3.213 Y-10.485
X-3.046 Y-10.416
X-2.887 Y-10.331
X-2.735 Y-10.234
X-2.591 Y-10.129
X-2.453 Y-10.016
X-2.32 Y-9.899
X-2.191 Y-9.778
X-2.067 Y-9.653
X-1.946 Y-9.526
X-1.828 Y-9.397
X-1.712 Y-9.267
X-1.598 Y-9.135
X-1.486 Y-9.003
X-1.375 Y-8.871
X-1.264 Y-8.74
X-1.153 Y-8.611
X-1.04 Y-8.484
X-0.925 Y-8.361
X-0.805 Y-8.244
X-0.679 Y-8.139
X-0.542 Y-8.051
X-0.39 Y-7.995
X-0.221 Y-7.993
X-0.048 Y-8.062
X0.104 Y-8.175
X0.238 Y-8.308
X0.358 Y-8.447
X0.471 Y-8.59
X0.58 Y-8.735
X0.686 Y-8.879
X0.791 Y-9.023
X0.896 Y-9.167
X1.001 Y-9.309
X1.107 Y-9.449
X1.215 Y-9.587
X1.325 Y-9.723
X1.438 Y-9.856
X1.554 Y-9.986
X1.673 Y-10.111
X1.797 Y-10.232
X1.925 Y-10.346
X2.059 Y-10.453
X2.198 Y-10.551
X2.345 Y-10.637
X2.499 Y-10.707
X2.66 Y-10.757
X2.828 Y-10.78
X2.998 Y-10.769
X3.165 Y-10.719
X3.319 Y-10.63
X3.453 Y-10.509
X3.567 Y-10.367
X3.661 Y-10.212
X3.739 Y-10.05
X3.804 Y-9.882
X3.859 Y-9.712
X3.905 Y-9.54
X3.943 Y-9.367
X3.975 Y-9.193
X4.003 Y-9.02
X4.026 Y-8.846
X4.045 Y-8.672
X4.062 Y-8.498
X4.077 Y-8.325
X4.09 Y-8.152
X4.103 Y-7.98
X4.115 Y-7.809
X4.129 Y-7.639
X4.146 Y-7.47
X4.167 Y-7.303
X4.195 Y-7.139
X4.236 Y-6.979
X4.295 Y-6.828
X4.387 Y-6.694
X4.525 Y-6.594
X4.705 Y-6.55
X4.895 Y-6.553
X5.081 Y-6.583
X5.26 Y-6.625
X5.436 Y-6.674
X5.608 Y-6.727
X5.779 Y-6.782
X5.949 Y-6.837
X6.117 Y-6.891
X6.286 Y-6.944
X6.454 Y-6.995
X6.623 Y-7.043
X6.792 Y-7.089
X6.961 Y-7.13
X7.131 Y-7.166
X7.302 Y-7.197
X7.472 Y-7.222
X7.643 Y-7.239
X7.815 Y-7.247
X7.985 Y-7.243
X8.154 Y-7.226
X8.32 Y-7.192
X8.479 Y-7.137
X8.628 Y-7.057
X8.759 Y-6.947
X8.863 Y-6.807
X8.934 Y-6.644
X8.971 Y-6.467
X8.979 Y-6.286
X8.964 Y-6.105
X8.931 Y-5.928
X8.885 Y-5.754
X8.829 Y-5.584
X8.764 Y-5.418
X8.694 Y-5.256
X8.618 Y-5.096
X8.538 Y-4.94
X8.454 Y-4.785
X8.367 Y-4.633
X8.279 Y-4.483
X8.189 Y-4.334
X8.098 Y-4.187
X8.007 Y-4.041
X7.917 Y-3.895
X7.828 Y-3.749
X7.742 Y-3.602
X7.661 Y-3.455
X7.588 Y-3.305
X7.527 Y-3.152
X7.488 Y-2.995
X7.484 Y-2.832
X7.539 Y-2.671
X7.66 Y-2.53
X7.817 Y-2.422
X7.984 Y-2.337
X8.154 Y-2.266
X8.325 Y-2.203
X8.496 Y-2.144
X8.666 Y-2.088
X8.836 Y-2.033
X9.004 Y-1.978
X9.172 Y-1.921
X9.338 Y-1.864
X9.503 Y-1.804
X9.666 Y-1.741
X9.827 Y-1.674
X9.986 Y-1.604
X10.142 Y-1.529
X10.295 Y-1.448
X10.443 Y-1.361
X10.586 Y-1.267
X10.721 Y-1.163
X10.848 Y-1.05
X10.961 Y-0.925
X11.057 Y-0.786
X11.13 Y-0.633
X11.17 Y-0.467
X11.171 Y-0.292
X11.132 Y-0.119
X11.081 Y0.
G0 Z5.
G0 X11.557 Y0.
Z5.
G1 Z5. F202.6
Z0.635 F80.
Z-0.274
X11.446 Y0.144 F202.6
X11.321 Y0.274
X11.186 Y0.393
X11.044 Y0.503
X10.897 Y0.604
X10.746 Y0.698
X10.592 Y0.786
X10.436 Y0.868
X10.278 Y0.947
X10.119 Y1.021
X9.959 Y1.092
X9.799 Y1.161
X9.638 Y1.227
X9.476 Y1.291
X9.315 Y1.355
X9.155 Y1.417
X8.995 Y1.48
X8.837 Y1.544
X8.68 Y1.609
X8.526 Y1.678
X8.377 Y1.753
X8.235 Y1.837
X8.106 Y1.935
X7.998 Y2.056
X7.934 Y2.209
X7.935 Y2.392
X7.993 Y2.574
X8.079 Y2.742
X8.177 Y2.899
X8.282 Y3.049
X8.39 Y3.195
X8.499 Y3.338
X8.609 Y3.479
X8.718 Y3.619
X8.827 Y3.759
X8.934 Y3.899
X9.039 Y4.04
X9.142 Y4.182
X9.243 Y4.325
X9.34 Y4.47
X9.434 Y4.617
X9.523 Y4.765
X9.608 Y4.916
X9.686 Y5.07
X9.757 Y5.226
X9.82 Y5.386
X9.872 Y5.548
X9.911 Y5.713
X9.933 Y5.881
X9.934 Y6.05
X9.908 Y6.217
X9.85 Y6.377
X9.755 Y6.523
X9.627 Y6.645
X9.473 Y6.74
X9.305 Y6.809
X9.129 Y6.854
X8.951 Y6.882
X8.771 Y6.896
X8.592 Y6.898
X8.414 Y6.891
X8.237 Y6.876
X8.061 Y6.855
X7.887 Y6.829
X7.714 Y6.799
X7.541 Y6.765
X7.37 Y6.728
X7.201 Y6.688
X7.032 Y6.646
X6.864 Y6.603
X6.696 Y6.56
X6.53 Y6.516
X6.364 Y6.473
X6.198 Y6.432
X6.033 Y6.394
X5.868 Y6.362
X5.704 Y6.337
X5.54 Y6.326
X5.378 Y6.335
X5.223 Y6.381
X5.087 Y6.484
X4.993 Y6.645
X4.943 Y6.829
X4.92 Y7.016
X4.91 Y7.2
X4.908 Y7.383
X4.911 Y7.563
X4.916 Y7.743
X4.922 Y7.921
X4.928 Y8.099
X4.933 Y8.276
X4.937 Y8.452
X4.938 Y8.628
X4.938 Y8.803
X4.934 Y8.978
X4.927 Y9.152
X4.915 Y9.326
X4.899 Y9.498
X4.876 Y9.67
X4.848 Y9.839
X4.811 Y10.007
X4.766 Y10.172
X4.709 Y10.333
X4.64 Y10.487
X4.555 Y10.633
X4.452 Y10.767
X4.327 Y10.881
X4.18 Y10.969
X4.013 Y11.021
X3.835 Y11.034
X3.655 Y11.012
X3.481 Y10.962
X3.314 Y10.891
X3.155 Y10.805
X3.004 Y10.708
X2.86 Y10.603
X2.721 Y10.491
X2.588 Y10.374
X2.459 Y10.252
X2.334 Y10.128
X2.213 Y10.001
X2.094 Y9.871
X1.978 Y9.74
X1.865 Y9.608
X1.753 Y9.475
X1.642 Y9.342
X1.533 Y9.208
X1.424 Y9.075
X1.315 Y8.943
X1.205 Y8.813
X1.093 Y8.686
X0.977 Y8.565
X0.857 Y8.45
X0.729 Y8.348
X0.589 Y8.268
X0.431 Y8.227
X0.258 Y8.249
X0.092 Y8.34
X-0.05 Y8.466
X-0.175 Y8.605
X-0.289 Y8.749
X-0.397 Y8.896
X-0.5 Y9.044
X-0.601 Y9.192
X-0.701 Y9.34
X-0.8 Y9.487
X-0.9 Y9.633
X-1.001 Y9.777
X-1.103 Y9.92
X-1.207 Y10.061
X-1.314 Y10.2
X-1.423 Y10.335
X-1.535 Y10.468
X-1.651 Y10.597
X-1.77 Y10.721
X-1.895 Y10.84
X-2.024 Y10.953
X-2.159 Y11.057
X-2.301 Y11.151
X-2.45 Y11.232
X-2.607 Y11.295
X-2.771 Y11.335
X-2.94 Y11.346
X-3.11 Y11.32
X-3.273 Y11.254
X-3.42 Y11.151
X-3.547 Y11.021
X-3.654 Y10.874
X-3.742 Y10.717
X-3.817 Y10.553
X-3.879 Y10.384
X-3.931 Y10.213
X-3.976 Y10.041
X-4.013 Y9.868
X-4.045 Y9.694
X-4.071 Y9.52
X-4.094 Y9.345
X-4.113 Y9.171
X-4.129 Y8.997
X-4.142 Y8.824
X-4.154 Y8.65
X-4.165 Y8.478
X-4.175 Y8.305
X-4.185 Y8.134
X-4.196 Y7.963
X-4.21 Y7.794
X-4.227 Y7.626
X-4.25 Y7.46
X-4.283 Y7.298
X-4.332 Y7.143
X-4.406 Y6.999
X-4.522 Y6.882
X-4.687 Y6.814
X-4.878 Y6.803
X-5.065 Y6.828
X-5.247 Y6.871
X-5.423 Y6.923
X-5.595 Y6.979
X-5.765 Y7.039
X-5.933 Y7.1
X-6.1 Y7.16
X-6.267 Y7.22
X-6.434 Y7.279
X-6.6 Y7.336
X-6.767 Y7.391
X-6.934 Y7.443
X-7.102 Y7.492
X-7.27 Y7.537
X-7.439 Y7.577
X-7.609 Y7.611
X-7.779 Y7.64
X-7.949 Y7.661
X-8.12 Y7.673
X-8.291 Y7.675
X-8.46 Y7.664
X-8.627 Y7.638
X-8.79 Y7.591
X-8.943 Y7.521
X-9.082 Y7.422
X-9.197 Y7.293
X-9.281 Y7.138
X-9.331 Y6.964
X-9.35 Y6.784
X-9.344 Y6.603
X-9.319 Y6.424
X-9.279 Y6.248
X-9.228 Y6.076
X-9.167 Y5.908
X-9.1 Y5.744
X-9.027 Y5.582
X-8.949 Y5.424
X-8.868 Y5.268
X-8.782 Y5.114
X-8.695 Y4.963
X-8.605 Y4.813
X-8.514 Y4.665
X-8.421 Y4.518
X-8.328 Y4.372
X-8.235 Y4.227
X-8.142 Y4.083
X-8.052 Y3.938
X-7.964 Y3.793
X-7.881 Y3.646
X-7.804 Y3.498
X-7.739 Y3.347
X-7.693 Y3.191
X-7.68 Y3.03
X-7.721 Y2.868
X-7.832 Y2.722
X-7.988 Y2.611
X-8.156 Y2.526
X-8.328 Y2.458
X-8.501 Y2.398
X-8.674 Y2.344
X-8.846 Y2.293
X-9.018 Y2.243
X-9.189 Y2.194
X-9.359 Y2.145
X-9.528 Y2.094
X-9.696 Y2.042
X-9.863 Y1.988
X-10.028 Y1.931
X-10.192 Y1.87
X-10.354 Y1.807
X-10.513 Y1.739
X-10.67 Y1.666
X-10.824 Y1.587
X-10.973 Y1.502
X-11.117 Y1.41
X-11.254 Y1.309
X-11.382 Y1.197
X-11.498 Y1.074
X-11.597 Y0.938
X-11.673 Y0.787
X-11.719 Y0.622
X-11.725 Y0.448
X-11.691 Y0.274
X-11.621 Y0.107
X-11.524 Y-0.046
X-11.408 Y-0.186
X-11.28 Y-0.313
X-11.142 Y-0.429
X-10.999 Y-0.535
X-10.85 Y-0.634
X-10.698 Y-0.726
X-10.544 Y-0.812
X-10.387 Y-0.893
X-10.229 Y-0.97
X-10.069 Y-1.044
X-9.909 Y-1.114
X-9.748 Y-1.182
X-9.587 Y-1.247
X-9.426 Y-1.311
X-9.265 Y-1.374
X-9.105 Y-1.437
X-8.945 Y-1.5
X-8.787 Y-1.564
X-8.632 Y-1.63
X-8.479 Y-1.701
X-8.332 Y-1.778
X-8.193 Y-1.866
X-8.069 Y-1.97
X-7.972 Y-2.1
X-7.926 Y-2.265
X-7.948 Y-2.45
X-8.018 Y-2.628
X-8.109 Y-2.792
X-8.21 Y-2.947
X-8.315 Y-3.095
X-8.424 Y-3.24
X-8.533 Y-3.382
X-8.643 Y-3.523
X-8.752 Y-3.663
X-8.86 Y-3.803
X-8.967 Y-3.943
X-9.072 Y-4.084
X-9.174 Y-4.227
X-9.274 Y-4.37
X-9.37 Y-4.516
X-9.462 Y-4.663
X-9.55 Y-4.812
X-9.633 Y-4.964
X-9.709 Y-5.119
X-9.778 Y-5.276
X-9.837 Y-5.436
X-9.885 Y-5.599
X-9.92 Y-5.765
X-9.936 Y-5.934
X-9.929 Y-6.102
X-9.894 Y-6.268
X-9.824 Y-6.425
X-9.718 Y-6.564
X-9.581 Y-6.678
X-9.422 Y-6.764
X-9.25 Y-6.825
X-9.074 Y-6.865
X-8.895 Y-6.888
X-8.715 Y-6.897
X-8.537 Y-6.897
X-8.359 Y-6.887
X-8.182 Y-6.87
X-8.007 Y-6.848
X-7.833 Y-6.82
X-7.66 Y-6.789
X-7.488 Y-6.753
X-7.317 Y-6.715
X-7.148 Y-6.675
X-6.979 Y-6.633
X-6.811 Y-6.59
X-6.644 Y-6.546
X-6.478 Y-6.503
X-6.312 Y-6.46
X-6.147 Y-6.42
X-5.981 Y-6.384
X-5.817 Y-6.353
X-5.652 Y-6.332
X-5.489 Y-6.326
X-5.328 Y-6.345
X-5.177 Y-6.406
X-5.053 Y-6.529
X-4.974 Y-6.702
X-4.934 Y-6.888
X-4.915 Y-7.074
X-4.909 Y-7.258
X-4.908 Y-7.439
X-4.912 Y-7.62
X-4.917 Y-7.799
X-4.923 Y-7.977
X-4.929 Y-8.154
X-4.934 Y-8.331
X-4.937 Y-8.507
X-4.938 Y-8.683
X-4.937 Y-8.858
X-4.932 Y-9.032
X-4.923 Y-9.206
X-4.91 Y-9.38
X-4.892 Y-9.552
X-4.868 Y-9.723
X-4.837 Y-9.892
X-4.798 Y-10.059
X-4.749 Y-10.223
X-4.689 Y-10.382
X-4.615 Y-10.534
X-4.525 Y-10.677
X-4.415 Y-10.805
X-4.283 Y-10.912
X-4.129 Y-10.989
X-3.958 Y-11.029
X-3.778 Y-11.031
X-3.6 Y-10.999
X-3.428 Y-10.942
X-3.263 Y-10.866
X-3.107 Y-10.776
X-2.958 Y-10.676
X-2.816 Y-10.568
X-2.679 Y-10.455
X-2.547 Y-10.336
X-2.419 Y-10.214
X-2.296 Y-10.088
X-2.175 Y-9.96
X-2.058 Y-9.831
X-1.943 Y-9.699
X-1.83 Y-9.567
X-1.718 Y-9.433
X-1.608 Y-9.3
X-1.499 Y-9.166
X-1.39 Y-9.034
X-1.28 Y-8.902
X-1.17 Y-8.773
X-1.057 Y-8.648
X-0.941 Y-8.528
X-0.818 Y-8.417
X-0.687 Y-8.32
X-0.541 Y-8.25
X-0.378 Y-8.226
X-0.204 Y-8.271
X-0.045 Y-8.377
X0.091 Y-8.508
X0.212 Y-8.65
X0.323 Y-8.795
X0.429 Y-8.942
X0.532 Y-9.09
X0.632 Y-9.238
X0.732 Y-9.386
X0.831 Y-9.533
X0.931 Y-9.678
X1.033 Y-9.822
X1.135 Y-9.964
X1.24 Y-10.105
X1.347 Y-10.242
X1.457 Y-10.377
X1.571 Y-10.509
X1.688 Y-10.636
X1.809 Y-10.759
X1.935 Y-10.876
X2.066 Y-10.986
X2.203 Y-11.088
X2.347 Y-11.178
X2.498 Y-11.253
X2.657 Y-11.31
X2.823 Y-11.342
X2.993 Y-11.342
X3.162 Y-11.303
X3.321 Y-11.225
X3.462 Y-11.113
X3.582 Y-10.977
X3.683 Y-10.826
X3.767 Y-10.666
X3.837 Y-10.5
X3.896 Y-10.331
X3.946 Y-10.16
X3.988 Y-9.987
X4.024 Y-9.814
X4.053 Y-9.64
X4.079 Y-9.465
X4.1 Y-9.291
X4.118 Y-9.117
X4.133 Y-8.943
X4.146 Y-8.769
X4.158 Y-8.596
X4.168 Y-8.424
X4.178 Y-8.252
X4.188 Y-8.08
X4.2 Y-7.91
X4.214 Y-7.741
X4.233 Y-7.574
X4.259 Y-7.409
X4.297 Y-7.249
X4.352 Y-7.096
X4.437 Y-6.959
X4.568 Y-6.854
X4.746 Y-6.805
X4.937 Y-6.808
X5.123 Y-6.84
X5.302 Y-6.886
X5.477 Y-6.94
X5.648 Y-6.998
X5.818 Y-7.058
X5.986 Y-7.119
X6.153 Y-7.179
X6.319 Y-7.239
X6.486 Y-7.297
X6.652 Y-7.354
X6.819 Y-7.408
X6.987 Y-7.459
X7.154 Y-7.506
X7.323 Y-7.55
X7.492 Y-7.588
X7.662 Y-7.621
X7.832 Y-7.647
X8.003 Y-7.666
X8.174 Y-7.675
X8.344 Y-7.673
X8.513 Y-7.658
X8.679 Y-7.625
X8.839 Y-7.572
X8.989 Y-7.493
X9.121 Y-7.385
X9.227 Y-7.247
X9.301 Y-7.085
X9.34 Y-6.908
X9.351 Y-6.727
X9.338 Y-6.546
X9.308 Y-6.368
X9.264 Y-6.194
X9.21 Y-6.023
X9.147 Y-5.856
X9.078 Y-5.693
X9.003 Y-5.532
X8.924 Y-5.375
X8.841 Y-5.22
X8.755 Y-5.067
X8.667 Y-4.916
X8.577 Y-4.767
X8.485 Y-4.619
X8.392 Y-4.472
X8.299 Y-4.327
X8.206 Y-4.182
X8.114 Y-4.037
X8.024 Y-3.893
X7.937 Y-3.747
X7.856 Y-3.6
X7.783 Y-3.451
X7.723 Y-3.298
X7.685 Y-3.141
X7.685 Y-2.979
X7.748 Y-2.819
X7.878 Y-2.684
X8.04 Y-2.582
X8.21 Y-2.504
X8.382 Y-2.438
X8.555 Y-2.381
X8.728 Y-2.328
X8.9 Y-2.277
X9.072 Y-2.228
X9.242 Y-2.179
X9.412 Y-2.129
X9.581 Y-2.078
X9.748 Y-2.025
X9.915 Y-1.97
X10.08 Y-1.912
X10.243 Y-1.851
X10.404 Y-1.786
X10.563 Y-1.717
X10.719 Y-1.642
X10.871 Y-1.562
X11.019 Y-1.474
X11.161 Y-1.379
X11.295 Y-1.275
X11.42 Y-1.16
X11.531 Y-1.033
X11.624 Y-0.892
X11.691 Y-0.737
X11.725 Y-0.568
X11.719 Y-0.393
X11.673 Y-0.22
X11.594 Y-0.058
X11.557 Y0.
G0 Z5.
G0 X12.01 Y0.
Z5.
G1 Z5. F202.6
Z0.635 F80.
Z-0.274
X11.886 Y0.132 F202.6
X11.752 Y0.253
X11.611 Y0.363
X11.465 Y0.466
X11.314 Y0.562
X11.161 Y0.651
X11.006 Y0.735
X10.848 Y0.815
X10.689 Y0.89
X10.529 Y0.963
X10.369 Y1.032
X10.207 Y1.099
X10.045 Y1.163
X9.883 Y1.226
X9.721 Y1.288
X9.56 Y1.348
X9.399 Y1.409
X9.238 Y1.47
X9.08 Y1.532
X8.923 Y1.596
X8.769 Y1.664
X8.62 Y1.739
X8.478 Y1.822
X8.349 Y1.92
X8.243 Y2.041
X8.182 Y2.196
X8.189 Y2.38
X8.254 Y2.56
X8.346 Y2.726
X8.449 Y2.88
X8.558 Y3.027
X8.671 Y3.169
X8.784 Y3.308
X8.899 Y3.446
X9.013 Y3.583
X9.126 Y3.719
X9.239 Y3.855
X9.35 Y3.992
X9.459 Y4.13
X9.566 Y4.269
X9.671 Y4.409
X9.773 Y4.55
X9.872 Y4.694
X9.967 Y4.839
X10.057 Y4.987
X10.142 Y5.137
X10.221 Y5.29
X10.293 Y5.446
X10.356 Y5.605
X10.408 Y5.767
X10.447 Y5.932
X10.469 Y6.099
X10.47 Y6.268
X10.443 Y6.435
X10.383 Y6.595
X10.287 Y6.74
X10.157 Y6.862
X10.003 Y6.957
X9.835 Y7.025
X9.66 Y7.072
X9.481 Y7.101
X9.302 Y7.115
X9.123 Y7.119
X8.945 Y7.113
X8.767 Y7.1
X8.591 Y7.08
X8.416 Y7.055
X8.242 Y7.026
X8.07 Y6.992
X7.898 Y6.956
X7.728 Y6.917
X7.558 Y6.875
X7.39 Y6.832
X7.222 Y6.787
X7.055 Y6.741
X6.889 Y6.695
X6.723 Y6.65
X6.558 Y6.605
X6.393 Y6.563
X6.228 Y6.524
X6.064 Y6.491
X5.899 Y6.466
X5.736 Y6.456
X5.575 Y6.467
X5.421 Y6.518
X5.29 Y6.628
X5.205 Y6.796
X5.163 Y6.983
X5.146 Y7.17
X5.143 Y7.355
X5.147 Y7.537
X5.155 Y7.718
X5.166 Y7.897
X5.177 Y8.075
X5.189 Y8.252
X5.201 Y8.429
X5.211 Y8.606
X5.22 Y8.781
X5.227 Y8.957
X5.231 Y9.132
X5.233 Y9.307
X5.231 Y9.481
X5.225 Y9.655
X5.215 Y9.828
X5.2 Y10.
X5.178 Y10.172
X5.15 Y10.341
X5.114 Y10.509
X5.068 Y10.673
X5.012 Y10.834
X4.942 Y10.988
X4.856 Y11.133
X4.75 Y11.265
X4.623 Y11.377
X4.474 Y11.462
X4.305 Y11.511
X4.127 Y11.521
X3.947 Y11.497
X3.773 Y11.446
X3.606 Y11.375
X3.447 Y11.289
X3.296 Y11.192
X3.151 Y11.087
X3.012 Y10.976
X2.878 Y10.86
X2.748 Y10.739
X2.622 Y10.615
X2.5 Y10.488
X2.381 Y10.359
X2.264 Y10.228
X2.15 Y10.096
X2.038 Y9.962
X1.928 Y9.828
X1.819 Y9.693
X1.711 Y9.558
X1.604 Y9.423
X1.496 Y9.289
X1.388 Y9.156
X1.279 Y9.026
X1.168 Y8.899
X1.053 Y8.777
X0.933 Y8.664
X0.804 Y8.564
X0.662 Y8.488
X0.502 Y8.455
X0.329 Y8.492
X0.168 Y8.595
X0.032 Y8.728
X-0.087 Y8.872
X-0.196 Y9.02
X-0.298 Y9.171
X-0.397 Y9.322
X-0.493 Y9.473
X-0.588 Y9.624
X-0.682 Y9.774
X-0.777 Y9.924
X-0.873 Y10.072
X-0.969 Y10.219
X-1.067 Y10.365
X-1.167 Y10.508
X-1.27 Y10.65
X-1.375 Y10.789
X-1.482 Y10.925
X-1.594 Y11.058
X-1.709 Y11.187
X-1.828 Y11.312
X-1.952 Y11.43
X-2.081 Y11.542
X-2.217 Y11.646
X-2.359 Y11.739
X-2.509 Y11.817
X-2.667 Y11.878
X-2.831 Y11.914
X-3.001 Y11.92
X-3.171 Y11.888
X-3.333 Y11.816
X-3.477 Y11.709
X-3.602 Y11.577
X-3.707 Y11.429
X-3.795 Y11.271
X-3.869 Y11.106
X-3.931 Y10.938
X-3.984 Y10.767
X-4.028 Y10.595
X-4.066 Y10.422
X-4.099 Y10.248
X-4.126 Y10.074
X-4.149 Y9.899
X-4.168 Y9.725
X-4.185 Y9.55
X-4.198 Y9.376
X-4.21 Y9.202
X-4.22 Y9.029
X-4.228 Y8.856
X-4.236 Y8.683
X-4.244 Y8.511
X-4.252 Y8.34
X-4.262 Y8.17
X-4.275 Y8.001
X-4.292 Y7.833
X-4.316 Y7.668
X-4.351 Y7.507
X-4.403 Y7.353
X-4.484 Y7.214
X-4.61 Y7.106
X-4.785 Y7.054
X-4.977 Y7.058
X-5.163 Y7.093
X-5.342 Y7.143
X-5.515 Y7.201
X-5.686 Y7.264
X-5.853 Y7.329
X-6.02 Y7.395
X-6.185 Y7.461
X-6.35 Y7.527
X-6.514 Y7.592
X-6.679 Y7.656
X-6.843 Y7.717
X-7.008 Y7.776
X-7.174 Y7.833
X-7.34 Y7.886
X-7.507 Y7.936
X-7.674 Y7.981
X-7.843 Y8.022
X-8.012 Y8.057
X-8.182 Y8.085
X-8.352 Y8.106
X-8.523 Y8.117
X-8.693 Y8.117
X-8.862 Y8.104
X-9.028 Y8.074
X-9.189 Y8.023
X-9.34 Y7.948
X-9.475 Y7.843
X-9.585 Y7.708
X-9.662 Y7.547
X-9.706 Y7.372
X-9.721 Y7.191
X-9.712 Y7.01
X-9.685 Y6.831
X-9.644 Y6.656
X-9.592 Y6.484
X-9.532 Y6.316
X-9.465 Y6.152
X-9.392 Y5.99
X-9.314 Y5.831
X-9.233 Y5.675
X-9.148 Y5.521
X-9.06 Y5.369
X-8.97 Y5.219
X-8.878 Y5.071
X-8.785 Y4.924
X-8.691 Y4.778
X-8.596 Y4.633
X-8.501 Y4.489
X-8.406 Y4.346
X-8.313 Y4.202
X-8.221 Y4.058
X-8.133 Y3.914
X-8.051 Y3.768
X-7.976 Y3.619
X-7.915 Y3.467
X-7.875 Y3.311
X-7.873 Y3.149
X-7.934 Y2.99
X-8.065 Y2.855
X-8.229 Y2.756
X-8.401 Y2.682
X-8.576 Y2.621
X-8.75 Y2.568
X-8.925 Y2.52
X-9.099 Y2.475
X-9.272 Y2.431
X-9.444 Y2.387
X-9.616 Y2.344
X-9.787 Y2.299
X-9.957 Y2.253
X-10.126 Y2.206
X-10.294 Y2.156
X-10.461 Y2.103
X-10.626 Y2.048
X-10.79 Y1.989
X-10.951 Y1.926
X-11.111 Y1.858
X-11.267 Y1.785
X-11.42 Y1.706
X-11.568 Y1.62
X-11.711 Y1.527
X-11.846 Y1.424
X-11.972 Y1.31
X-12.084 Y1.184
X-12.178 Y1.044
X-12.247 Y0.889
X-12.283 Y0.721
X-12.279 Y0.546
X-12.235 Y0.372
X-12.158 Y0.208
X-12.057 Y0.058
X-11.938 Y-0.079
X-11.808 Y-0.204
X-11.669 Y-0.319
X-11.525 Y-0.425
X-11.376 Y-0.523
X-11.224 Y-0.615
X-11.07 Y-0.701
X-10.913 Y-0.783
X-10.755 Y-0.86
X-10.595 Y-0.933
X-10.435 Y-1.004
X-10.273 Y-1.072
X-10.112 Y-1.137
X-9.95 Y-1.2
X-9.788 Y-1.262
X-9.626 Y-1.323
X-9.465 Y-1.384
X-9.304 Y-1.445
X-9.144 Y-1.506
X-8.987 Y-1.569
X-8.832 Y-1.636
X-8.68 Y-1.707
X-8.535 Y-1.786
X-8.4 Y-1.877
X-8.282 Y-1.988
X-8.199 Y-2.128
X-8.177 Y-2.303
X-8.223 Y-2.488
X-8.306 Y-2.659
X-8.406 Y-2.818
X-8.513 Y-2.967
X-8.624 Y-3.111
X-8.738 Y-3.252
X-8.852 Y-3.39
X-8.966 Y-3.527
X-9.08 Y-3.663
X-9.193 Y-3.8
X-9.305 Y-3.936
X-9.415 Y-4.073
X-9.523 Y-4.212
X-9.629 Y-4.351
X-9.732 Y-4.492
X-9.832 Y-4.635
X-9.928 Y-4.779
X-10.02 Y-4.926
X-10.108 Y-5.075
X-10.19 Y-5.227
X-10.265 Y-5.382
X-10.331 Y-5.539
X-10.388 Y-5.7
X-10.433 Y-5.864
X-10.463 Y-6.03
X-10.473 Y-6.199
X-10.458 Y-6.367
X-10.412 Y-6.531
X-10.331 Y-6.683
X-10.214 Y-6.815
X-10.069 Y-6.921
X-9.905 Y-7.
X-9.732 Y-7.055
X-9.555 Y-7.091
X-9.376 Y-7.111
X-9.196 Y-7.119
X-9.018 Y-7.116
X-8.84 Y-7.106
X-8.663 Y-7.089
X-8.488 Y-7.066
X-8.313 Y-7.038
X-8.14 Y-7.007
X-7.968 Y-6.971
X-7.797 Y-6.933
X-7.628 Y-6.892
X-7.459 Y-6.849
X-7.291 Y-6.805
X-7.123 Y-6.76
X-6.957 Y-6.714
X-6.791 Y-6.668
X-6.625 Y-6.623
X-6.46 Y-6.58
X-6.296 Y-6.54
X-6.131 Y-6.504
X-5.967 Y-6.475
X-5.803 Y-6.458
X-5.64 Y-6.459
X-5.483 Y-6.491
X-5.34 Y-6.575
X-5.234 Y-6.723
X-5.176 Y-6.906
X-5.151 Y-7.093
X-5.143 Y-7.279
X-5.144 Y-7.462
X-5.151 Y-7.644
X-5.161 Y-7.823
X-5.172 Y-8.002
X-5.184 Y-8.18
X-5.196 Y-8.357
X-5.207 Y-8.533
X-5.217 Y-8.709
X-5.225 Y-8.885
X-5.23 Y-9.06
X-5.233 Y-9.235
X-5.232 Y-9.41
X-5.228 Y-9.584
X-5.22 Y-9.757
X-5.206 Y-9.93
X-5.188 Y-10.102
X-5.162 Y-10.272
X-5.13 Y-10.44
X-5.088 Y-10.606
X-5.036 Y-10.769
X-4.972 Y-10.926
X-4.893 Y-11.075
X-4.796 Y-11.213
X-4.678 Y-11.334
X-4.538 Y-11.431
X-4.376 Y-11.495
X-4.201 Y-11.521
X-4.02 Y-11.511
X-3.843 Y-11.47
X-3.674 Y-11.406
X-3.512 Y-11.326
X-3.357 Y-11.233
X-3.21 Y-11.131
X-3.068 Y-11.022
X-2.932 Y-10.908
X-2.801 Y-10.789
X-2.673 Y-10.666
X-2.55 Y-10.54
X-2.429 Y-10.412
X-2.312 Y-10.282
X-2.197 Y-10.15
X-2.084 Y-10.017
X-1.973 Y-9.883
X-1.864 Y-9.748
X-1.755 Y-9.613
X-1.648 Y-9.478
X-1.54 Y-9.344
X-1.433 Y-9.21
X-1.324 Y-9.079
X-1.214 Y-8.951
X-1.101 Y-8.827
X-0.983 Y-8.709
X-0.858 Y-8.603
X-0.722 Y-8.516
X-0.57 Y-8.462
X-0.4 Y-8.468
X-0.231 Y-8.547
X-0.085 Y-8.672
X0.04 Y-8.812
X0.152 Y-8.959
X0.257 Y-9.109
X0.357 Y-9.26
X0.454 Y-9.411
X0.549 Y-9.562
X0.644 Y-9.713
X0.738 Y-9.863
X0.833 Y-10.012
X0.929 Y-10.159
X1.027 Y-10.305
X1.126 Y-10.45
X1.227 Y-10.592
X1.331 Y-10.732
X1.438 Y-10.87
X1.548 Y-11.004
X1.661 Y-11.135
X1.778 Y-11.261
X1.901 Y-11.383
X2.028 Y-11.497
X2.161 Y-11.605
X2.3 Y-11.702
X2.447 Y-11.787
X2.601 Y-11.856
X2.763 Y-11.903
X2.931 Y-11.922
X3.102 Y-11.906
X3.268 Y-11.85
X3.42 Y-11.757
X3.553 Y-11.634
X3.666 Y-11.491
X3.761 Y-11.337
X3.84 Y-11.174
X3.907 Y-11.008
X3.963 Y-10.838
X4.011 Y-10.666
X4.052 Y-10.493
X4.086 Y-10.319
X4.115 Y-10.145
X4.14 Y-9.971
X4.161 Y-9.796
X4.178 Y-9.622
X4.193 Y-9.447
X4.205 Y-9.273
X4.216 Y-9.1
X4.225 Y-8.927
X4.233 Y-8.754
X4.241 Y-8.582
X4.249 Y-8.41
X4.258 Y-8.239
X4.269 Y-8.07
X4.284 Y-7.901
X4.305 Y-7.735
X4.335 Y-7.573
X4.379 Y-7.415
X4.446 Y-7.269
X4.552 Y-7.145
X4.709 Y-7.068
X4.899 Y-7.051
X5.088 Y-7.076
X5.269 Y-7.121
X5.445 Y-7.177
X5.616 Y-7.238
X5.785 Y-7.302
X5.952 Y-7.368
X6.117 Y-7.434
X6.282 Y-7.5
X6.447 Y-7.566
X6.611 Y-7.63
X6.776 Y-7.692
X6.941 Y-7.752
X7.106 Y-7.81
X7.272 Y-7.865
X7.438 Y-7.916
X7.606 Y-7.963
X7.774 Y-8.006
X7.943 Y-8.043
X8.112 Y-8.074
X8.282 Y-8.098
X8.453 Y-8.114
X8.623 Y-8.119
X8.793 Y-8.111
X8.961 Y-8.089
X9.124 Y-8.047
X9.28 Y-7.982
X9.422 Y-7.889
X9.543 Y-7.766
X9.635 Y-7.616
X9.692 Y-7.445
X9.718 Y-7.266
X9.718 Y-7.084
X9.698 Y-6.904
X9.662 Y-6.727
X9.614 Y-6.554
X9.557 Y-6.385
X9.493 Y-6.219
X9.422 Y-6.056
X9.347 Y-5.896
X9.267 Y-5.739
X9.183 Y-5.584
X9.096 Y-5.431
X9.007 Y-5.28
X8.916 Y-5.131
X8.823 Y-4.984
X8.729 Y-4.838
X8.635 Y-4.692
X8.54 Y-4.548
X8.445 Y-4.404
X8.351 Y-4.261
X8.258 Y-4.117
X8.169 Y-3.973
X8.084 Y-3.828
X8.005 Y-3.681
X7.938 Y-3.53
X7.888 Y-3.376
X7.868 Y-3.216
X7.9 Y-3.054
X8.005 Y-2.906
X8.16 Y-2.793
X8.33 Y-2.71
X8.504 Y-2.645
X8.679 Y-2.589
X8.853 Y-2.539
X9.027 Y-2.493
X9.201 Y-2.449
X9.374 Y-2.405
X9.546 Y-2.362
X9.717 Y-2.317
X9.887 Y-2.272
X10.057 Y-2.225
X10.225 Y-2.177
X10.393 Y-2.125
X10.558 Y-2.071
X10.723 Y-2.013
X10.885 Y-1.952
X11.046 Y-1.886
X11.203 Y-1.816
X11.357 Y-1.739
X11.508 Y-1.656
X11.653 Y-1.566
X11.792 Y-1.467
X11.922 Y-1.358
X12.04 Y-1.237
X12.142 Y-1.103
X12.222 Y-0.954
X12.272 Y-0.791
X12.285 Y-0.618
X12.258 Y-0.443
X12.193 Y-0.274
X12.101 Y-0.118
X12.01 Y0.
G0 Z5.
G0 X12.434 Y0.
Z5.
G1 Z5. F202.6
Z0.635 F80.
Z-0.274
X12.3 Y0.12 F202.6
X12.159 Y0.231
X12.013 Y0.334
X11.863 Y0.43
X11.71 Y0.52
X11.555 Y0.605
X11.398 Y0.686
X11.239 Y0.762
X11.079 Y0.835
X10.918 Y0.905
X10.757 Y0.972
X10.594 Y1.037
X10.432 Y1.1
X10.269 Y1.161
X10.106 Y1.221
X9.944 Y1.28
X9.782 Y1.339
X9.62 Y1.397
X9.46 Y1.457
X9.301 Y1.518
X9.144 Y1.581
X8.991 Y1.649
X8.842 Y1.723
X8.701 Y1.807
X8.574 Y1.907
X8.472 Y2.031
X8.42 Y2.191
X8.441 Y2.377
X8.516 Y2.554
X8.614 Y2.715
X8.723 Y2.865
X8.837 Y3.009
X8.953 Y3.147
X9.071 Y3.283
X9.19 Y3.417
X9.308 Y3.55
X9.426 Y3.683
X9.544 Y3.816
X9.66 Y3.949
X9.774 Y4.082
X9.887 Y4.217
X9.998 Y4.352
X10.107 Y4.489
X10.213 Y4.628
X10.316 Y4.768
X10.416 Y4.91
X10.512 Y5.055
X10.603 Y5.201
X10.689 Y5.351
X10.769 Y5.503
X10.841 Y5.658
X10.905 Y5.817
X10.957 Y5.979
X10.996 Y6.144
X11.018 Y6.311
X11.018 Y6.48
X10.99 Y6.647
X10.929 Y6.806
X10.831 Y6.951
X10.701 Y7.073
X10.547 Y7.167
X10.379 Y7.236
X10.204 Y7.283
X10.025 Y7.313
X9.846 Y7.329
X9.667 Y7.334
X9.488 Y7.33
X9.311 Y7.318
X9.134 Y7.3
X8.959 Y7.277
X8.785 Y7.248
X8.612 Y7.216
X8.439 Y7.18
X8.268 Y7.142
X8.098 Y7.101
X7.929 Y7.058
X7.761 Y7.013
X7.594 Y6.966
X7.427 Y6.919
X7.261 Y6.871
X7.095 Y6.823
X6.93 Y6.776
X6.765 Y6.73
X6.601 Y6.687
X6.437 Y6.647
X6.273 Y6.613
X6.109 Y6.587
X5.946 Y6.576
X5.785 Y6.587
X5.632 Y6.637
X5.502 Y6.749
X5.421 Y6.92
X5.384 Y7.108
X5.372 Y7.296
X5.374 Y7.481
X5.383 Y7.663
X5.396 Y7.843
X5.412 Y8.022
X5.429 Y8.2
X5.447 Y8.378
X5.465 Y8.554
X5.481 Y8.73
X5.497 Y8.906
X5.511 Y9.081
X5.523 Y9.256
X5.532 Y9.431
X5.539 Y9.606
X5.543 Y9.78
X5.543 Y9.954
X5.54 Y10.128
X5.531 Y10.301
X5.518 Y10.473
X5.498 Y10.645
X5.472 Y10.814
X5.438 Y10.982
X5.394 Y11.147
X5.339 Y11.308
X5.271 Y11.463
X5.187 Y11.609
X5.084 Y11.743
X4.959 Y11.857
X4.811 Y11.945
X4.644 Y11.997
X4.466 Y12.012
X4.286 Y11.992
X4.11 Y11.944
X3.942 Y11.876
X3.782 Y11.793
X3.629 Y11.698
X3.482 Y11.595
X3.341 Y11.486
X3.205 Y11.371
X3.074 Y11.252
X2.947 Y11.129
X2.823 Y11.003
X2.702 Y10.875
X2.585 Y10.745
X2.47 Y10.613
X2.357 Y10.479
X2.245 Y10.344
X2.136 Y10.209
X2.028 Y10.073
X1.921 Y9.937
X1.815 Y9.8
X1.709 Y9.665
X1.603 Y9.53
X1.497 Y9.396
X1.389 Y9.265
X1.279 Y9.137
X1.166 Y9.014
X1.047 Y8.899
X0.92 Y8.796
X0.78 Y8.716
X0.624 Y8.677
X0.451 Y8.706
X0.289 Y8.807
X0.154 Y8.942
X0.037 Y9.089
X-0.069 Y9.24
X-0.168 Y9.393
X-0.262 Y9.547
X-0.354 Y9.701
X-0.445 Y9.855
X-0.535 Y10.009
X-0.624 Y10.162
X-0.714 Y10.314
X-0.805 Y10.465
X-0.897 Y10.615
X-0.991 Y10.763
X-1.086 Y10.91
X-1.184 Y11.055
X-1.284 Y11.198
X-1.386 Y11.338
X-1.492 Y11.476
X-1.601 Y11.61
X-1.714 Y11.741
X-1.831 Y11.867
X-1.953 Y11.988
X-2.081 Y12.102
X-2.214 Y12.208
X-2.355 Y12.304
X-2.502 Y12.386
X-2.658 Y12.452
X-2.821 Y12.494
X-2.991 Y12.507
X-3.161 Y12.484
X-3.325 Y12.42
X-3.475 Y12.321
X-3.605 Y12.194
X-3.715 Y12.05
X-3.808 Y11.894
X-3.886 Y11.732
X-3.952 Y11.565
X-4.009 Y11.395
X-4.057 Y11.223
X-4.098 Y11.05
X-4.133 Y10.876
X-4.163 Y10.702
X-4.188 Y10.528
X-4.21 Y10.353
X-4.228 Y10.178
X-4.243 Y10.004
X-4.255 Y9.829
X-4.266 Y9.655
X-4.274 Y9.482
X-4.281 Y9.308
X-4.288 Y9.135
X-4.293 Y8.963
X-4.299 Y8.791
X-4.306 Y8.619
X-4.314 Y8.449
X-4.324 Y8.279
X-4.339 Y8.112
X-4.36 Y7.946
X-4.39 Y7.784
X-4.437 Y7.628
X-4.508 Y7.484
X-4.621 Y7.367
X-4.788 Y7.302
X-4.98 Y7.299
X-5.167 Y7.333
