(SIDE_CHANNELS)
(T1  Single Flute Engraving Metal 30 deg*.2mm      D=3.175 CR=0. TAPER=15deg - ZMIN=-0.2 - chamfer mill)
G90 G94
G17
G21
(When using Fusion for Personal Use, the feedrate of rapid)
(moves is reduced to match the feedrate of cutting moves,)
(which can increase machining time. Unrestricted rapid moves)
(are available with a Fusion Subscription.)

(Engrave6)
M6 T1
M851 S100
S11962 M3
G54
G0 X3.462 Y54.003
Z15.
G1 Z5. F498.4
Z-0.003 F200.
X3.515 Y53.95 Z-0.2 F498.4
X4.401
X4.437 Y53.957
X4.467 Y53.977
X4.487 Y54.007
X4.494 Y54.043
Y55.074
X4.487 Y55.109
X4.467 Y55.14
X4.437 Y55.16
X4.401 Y55.167
X3.515
X3.462 Y55.114 Z-0.003
X3.515 Y55.167 Z-0.2
Y55.186
X3.462 Y55.239 Z-0.003
X3.515 Y55.186 Z-0.2
X5.354
X5.407 Y55.239 Z-0.003
X5.354 Y55.186 Z-0.2
Y55.167
X5.407 Y55.114 Z-0.003
X5.354 Y55.167 Z-0.2
X4.598
X4.563 Y55.16
X4.532 Y55.14
X4.512 Y55.109
X4.505 Y55.074
Y54.043
X4.512 Y54.007
X4.532 Y53.977
X4.563 Y53.957
X4.598 Y53.95
X5.354
X5.407 Y54.003 Z-0.003
X5.354 Y53.95 Z-0.2
Y53.934
X5.407 Y53.881 Z-0.003
X5.354 Y53.934 Z-0.2
X3.515
Y53.95
Y53.934
X3.462 Y53.881 Z-0.003
Z5.
X3.554 Y53.236
Z-0.2 F200.
X3.603 Y53.215 F498.4
X3.623 Y53.168
X3.603 Y53.119
X3.554 Y53.099
X3.504 Y53.119
X3.484 Y53.168
X3.504 Y53.215
X3.554 Y53.236
Z5.
X3.462 Y51.934
Z-0.003 F200.
X3.515 Y51.986 Z-0.2 F498.4
Y52.
X3.462 Y52.053 Z-0.003
X3.515 Y52. Z-0.2
X5.25
X5.286 Y52.007
X5.316 Y52.027
X5.337 Y52.057
X5.344 Y52.093
Y52.245
X5.291 Y52.339 Z-0.004
X5.344 Y52.245 Z-0.2
X5.354 Y52.239
Y51.986
X5.407 Y51.934 Z-0.003
X5.354 Y51.986 Z-0.2
X3.515
Z5.
X5.658 Y48.134
Z-0.011 F200.
X5.657 Y48.217 Z-0.2 F498.4
X5.661 Y48.222
X5.727 Z-0.005
X5.661 Z-0.2
X5.456 Y48.487
X5.445 Y48.505
X5.438 Y48.525
X5.423 Y48.597
X5.446 Y48.483
X5.657 Y48.217
X5.446 Y48.483
X5.353 Y48.934
X5.354 Y48.953
X5.412 Y49.28
X5.35 Y48.949
X5.353 Y48.934
X5.35 Y48.949
X5.431 Y49.386
X5.672 Y49.715
X5.97 Y49.891
X6.329 Y49.951
X6.703 Y49.879
X7.012 Y49.666
X7.218 Y49.346
X7.287 Y48.952
X7.186 Y48.48
X6.96 Y48.213
X6.958 Y48.128 Z0.
X6.96 Y48.213 Z-0.2
X6.954 Y48.221
X6.888 Y48.222 Z-0.004
X6.954 Y48.221 Z-0.2
X7.167 Y48.482
X7.179 Y48.501
X7.186 Y48.521
X7.276 Y48.927
X7.277 Y48.928
X7.279 Y48.95
X7.276 Y48.972
X7.157 Y49.42
X7.148 Y49.443
X7.134 Y49.462
X6.82 Y49.783
X6.8 Y49.799
X6.776 Y49.809
X6.336 Y49.922
X6.316 Y49.925
X6.296 Y49.923
X5.955 Y49.86
X5.936 Y49.854
X5.919 Y49.845
X5.642 Y49.654
X5.616 Y49.628
X5.43 Y49.341
X5.418 Y49.314
Z5.
X5.346 Y46.262
Z-0.003 F200.
X5.399 Y46.315 Z-0.2 F498.4
X7.238
X7.291 Y46.262 Z-0.003
X7.238 Y46.315 Z-0.2
Y46.331
X7.291 Y46.384 Z-0.003
X7.238 Y46.331 Z-0.2
X6.482
X6.446 Y46.338
X6.416 Y46.359
X6.396 Y46.389
X6.389 Y46.425
Y47.455
X6.396 Y47.491
X6.416 Y47.521
X6.446 Y47.541
X6.482 Y47.548
X7.238
X7.291 Y47.496 Z-0.003
X7.238 Y47.548 Z-0.2
Y47.567
X7.291 Y47.62 Z-0.003
X7.238 Y47.567 Z-0.2
X5.399
X5.346 Y47.62 Z-0.003
X5.399 Y47.567 Z-0.2
Y47.548
X5.346 Y47.496 Z-0.003
X5.399 Y47.548 Z-0.2
X6.285
X6.321 Y47.541
X6.351 Y47.521
X6.371 Y47.491
X6.378 Y47.455
Y46.425
X6.371 Y46.389
X6.351 Y46.359
X6.321 Y46.338
X6.285 Y46.331
X5.399
Y46.315
Y46.331
X5.346 Y46.384 Z-0.003
Z5.
X5.438 Y45.617
Z-0.2 F200.
X5.487 Y45.597 F498.4
X5.507 Y45.549
X5.487 Y45.5
X5.438 Y45.481
X5.388 Y45.501
X5.368 Y45.549
X5.388 Y45.596
X5.438 Y45.617
Z5.
X5.347 Y45.014
Z-0.007 F200.
X5.397 Y44.901 Z-0.192 F498.4
Z5.
X5.346 Y43.773
Z-0.003 F200.
X5.399 Y43.826 Z-0.2 F498.4
X5.407
X5.459 Y43.773 Z-0.003
X5.407 Y43.826 Z-0.2
Y44.669
X5.413 Y44.705
X5.433 Y44.735
X5.463 Y44.755
X5.498 Y44.763
X5.533 Y44.757
X5.564 Y44.738
X6.106 Y44.236
X6.191 Y44.169
X6.081 Y44.267
X6.08 Y44.268
X5.399 Y44.896
Y43.826
Y44.896
X6.08 Y44.268
X6.081 Y44.267
X6.191 Y44.169
X6.309 Y44.069 Z-0.183
X6.476 Y43.944 Z-0.2
X6.491 Y43.939
X6.748 Y43.868
X6.769 Y43.865
X6.789 Y43.866
X6.772 Y43.859
X6.496 Y43.928
X6.476 Y43.944
X6.496 Y43.928
X6.772 Y43.859
X7.14 Y44.009
X7.249 Y44.17
X7.288 Y44.387
X7.284 Y44.407
X7.283 Y44.385
X7.278 Y44.365
X7.157 Y44.051
X7.137 Y44.02
X7.106 Y43.999
X6.912 Y43.916
X7.106 Y43.999
X7.137 Y44.02
X7.157 Y44.051
X7.278 Y44.365
X7.283 Y44.385
X7.284 Y44.407
X7.281 Y44.423
X7.278 Y44.433
X7.152 Y44.752
X7.247 Y44.611
X7.281 Y44.423
X7.247 Y44.611
X7.124 Y44.794
X6.935 Y44.919
X6.793 Y44.947
X6.74 Y45.013 Z0.
X6.793 Y44.947 Z-0.2
Y44.93
X6.741 Y44.895 Z-0.005
X6.793 Y44.93 Z-0.2
X7.099 Y44.807
X7.126 Y44.79
Z5.
X7.542 Y40.53
Z-0.011 F200.
X7.541 Y40.612 Z-0.2 F498.4
X7.33 Y40.879
X7.307 Y40.99
X7.322 Y40.921
X7.329 Y40.901
X7.339 Y40.883
X7.545 Y40.618
X7.541 Y40.612
X7.545 Y40.618
X7.339 Y40.883
X7.329 Y40.901
X7.322 Y40.921
X7.307 Y40.99
X7.237 Y41.33
X7.238 Y41.348
X7.295 Y41.675
X7.234 Y41.344
X7.237 Y41.33
X7.234 Y41.344
X7.302 Y41.71
X7.314 Y41.736
X7.5 Y42.024
X7.526 Y42.05
X7.803 Y42.24
X7.82 Y42.25
X7.839 Y42.255
X8.18 Y42.319
X8.2 Y42.32
X8.22 Y42.317
X8.66 Y42.205
X8.684 Y42.195
X8.704 Y42.179
X9.018 Y41.857
X9.032 Y41.838
X9.041 Y41.816
X9.159 Y41.367
X9.163 Y41.345
X9.16 Y41.323
X9.07 Y40.917
X9.063 Y40.896
X9.051 Y40.878
X8.838 Y40.616
X8.772 Y40.617 Z-0.004
X8.838 Y40.616 Z-0.2
X8.844 Y40.609
X9.07 Y40.875
X9.171 Y41.348
X9.102 Y41.742
X8.896 Y42.062
X8.587 Y42.275
X8.213 Y42.346
X7.854 Y42.287
X7.556 Y42.111
X7.315 Y41.782
X7.302 Y41.71
Z5.
X7.551 Y40.618
Z-0.184 F200.
X7.611 Z-0.005 F498.4
Z5.
X8.842 Y40.524
Z0. F200.
X8.844 Y40.601 Z-0.182 F498.4
Z5.
X7.23 Y38.658
Z-0.003 F200.
X7.283 Y38.711 Z-0.2 F498.4
X9.122
X9.175 Y38.658 Z-0.003
X9.122 Y38.711 Z-0.2
Y38.727
X9.175 Y38.78 Z-0.003
X9.122 Y38.727 Z-0.2
X8.366
X8.33 Y38.734
X8.3 Y38.754
X8.28 Y38.785
X8.273 Y38.82
Y39.85
X8.28 Y39.886
X8.3 Y39.917
X8.33 Y39.937
X8.366 Y39.944
X9.122
X9.175 Y39.891 Z-0.003
X9.122 Y39.944 Z-0.2
Y39.963
X9.175 Y40.016 Z-0.003
X9.122 Y39.963 Z-0.2
X7.283
X7.23 Y40.016 Z-0.003
X7.283 Y39.963 Z-0.2
Y39.944
X7.23 Y39.891 Z-0.003
X7.283 Y39.944 Z-0.2
X8.169
X8.205 Y39.937
X8.235 Y39.917
X8.255 Y39.886
X8.262 Y39.85
Y38.82
X8.255 Y38.785
X8.235 Y38.754
X8.205 Y38.734
X8.169 Y38.727
X7.283
Y38.711
Y38.727
X7.23 Y38.78 Z-0.003
Z5.
X7.322 Y38.013
Z-0.2 F200.
X7.371 Y37.992 F498.4
X7.391 Y37.945
X7.371 Y37.896
X7.322 Y37.877
X7.272 Y37.896
X7.252 Y37.945
X7.272 Y37.992
X7.322 Y38.013
Z5.
X7.69 Y37.423
Z-0.006 F200.
X7.643 Y37.347 Z-0.18 F498.4
X7.69 Y37.319 Z-0.006
X7.643 Y37.347 Z-0.18
X7.375 Y37.202 Z-0.2
X7.358 Y37.172
X7.248 Y36.853
X7.243 Y36.821
X7.249 Y36.789
X7.376 Y36.451
X7.308 Y36.52
X7.236 Y36.821
X7.365 Y37.197
X7.375 Y37.202
X7.365 Y37.197
X7.236 Y36.821
X7.308 Y36.52
X7.376 Y36.451
X7.407 Y36.409 Z-0.173
X7.451 Y36.375 Z-0.2
X7.739 Y36.248
X7.771 Y36.241
X7.804 Y36.245
X7.92 Y36.28
X7.79 Y36.232
X7.515 Y36.31
X7.451 Y36.375
X7.515 Y36.31
X7.79 Y36.232
X7.92 Y36.28
X8.026 Y36.315 Z-0.188
X8.062 Y36.332 Z-0.2
X8.07 Y36.34
X8.209 Y36.499
X8.096 Y36.344
X8.062 Y36.332
X8.096 Y36.344
X8.241 Y36.544
X8.247 Y36.563
X8.297 Y36.836
X8.254 Y36.888 Z-0.004
X8.297 Y36.836 Z-0.2
X8.328
X8.372 Y36.888 Z-0.004
X8.328 Y36.836 Z-0.2
X8.362 Y36.658
X8.368 Y36.638
X8.379 Y36.619
X8.503 Y36.457
X8.398 Y36.57
X8.372 Y36.59
X8.341 Y36.599
X8.308 Y36.597
X8.278 Y36.584
X8.254 Y36.561
X8.241 Y36.544
X8.254 Y36.561
X8.278 Y36.584
X8.308 Y36.597
X8.341 Y36.599
X8.372 Y36.59
X8.398 Y36.57
X8.56 Y36.395
X8.744 Y36.344
X8.95 Y36.405
X9.021 Y36.482
X9.012 Y36.478
X8.783 Y36.373
X8.75 Y36.365
X8.717 Y36.369
X8.553 Y36.42
X8.522 Y36.436
X8.553 Y36.42
X8.717 Y36.369
X8.75 Y36.365
X8.783 Y36.373
X9.012 Y36.478
X9.021 Y36.482
X9.057 Y36.522
X9.061 Y36.53
X9.16 Y36.795
X9.165 Y36.833
X9.169 Y36.823
X9.111 Y36.58
X9.057 Y36.522
X9.111 Y36.58
X9.169 Y36.823
X9.165 Y36.833
X9.08 Y37.085 Z-0.183
X9.061 Y37.123 Z-0.2
X9.055 Y37.142
X8.907 Y37.225
X9.047 Y37.135
X9.061 Y37.123
X9.047 Y37.135
X8.907 Y37.225
X8.838 Y37.267 Z-0.191
X8.789 Y37.352 Z-0.005
Z5.
X9.426 Y32.932
Z-0.011 F200.
X9.425 Y33.014 Z-0.2 F498.4
X9.214 Y33.281
X9.191 Y33.393
X9.206 Y33.323
X9.212 Y33.303
X9.223 Y33.285
X9.429 Y33.02
X9.425 Y33.014
X9.429 Y33.02
X9.495 Z-0.005
X9.429 Z-0.2
X9.223 Y33.285
X9.212 Y33.303
X9.206 Y33.323
X9.191 Y33.393
X9.124 Y33.715 Z-0.197
X9.121 Y33.732 Z-0.2
X9.122 Y33.75
X9.179 Y34.077
X9.118 Y33.746
X9.121 Y33.732
X9.118 Y33.746
X9.186 Y34.111
X9.198 Y34.138
X9.384 Y34.426
X9.41 Y34.452
X9.687 Y34.642
X9.704 Y34.652
X9.723 Y34.657
X10.064 Y34.721
X10.084 Y34.722
X10.104 Y34.719
X10.544 Y34.606
X10.568 Y34.597
X10.588 Y34.581
X10.901 Y34.259
X10.916 Y34.24
X10.925 Y34.218
X11.043 Y33.769
X11.047 Y33.748
X11.045 Y33.726
X11.044 Y33.725
X10.954 Y33.319
X10.947 Y33.298
X10.935 Y33.28
X10.722 Y33.018
X10.728 Y33.011
X10.726 Y32.926 Z0.
X10.728 Y33.011 Z-0.2
X10.954 Y33.277
X11.055 Y33.75
X10.986 Y34.143
X10.78 Y34.464
X10.471 Y34.677
X10.097 Y34.748
X9.738 Y34.688
X9.44 Y34.513
X9.199 Y34.183
X9.186 Y34.111
Z5.
X10.656 Y33.019
Z-0.004 F200.
X10.717 Y33.018 Z-0.184 F498.4
Z5.
X9.114 Y31.06
Z-0.003 F200.
X9.167 Y31.113 Z-0.2 F498.4
X11.006
X11.059 Y31.06 Z-0.003
X11.006 Y31.113 Z-0.2
Y31.129
X11.059 Y31.182 Z-0.003
X11.006 Y31.129 Z-0.2
X10.25
X10.214 Y31.136
X10.184 Y31.156
X10.164 Y31.186
X10.157 Y31.222
Y32.252
X10.164 Y32.288
X10.184 Y32.319
X10.214 Y32.339
X10.25 Y32.346
X11.006
X11.059 Y32.293 Z-0.003
X11.006 Y32.346 Z-0.2
Y32.365
X11.059 Y32.418 Z-0.003
X11.006 Y32.365 Z-0.2
X9.167
X9.114 Y32.418 Z-0.003
X9.167 Y32.365 Z-0.2
Y32.346
X9.114 Y32.293 Z-0.003
X9.167 Y32.346 Z-0.2
X10.053
X10.089 Y32.339
X10.119 Y32.319
X10.139 Y32.288
X10.146 Y32.252
Y31.222
X10.139 Y31.186
X10.119 Y31.156
X10.089 Y31.136
X10.053 Y31.129
X9.167
Y31.113
Y31.129
X9.114 Y31.182 Z-0.003
Z5.
X9.206 Y30.415
Z-0.2 F200.
X9.255 Y30.394 F498.4
X9.275 Y30.347
X9.255 Y30.298
X9.206 Y30.278
X9.156 Y30.298
X9.135 Y30.347
X9.156 Y30.394
X9.206 Y30.415
Z5.
X9.585 Y29.843
Z-0.002 F200.
X9.637 Y29.743 Z-0.196 F498.4
Z5.
X9.694 Y29.632
Z-0.2 F200.
X9.667 Y29.611 F498.4
X9.649 Y29.582
X9.643 Y29.549
Y28.951
X9.65 Y28.915
X9.67 Y28.884
X9.701 Y28.864
X9.737 Y28.857
X10.58
X10.613 Y28.863
X10.642 Y28.88
X10.663 Y28.907
X10.673 Y28.939
X10.671 Y28.972
X10.658 Y29.003
X10.635 Y29.027
X9.791 Y29.625
X9.76 Y29.639
X9.726 Y29.642
X9.694 Y29.632
Z5.
X9.114 Y28.791
Z-0.003 F200.
X9.167 Y28.844 Z-0.2 F498.4
X9.545
X9.58 Y28.837
X9.611 Y28.816
X9.631 Y28.786
X9.638 Y28.75
Y28.598
X9.585 Y28.545 Z-0.003
X9.638 Y28.598 Z-0.2
X9.643
X9.696 Y28.545 Z-0.003
X9.643 Y28.598 Z-0.2
Y28.75
X9.65 Y28.786
X9.67 Y28.816
X9.701 Y28.837
X9.737 Y28.844
X10.911
X11.077 Y28.791 Z-0.004
X10.911 Y28.844 Z-0.2
X9.638 Y29.741
Y28.951
X9.631 Y28.915
X9.611 Y28.884
X9.58 Y28.864
X9.545 Y28.857
X9.167
Y28.844
Y28.857
X9.114 Y28.91 Z-0.003
Z5.
X11.31 Y25.333
Z-0.011 F200.
X11.309 Y25.415 Z-0.2 F498.4
X11.313 Y25.421
X11.379 Z-0.005
X11.313 Z-0.2
X11.107 Y25.686
X11.096 Y25.704
X11.09 Y25.724
X11.079 Y25.776
X11.098 Y25.682
X11.309 Y25.415
X11.098 Y25.682
X11.002 Y26.147
X11.063 Y26.478
X11.006 Y26.151
X11.005 Y26.133
X11.006 Y26.151
X11.063 Y26.478
X11.07 Y26.512
X11.082 Y26.539
X11.268 Y26.827
X11.294 Y26.853
X11.571 Y27.043
X11.588 Y27.053
X11.607 Y27.058
X11.948 Y27.122
X11.968 Y27.123
X11.988 Y27.12
X12.428 Y27.007
X12.452 Y26.998
X12.472 Y26.982
X12.785 Y26.66
X12.8 Y26.641
X12.809 Y26.619
X12.927 Y26.17
X12.93 Y26.148
X12.928 Y26.126
X12.838 Y25.719
X12.831 Y25.699
X12.819 Y25.681
X12.606 Y25.419
X12.54 Y25.42 Z-0.004
X12.606 Y25.419 Z-0.2
X12.612 Y25.412
X12.61 Y25.327 Z0.
X12.612 Y25.412 Z-0.2
X12.838 Y25.678
X12.939 Y26.151
X12.87 Y26.544
X12.664 Y26.864
X12.355 Y27.078
X11.981 Y27.149
X11.622 Y27.089
X11.323 Y26.914
X11.083 Y26.584
X11.07 Y26.512
Z5.
X10.998 Y23.461
Z-0.003 F200.
X11.051 Y23.514 Z-0.2 F498.4
X12.89
X12.943 Y23.461 Z-0.003
X12.89 Y23.514 Z-0.2
Y23.53
X12.943 Y23.582 Z-0.003
X12.89 Y23.53 Z-0.2
X12.134
X12.098 Y23.537
X12.068 Y23.557
X12.048 Y23.587
X12.041 Y23.623
Y24.653
X12.048 Y24.689
X12.068 Y24.719
X12.098 Y24.74
X12.134 Y24.747
X12.89
X12.943 Y24.694 Z-0.003
X12.89 Y24.747 Z-0.2
Y24.766
X12.943 Y24.819 Z-0.003
X12.89 Y24.766 Z-0.2
X11.051
X10.998 Y24.819 Z-0.003
X11.051 Y24.766 Z-0.2
Y24.747
X10.998 Y24.694 Z-0.003
X11.051 Y24.747 Z-0.2
X11.937
X11.972 Y24.74
X12.003 Y24.719
X12.023 Y24.689
X12.03 Y24.653
Y23.623
X12.023 Y23.587
X12.003 Y23.557
X11.972 Y23.537
X11.937 Y23.53
X11.051
Y23.514
Y23.53
X10.998 Y23.582 Z-0.003
Z5.
X11.09 Y22.816
Z-0.2 F200.
X11.139 Y22.795 F498.4
X11.158 Y22.748
X11.139 Y22.699
X11.09 Y22.679
X11.04 Y22.699
X11.019 Y22.748
X11.04 Y22.795
X11.09 Y22.816
Z5.
X11.407 Y22.209
Z-0.006 F200.
X11.359 Y22.131 Z-0.184 F498.4
X11.407 Y22.099 Z-0.005
X11.359 Y22.131 Z-0.184
X11.187 Y22.046 Z-0.177
X11.166 Y22.028 Z-0.2
X11.132 Y22.01
X11.114 Y21.961
X11.166 Y22.028
X11.114 Y21.961
X11.076 Y21.892 Z-0.154
X11.007 Y21.668 Z-0.191
X11.003 Y21.654 Z-0.197
X11.02 Y21.586 Z-0.2
X11.079 Y21.343
X11.161 Y21.262
X11.159 Y21.266
X11.02 Y21.586
X11.159 Y21.266
X11.161 Y21.262
X11.206 Y21.218
X11.212 Y21.216
X11.593 Y21.072
X11.627 Y21.066
X11.66 Y21.072
X11.993 Y21.202
X12.016 Y21.215
X12.035 Y21.234
X12.047 Y21.257
X12.174 Y21.604
X12.178 Y21.619
X12.183 Y21.589
X12.143 Y21.373
X12.026 Y21.2
X11.846 Y21.087
X11.621 Y21.049
X11.298 Y21.129
X11.206 Y21.218
X11.298 Y21.129
X11.621 Y21.049
X11.846 Y21.087
X12.026 Y21.2
X12.143 Y21.373
X12.183 Y21.589
X12.146 Y21.813
X12.147 Y21.849
X12.162 Y21.881
X12.187 Y21.906
X12.22 Y21.92
X12.256
X12.809 Y21.819
X12.839 Y21.808
X12.864 Y21.787
X12.88 Y21.759
X12.885 Y21.727
Y21.098
X12.833 Y21.045 Z-0.003
X12.885 Y21.098 Z-0.2
X12.89
X12.943 Y21.045 Z-0.003
X12.89 Y21.098 Z-0.2
Y21.804
X12.943 Y21.848 Z-0.004
X12.89 Y21.804 Z-0.2
X12.103 Y21.952
X12.033 Y22.018 Z-0.007
X12.103 Y21.952 Z-0.2
X12.162 Y21.72
Z5.
X13.194 Y17.706
Z-0.011 F200.
X13.193 Y17.789 Z-0.2 F498.4
X12.982 Y18.055
X12.96 Y18.164
X12.974 Y18.097
X12.98 Y18.077
X12.991 Y18.059
X13.197 Y17.794
X13.193 Y17.789
X13.197 Y17.794
X13.263 Z-0.005
X13.197 Z-0.2
X12.991 Y18.059
X12.98 Y18.077
X12.974 Y18.097
X12.96 Y18.164
X12.889 Y18.507
X12.89 Y18.525
X12.947 Y18.851
X12.886 Y18.521
X12.889 Y18.507
X12.886 Y18.521
X12.967 Y18.958
X13.207 Y19.287
X13.506 Y19.463
X13.865 Y19.523
X14.239 Y19.451
X14.548 Y19.238
X14.754 Y18.918
X14.823 Y18.524
X14.722 Y18.052
X14.496 Y17.785
X14.494 Y17.7 Z0.
X14.496 Y17.785 Z-0.2
X14.49 Y17.793
X14.423 Y17.794 Z-0.004
X14.49 Y17.793 Z-0.2
X14.703 Y18.054
X14.715 Y18.073
X14.722 Y18.093
X14.812 Y18.5
X14.814 Y18.522
X14.811 Y18.544
X14.693 Y18.992
X14.684 Y19.015
X14.669 Y19.034
X14.356 Y19.356
X14.336 Y19.371
X14.312 Y19.381
X13.872 Y19.494
X13.852 Y19.497
X13.832 Y19.495
X13.491 Y19.432
X13.472 Y19.426
X13.455 Y19.417
X13.178 Y19.226
X13.152 Y19.2
X12.966 Y18.913
X12.954 Y18.886
Z5.
X12.882 Y15.834
Z-0.003 F200.
X12.935 Y15.887 Z-0.2 F498.4
X14.774
X14.827 Y15.834 Z-0.003
X14.774 Y15.887 Z-0.2
Y15.903
X14.827 Y15.956 Z-0.003
X14.774 Y15.903 Z-0.2
X14.018
X13.982 Y15.91
X13.952 Y15.931
X13.932 Y15.961
X13.925 Y15.997
Y17.027
X13.932 Y17.063
X13.952 Y17.093
X13.982 Y17.113
X14.018 Y17.12
X14.774
X14.827 Y17.068 Z-0.003
X14.774 Y17.12 Z-0.2
Y17.139
X14.827 Y17.192 Z-0.003
X14.774 Y17.139 Z-0.2
X12.935
X12.882 Y17.192 Z-0.003
X12.935 Y17.139 Z-0.2
Y17.12
X12.882 Y17.068 Z-0.003
X12.935 Y17.12 Z-0.2
X13.821
X13.856 Y17.113
X13.887 Y17.093
X13.907 Y17.063
X13.914 Y17.027
Y15.997
X13.907 Y15.961
X13.887 Y15.931
X13.856 Y15.91
X13.821 Y15.903
X12.935
Y15.887
Y15.903
X12.882 Y15.956 Z-0.003
Z5.
X12.974 Y15.19
Z-0.2 F200.
X13.023 Y15.169 F498.4
X13.042 Y15.121
X13.023 Y15.072
X12.974 Y15.053
X12.924 Y15.073
X12.903 Y15.121
X12.924 Y15.169
X12.974 Y15.19
Z5.
X14.799 Y13.621
Z-0.003 F200.
X14.784 Y13.694 Z-0.2 F498.4
X14.79 Y13.704
X14.863 Y13.719 Z-0.003
X14.79 Y13.704 Z-0.2
X13.953 Y14.266
X13.639 Y14.438
X13.414 Y14.481
X13.146 Y14.411
X13.027 Y14.293
X13.026 Y14.291
X12.902 Y13.989
X12.895 Y13.954
X12.902 Y13.918
X13.025 Y13.618
X12.957 Y13.688
X12.887 Y13.962
X12.954 Y14.221
X13.027 Y14.293
X12.954 Y14.221
X12.887 Y13.962
X12.957 Y13.688
X13.025 Y13.618
X13.048 Y13.589 Z-0.186
X13.076 Y13.565 Z-0.2
X13.147 Y13.493
X13.408 Y13.425
X13.437 Y13.437
X13.408 Y13.434
X13.379 Y13.441
X13.077 Y13.565
X13.076
X13.077
X13.379 Y13.441
X13.408 Y13.434
X13.437 Y13.437
X13.773 Y13.569
X13.778 Y13.581
X13.752 Y13.565
X13.499 Y13.461
X13.752 Y13.565
X13.778 Y13.581
X13.924 Y13.917 Z-0.191
X13.922 Y13.968 Z-0.162
X13.894 Y14.069 Z-0.2
X13.803 Y14.291
X13.782 Y14.322
X13.752 Y14.342
X13.45 Y14.466
X13.414 Y14.473
X13.379 Y14.466
X13.077 Y14.342
X13.076
X13.077
X13.379 Y14.466
X13.414 Y14.473
X13.45 Y14.466
X13.752 Y14.342
X13.782 Y14.322
X13.803 Y14.291
X13.894 Y14.069
X13.889 Y14.095
X13.89 Y14.131
X13.904 Y14.165
X13.93 Y14.19
X13.964 Y14.204
X14.
X14.033 Y14.19
X14.784 Y13.694
Z5.
X13.194 Y3.254
Z-0.011 F200.
X13.193 Y3.337 Z-0.2 F498.4
X13.197 Y3.342
X13.263 Z-0.005
X13.197 Z-0.2
X12.991 Y3.607
X12.98 Y3.625
X12.974 Y3.645
X12.959 Y3.714
X12.982 Y3.603
X13.193 Y3.337
X12.982 Y3.603
X12.889 Y4.054
X12.89 Y4.073
X12.947 Y4.399
X12.886 Y4.069
X12.889 Y4.054
X12.886 Y4.069
X12.967 Y4.506
X13.207 Y4.835
X13.506 Y5.011
X13.865 Y5.071
X14.239 Y4.999
X14.548 Y4.786
X14.754 Y4.466
X14.823 Y4.072
X14.722 Y3.6
X14.496 Y3.333
X14.494 Y3.248 Z0.
X14.496 Y3.333 Z-0.2
X14.49 Y3.341
X14.423 Y3.342 Z-0.004
X14.49 Y3.341 Z-0.2
X14.703 Y3.602
X14.715 Y3.621
X14.722 Y3.641
X14.812 Y4.048
X14.814 Y4.07
X14.811 Y4.092
X14.693 Y4.54
X14.684 Y4.563
X14.669 Y4.582
X14.356 Y4.904
X14.336 Y4.919
X14.312 Y4.929
X13.872 Y5.042
X13.852 Y5.045
X13.832 Y5.043
X13.491 Y4.98
X13.472 Y4.974
X13.455 Y4.965
X13.178 Y4.774
X13.152 Y4.748
X12.966 Y4.461
X12.954 Y4.434
Z5.
X12.882 Y1.382
Z-0.003 F200.
X12.935 Y1.435 Z-0.2 F498.4
X14.774
X14.827 Y1.382 Z-0.003
X14.774 Y1.435 Z-0.2
Y1.451
X14.827 Y1.504 Z-0.003
X14.774 Y1.451 Z-0.2
X14.018
X13.982 Y1.458
X13.952 Y1.479
X13.932 Y1.509
X13.925 Y1.545
Y2.575
X13.932 Y2.611
X13.952 Y2.641
X13.982 Y2.661
X14.018 Y2.669
X14.774
X14.827 Y2.616 Z-0.003
X14.774 Y2.669 Z-0.2
Y2.687
X14.827 Y2.74 Z-0.003
X14.774 Y2.687 Z-0.2
X12.935
X12.882 Y2.74 Z-0.003
X12.935 Y2.687 Z-0.2
Y2.669
X12.882 Y2.616 Z-0.003
X12.935 Y2.669 Z-0.2
X13.821
X13.856 Y2.661
X13.887 Y2.641
X13.907 Y2.611
X13.914 Y2.575
Y1.545
X13.907 Y1.509
X13.887 Y1.479
X13.856 Y1.458
X13.821 Y1.451
X12.935
Y1.435
Y1.451
X12.882 Y1.504 Z-0.003
Z5.
X12.974 Y0.738
Z-0.2 F200.
X13.023 Y0.717 F498.4
X13.042 Y0.669
X13.023 Y0.62
X12.974 Y0.601
X12.924 Y0.621
X12.903 Y0.669
X12.924 Y0.716
X12.974 Y0.738
Z5.
X12.893 Y0.022
Z-0.003 F200.
X12.916 Y-0.049 Z-0.199 F498.4
Z5.
X12.845 Y-0.072
Z-0.003 F200.
X12.916 Y-0.049 Z-0.199 F498.4
X13.149 Y-0.171 Z-0.2
X14.632 Y-0.943
X14.669 Y-0.953
X14.707 Y-0.948
X14.74 Y-0.928
X14.762 Y-0.897
X14.769 Y-0.86
Y0.018
X14.774
X14.827 Y0.071 Z-0.003
X14.774 Y0.018 Z-0.2
Y-1.018
X14.826 Y-1.104 Z-0.006
X14.774 Y-1.018 Z-0.2
X13.149 Y-0.171
Z5.
X14.716 Y0.071
Z-0.003 F200.
X14.769 Y0.018 Z-0.2 F498.4
Z5.
X10.886 Y-4.546
Z-0.011 F200.
Y-4.464 Z-0.2 F498.4
X10.675 Y-4.197
X10.652 Y-4.086
X10.666 Y-4.155
X10.673 Y-4.175
X10.684 Y-4.193
X10.89 Y-4.458
X10.886 Y-4.464
X10.89 Y-4.458
X10.956 Z-0.005
X10.89 Z-0.2
X10.684 Y-4.193
X10.673 Y-4.175
X10.666 Y-4.155
X10.652 Y-4.086
X10.584 Y-3.763 Z-0.197
X10.582 Y-3.746 Z-0.2
X10.579 Y-3.732
X10.64 Y-3.402
X10.583 Y-3.728
X10.582 Y-3.746
X10.583 Y-3.728
X10.64 Y-3.402
X10.66 Y-3.294
X10.9 Y-2.965
X11.199 Y-2.79
X11.557 Y-2.73
X11.932 Y-2.801
X12.241 Y-3.014
X12.446 Y-3.335
X12.516 Y-3.728
X12.415 Y-4.201
X12.189 Y-4.467
X12.187 Y-4.552 Z0.
X12.189 Y-4.467 Z-0.2
X12.183 Y-4.46
X12.116 Y-4.459 Z-0.004
X12.183 Y-4.46 Z-0.2
X12.396 Y-4.198
X12.408 Y-4.18
X12.415 Y-4.159
X12.505 Y-3.753
X12.507 Y-3.731
X12.504 Y-3.709
X12.386 Y-3.26
X12.377 Y-3.238
X12.362 Y-3.219
X12.049 Y-2.897
X12.029 Y-2.881
X12.005 Y-2.872
X11.565 Y-2.759
X11.545 Y-2.756
X11.524 Y-2.757
X11.184 Y-2.821
X11.165 Y-2.826
X11.148 Y-2.836
X10.87 Y-3.026
X10.845 Y-3.052
X10.658 Y-3.34
X10.646 Y-3.366
Z5.
X10.575 Y-6.418
Z-0.003 F200.
X10.628 Y-6.365 Z-0.2 F498.4
X12.467
X12.52 Y-6.418 Z-0.003
X12.467 Y-6.365 Z-0.2
Y-6.349
X12.52 Y-6.296 Z-0.003
X12.467 Y-6.349 Z-0.2
X11.711
X11.675 Y-6.342
X11.645 Y-6.322
X11.624 Y-6.291
X11.617 Y-6.256
Y-5.226
X11.624 Y-5.19
X11.645 Y-5.159
X11.675 Y-5.139
X11.711 Y-5.132
X12.467
X12.52 Y-5.185 Z-0.003
X12.467 Y-5.132 Z-0.2
Y-5.113
X12.52 Y-5.06 Z-0.003
X12.467 Y-5.113 Z-0.2
X10.628
X10.575 Y-5.06 Z-0.003
X10.628 Y-5.113 Z-0.2
Y-5.132
X10.575 Y-5.185 Z-0.003
X10.628 Y-5.132 Z-0.2
X11.513
X11.549 Y-5.139
X11.579 Y-5.159
X11.6 Y-5.19
X11.607 Y-5.226
Y-6.256
X11.6 Y-6.291
X11.579 Y-6.322
X11.549 Y-6.342
X11.513 Y-6.349
X10.628
Y-6.365
Y-6.349
X10.575 Y-6.296 Z-0.003
Z5.
X10.667 Y-7.063
Z-0.2 F200.
X10.716 Y-7.084 F498.4
X10.735 Y-7.131
X10.716 Y-7.18
X10.667 Y-7.2
X10.616 Y-7.18
X10.596 Y-7.131
X10.616 Y-7.084
X10.667 Y-7.063
Z5.
X11.873 Y-8.69
Z-0.2 F200.
X11.716 Y-8.524 Z-0.162 F498.4
X11.684 Y-8.484 Z-0.2
X11.654 Y-8.477
X11.623 Y-8.479
X11.595 Y-8.491
X11.572 Y-8.512
X11.531 Y-8.564
X11.474 Y-8.661 Z-0.147
X11.415 Y-8.714 Z-0.2
X11.359 Y-8.785
X11.119 Y-8.855
X10.762 Y-8.723
X10.627 Y-8.536
X10.578 Y-8.264
X10.621 Y-8.003
X10.737 Y-7.83
X10.787 Y-7.81
X10.659 Y-7.955
X10.645 Y-7.974
X10.637 Y-7.997
X10.584 Y-8.248
X10.582 Y-8.274
X10.587 Y-8.3
X10.717 Y-8.653
X10.737 Y-8.685
X10.769 Y-8.707
X11.076 Y-8.837
X11.101 Y-8.843
X11.127
X11.152 Y-8.835
X11.415 Y-8.714
X11.152 Y-8.835
X11.127 Y-8.843
X11.101
X11.076 Y-8.837
X10.769 Y-8.707
X10.737 Y-8.685
X10.717 Y-8.653
X10.587 Y-8.3
X10.582 Y-8.274
X10.584 Y-8.248
X10.637 Y-7.997
X10.645 Y-7.974
X10.659 Y-7.955
X10.787 Y-7.81
X10.851 Y-7.77 Z-0.152
X11.071 Y-7.694 Z-0.2
X11.101 Y-7.692
X11.131 Y-7.7
X11.403 Y-7.821
X11.349 Y-7.754
X11.103 Y-7.681
X11.071 Y-7.694
X11.103 Y-7.681
X11.349 Y-7.754
X11.403 Y-7.821
X11.469 Y-7.878 Z-0.139
X11.529 Y-7.978 Z-0.2
X11.632 Y-8.246
X11.636 Y-8.259
Y-8.296
X11.637 Y-8.299
X11.684 Y-8.484
X11.637 Y-8.299
X11.636 Y-8.296
X11.631 Y-8.314
X11.531 Y-8.564
X11.631 Y-8.314
X11.636 Y-8.296
Y-8.259
X11.641 Y-8.242
X11.728 Y-8.022
X11.717 Y-8.035
X11.692 Y-8.056
X11.661 Y-8.067
X11.628 Y-8.066
X11.598 Y-8.054
X11.573 Y-8.033
X11.529 Y-7.978
X11.573 Y-8.033
X11.598 Y-8.054
X11.628 Y-8.066
X11.661 Y-8.067
X11.692 Y-8.056
X11.717 Y-8.035
X11.728 Y-8.022
X11.777 Y-7.947 Z-0.153
X11.836 Y-7.897 Z-0.2
X11.891 Y-7.833
X12.083 Y-7.776
X12.288 Y-7.839
X12.344 Y-7.901
X12.119 Y-7.799
X12.093 Y-7.791
X12.066 Y-7.792
X12.04 Y-7.8
X11.836 Y-7.897
X12.04 Y-7.8
X12.066 Y-7.792
X12.093 Y-7.791
X12.119 Y-7.799
X12.344 Y-7.901
X12.382 Y-7.933 Z-0.176
X12.411 Y-7.973 Z-0.2
X12.505 Y-8.236
X12.507 Y-8.243
X12.455 Y-8.022
X12.411 Y-7.973
X12.455 Y-8.022
X12.515 Y-8.278
X12.508 Y-8.25
X12.51 Y-8.275
X12.504 Y-8.3
X12.403 Y-8.58
Z5.
X12.515 Y-8.278
Z-0.2 F200.
X12.453 Y-8.526 F498.4
X12.403 Y-8.58
X12.377 Y-8.616 Z-0.18
X12.343 Y-8.645 Z-0.2
X12.125 Y-8.743
X12.093 Y-8.751
X12.06 Y-8.747
X11.888 Y-8.696
X11.873 Y-8.69
X11.885 Y-8.705
X12.078 Y-8.763
X12.289 Y-8.702
X12.343 Y-8.645
Z5.
X3.774 Y55.753
Z-0.011 F200.
X3.773 Y55.835 Z-0.2 F498.4
X3.777 Y55.841
X3.843 Z-0.005
X3.777 Z-0.2
X3.572 Y56.106
X3.561 Y56.124
X3.554 Y56.144
X3.539 Y56.213
X3.562 Y56.102
X3.773 Y55.835
X3.562 Y56.102
X3.466 Y56.567
X3.528 Y56.898
X3.47 Y56.571
X3.469 Y56.553
X3.47 Y56.571
X3.528 Y56.898
X3.534 Y56.933
X3.546 Y56.959
X3.732 Y57.247
X3.758 Y57.273
X4.035 Y57.463
X4.052 Y57.473
X4.071 Y57.478
X4.412 Y57.542
X4.432 Y57.543
X4.452 Y57.54
X4.893 Y57.427
X4.916 Y57.418
X4.936 Y57.402
X5.25 Y57.08
X5.264 Y57.061
X5.273 Y57.039
X5.392 Y56.59
X5.395 Y56.568
X5.392 Y56.546
X5.302 Y56.14
X5.295 Y56.119
X5.283 Y56.101
X5.07 Y55.839
X5.004 Y55.84 Z-0.004
X5.07 Y55.839 Z-0.2
X5.076 Y55.832
X5.074 Y55.747 Z0.
X5.076 Y55.832 Z-0.2
X5.302 Y56.098
X5.403 Y56.571
X5.334 Y56.964
X5.128 Y57.285
X4.819 Y57.498
X4.445 Y57.569
X4.086 Y57.51
X3.788 Y57.334
X3.547 Y57.005
X3.534 Y56.933
Z15.
(When using Fusion for Personal Use, the feedrate of rapid)
(moves is reduced to match the feedrate of cutting moves,)
(which can increase machining time. Unrestricted rapid moves)
(are available with a Fusion Subscription.)

(2D Contour6)
G0 X12.42 Y12.891
G1 Z15. F498.4
Z5.
Z0.635 F200.
Z-0.2
X12.384 Y12.898 F498.4
X12.354 Y12.918
X12.333 Y12.948
X12.326 Y12.984
Y19.988
X12.333 Y20.024
X12.354 Y20.055
X12.384 Y20.075
X12.42 Y20.082
X15.191
X15.227 Y20.075
X15.257 Y20.055
X15.278 Y20.024
X15.285 Y19.988
Y12.984
X15.278 Y12.948
X15.257 Y12.918
X15.227 Y12.898
X15.191 Y12.891
X12.42
Z5.
X15.36 Y5.536
Z0.635 F200.
Z-0.2
Y-1.468 F498.4
X15.353 Y-1.504
X15.332 Y-1.534
X15.302 Y-1.554
X15.266 Y-1.562
X12.495
X12.459 Y-1.554
X12.428 Y-1.534
X12.408 Y-1.504
X12.401 Y-1.468
Y5.536
X12.408 Y5.572
X12.428 Y5.603
X12.459 Y5.623
X12.495 Y5.63
X15.266
X15.302 Y5.623
X15.332 Y5.603
X15.353 Y5.572
X15.36 Y5.536
Z5.
X12.959 Y-2.171
Z0.635 F200.
Z-0.2
X12.995 Y-2.178 F498.4
X13.025 Y-2.198
X13.045 Y-2.228
X13.052 Y-2.264
Y-9.268
X13.045 Y-9.304
X13.025 Y-9.335
X12.995 Y-9.355
X12.959 Y-9.362
X10.187
X10.151 Y-9.355
X10.121 Y-9.335
X10.101 Y-9.304
X10.094 Y-9.268
Y-2.264
X10.101 Y-2.228
X10.121 Y-2.198
X10.151 Y-2.178
X10.187 Y-2.171
X12.959
Z5.
X10.611 Y20.517
Z0.635 F200.
Z-0.2
X10.575 Y20.524 F498.4
X10.544 Y20.544
X10.524 Y20.575
X10.517 Y20.611
Y27.615
X10.524 Y27.651
X10.544 Y27.681
X10.575 Y27.701
X10.611 Y27.708
X13.382
X13.418 Y27.701
X13.448 Y27.681
X13.469 Y27.651
X13.476 Y27.615
Y20.611
X13.469 Y20.575
X13.448 Y20.544
X13.418 Y20.524
X13.382 Y20.517
X10.611
Z5.
X8.596 Y28.172
Z0.635 F200.
Z-0.2
Y35.176 F498.4
X8.603 Y35.212
X8.623 Y35.242
X8.653 Y35.263
X8.689 Y35.27
X11.461
X11.497 Y35.263
X11.527 Y35.242
X11.547 Y35.212
X11.554 Y35.176
Y28.172
X11.547 Y28.136
X11.527 Y28.106
X11.497 Y28.085
X11.461 Y28.078
X8.689
X8.653 Y28.085
X8.623 Y28.106
X8.603 Y28.136
X8.596 Y28.172
Z15.
(When using Fusion for Personal Use, the feedrate of rapid)
(moves is reduced to match the feedrate of cutting moves,)
(which can increase machining time. Unrestricted rapid moves)
(are available with a Fusion Subscription.)

(2D Contour7)
G0 X4.131 Y51.285
G1 Z15. F498.4
Z5.
Z0.635 F200.
Z-0.2
Y30.186 F498.4
X4.124 Y30.15
X4.103 Y30.12
X4.073 Y30.1
X4.037 Y30.092
X0.
Z15.
(When using Fusion for Personal Use, the feedrate of rapid)
(moves is reduced to match the feedrate of cutting moves,)
(which can increase machining time. Unrestricted rapid moves)
(are available with a Fusion Subscription.)

(2D Contour7 2)
G0 X2.804 Y34.466
G1 Z15. F498.4
Z5.
Z0.635 F200.
Z-0.2
Y33.466 F498.4
Z15.
(When using Fusion for Personal Use, the feedrate of rapid)
(moves is reduced to match the feedrate of cutting moves,)
(which can increase machining time. Unrestricted rapid moves)
(are available with a Fusion Subscription.)

(2D Contour7 3)
G0 X2.004 Y34.966
G1 Z15. F498.4
Z5.
Z0.635 F200.
Z-0.2
Y32.966 F498.4
Z15.
(When using Fusion for Personal Use, the feedrate of rapid)
(moves is reduced to match the feedrate of cutting moves,)
(which can increase machining time. Unrestricted rapid moves)
(are available with a Fusion Subscription.)

(2D Contour7 4)
G0 X1.204 Y35.592
G1 Z15. F498.4
Z5.
Z0.635 F200.
Z-0.2
Y32.34 F498.4
Z15.
(When using Fusion for Personal Use, the feedrate of rapid)
(moves is reduced to match the feedrate of cutting moves,)
(which can increase machining time. Unrestricted rapid moves)
(are available with a Fusion Subscription.)

(2D Contour7 5)
G0 X0.91 Y33.873
G1 Z15. F498.4
Z5.
Z0.635 F200.
Z-0.2
X0. F498.4
Z15.
(When using Fusion for Personal Use, the feedrate of rapid)
(moves is reduced to match the feedrate of cutting moves,)
(which can increase machining time. Unrestricted rapid moves)
(are available with a Fusion Subscription.)

(2D Contour7 6)
G0 X6.015 Y43.134
G1 Z15. F498.4
Z5.
Z0.635 F200.
Z-0.2
Y26.406 F498.4
X6.008 Y26.37
X5.987 Y26.339
X5.957 Y26.319
X5.921 Y26.312
X0.
Z15.
(When using Fusion for Personal Use, the feedrate of rapid)
(moves is reduced to match the feedrate of cutting moves,)
(which can increase machining time. Unrestricted rapid moves)
(are available with a Fusion Subscription.)

(2D Contour7 7)
G0 X7.881 Y35.558
G1 Z15. F498.4
Z5.
Z0.635 F200.
Z-0.2
Y22.636 F498.4
X7.874 Y22.6
X7.854 Y22.569
X7.823 Y22.549
X7.788 Y22.542
X0.
Z15.
(When using Fusion for Personal Use, the feedrate of rapid)
(moves is reduced to match the feedrate of cutting moves,)
(which can increase machining time. Unrestricted rapid moves)
(are available with a Fusion Subscription.)

(2D Contour7 8)
G0 X9.783 Y27.972
G1 Z15. F498.4
Z5.
Z0.635 F200.
Z-0.2
Y18.863 F498.4
X9.775 Y18.827
X9.755 Y18.797
X9.725 Y18.777
X9.689 Y18.769
X0.
Z15.
(When using Fusion for Personal Use, the feedrate of rapid)
(moves is reduced to match the feedrate of cutting moves,)
(which can increase machining time. Unrestricted rapid moves)
(are available with a Fusion Subscription.)

(2D Contour7 9)
G0 X11.667 Y20.41
G1 Z15. F498.4
Z5.
Z0.635 F200.
Z-0.2
Y15.093 F498.4
X11.659 Y15.057
X11.639 Y15.027
X11.609 Y15.007
X11.573 Y14.999
X0.
Z15.
(When using Fusion for Personal Use, the feedrate of rapid)
(moves is reduced to match the feedrate of cutting moves,)
(which can increase machining time. Unrestricted rapid moves)
(are available with a Fusion Subscription.)

(2D Contour7 10)
G0 X13.551 Y12.784
G1 Z15. F498.4
Z5.
Z0.635 F200.
Z-0.2
Y11.323 F498.4
X13.544 Y11.287
X13.524 Y11.257
X13.493 Y11.237
X13.457 Y11.229
X0.
Z15.
(When using Fusion for Personal Use, the feedrate of rapid)
(moves is reduced to match the feedrate of cutting moves,)
(which can increase machining time. Unrestricted rapid moves)
(are available with a Fusion Subscription.)

(2D Contour7 11)
G0 X13.364 Y5.736
G1 Z15. F498.4
Z5.
Z0.635 F200.
Z-0.2
Y7.446 F498.4
X0.
Z15.
(When using Fusion for Personal Use, the feedrate of rapid)
(moves is reduced to match the feedrate of cutting moves,)
(which can increase machining time. Unrestricted rapid moves)
(are available with a Fusion Subscription.)

(2D Contour7 12)
G0 X11.479 Y-2.064
G1 Z15. F498.4
Z5.
Z0.635 F200.
Z-0.2
Y3.676 F498.4
X0.
Z15.
(When using Fusion for Personal Use, the feedrate of rapid)
(moves is reduced to match the feedrate of cutting moves,)
(which can increase machining time. Unrestricted rapid moves)
(are available with a Fusion Subscription.)

(2D Contour7 13)
G0 X2.804 Y0.5
G1 Z15. F498.4
Z5.
Z0.635 F200.
Z-0.2
Y-0.5 F498.4
Z15.
(When using Fusion for Personal Use, the feedrate of rapid)
(moves is reduced to match the feedrate of cutting moves,)
(which can increase machining time. Unrestricted rapid moves)
(are available with a Fusion Subscription.)

(2D Contour7 14)
G0 X2.004 Y1.
G1 Z15. F498.4
Z5.
Z0.635 F200.
Z-0.2
Y-1. F498.4
Z15.
(When using Fusion for Personal Use, the feedrate of rapid)
(moves is reduced to match the feedrate of cutting moves,)
(which can increase machining time. Unrestricted rapid moves)
(are available with a Fusion Subscription.)

(2D Contour7 15)
G0 X1.204 Y1.626
G1 Z15. F498.4
Z5.
Z0.635 F200.
Z-0.2
Y-1.626 F498.4
Z15.
(When using Fusion for Personal Use, the feedrate of rapid)
(moves is reduced to match the feedrate of cutting moves,)
(which can increase machining time. Unrestricted rapid moves)
(are available with a Fusion Subscription.)

(2D Contour7 16)
G0 X0.91 Y-0.094
G1 Z15. F498.4
Z5.
Z0.635 F200.
Z-0.2
X0. F498.4
Z15.
M5
M852
G28
M30
