(tmp_test_export)
(Generated by cnc_radial_surface_app.py)
G90 G94
G17
G21
M6 T1
M851 S100
S11962 M3
G54
G0 X10. Y0.
Z15.
G1 Z5. F498.4
Z0.635 F200.
Z-0.2
X10.354 Y2.099 F498.4
X10.069 Y4.257
X9.057 Y6.196
X7.438 Y7.658
X5.479 Y8.533
X3.463 Y8.908
X1.552 Y8.996
X-0.263 Y9.
X-2.096 Y8.986
X-4.045 Y8.839
X-6.068 Y8.337
X-7.959 Y7.291
X-9.425 Y5.67
X-10.227 Y3.636
X-10.308 Y1.469
X-9.809 Y-0.574
X-8.991 Y-2.377
X-8.088 Y-3.991
X-7.183 Y-5.556
X-6.186 Y-7.162
X-4.919 Y-8.745
X-3.255 Y-10.079
X-1.227 Y-10.875
X0.959 Y-10.924
X3.021 Y-10.213
X4.736 Y-8.93
X6.047 Y-7.363
X7.067 Y-5.752
X7.976 Y-4.185
X8.881 Y-2.584
X9.719 Y-0.81
X10. Y0.
G0 Z15.
M5
M852
G28
M30
